;FLAVOR:Marlin
;TIME:4001
;Filament used: 2.32245m
;Layer height: 0.12
;MINX:140.558
;MINY:124
;MINZ:0.24
;MAXX:159.3
;MAXY:176
;MAXZ:49.32
;Generated with Cura_SteamEngine 4.4.1
M140 S80
M105
M190 S80
M104 S210
M105
M109 S210
M82 ;absolute extrusion mode
G28 ;Home
G1 Z15.0 F6000 ;Move the platform down 15mm
;Prime the extruder
G92 E0
G1 F200 E3
G92 E0
G92 E0
G92 E0
G1 F1500 E-6.5
;LAYER_COUNT:410
;LAYER:0
M107
G1 F600 Z0.74
G0 F2520 X144.352 Y125.177 Z0.74
;TYPE:SKIRT
G1 F600 Z0.24
G1 F1500 E0
G1 F1050 X144.68 Y124.813 E0.01956
G1 X145.063 Y124.509 E0.03907
G1 X145.49 Y124.27 E0.0586
G1 X145.951 Y124.104 E0.07816
G1 X146.432 Y124.015 E0.09768
G1 X146.734 Y124 E0.10975
G1 X153.261 Y124 E0.37026
G1 X153.749 Y124.04 E0.3898
G1 X154.224 Y124.159 E0.40934
G1 X154.673 Y124.353 E0.42887
G1 X155.085 Y124.618 E0.44842
G1 X155.448 Y124.946 E0.46794
G1 X155.753 Y125.329 E0.48749
G1 X155.991 Y125.757 E0.50703
G1 X156.157 Y126.217 E0.52655
G1 X156.246 Y126.698 E0.54607
G1 X156.261 Y126.997 E0.55802
G1 X156.265 Y131.422 E0.73463
G1 X156.265 Y131.425 E0.73475
G1 X156.263 Y149.314 E1.44874
G1 X156.353 Y149.353 E1.45266
G1 X156.765 Y149.618 E1.47221
G1 X157.128 Y149.946 E1.49173
G1 X157.433 Y150.329 E1.51128
G1 X157.671 Y150.757 E1.53082
G1 X157.837 Y151.217 E1.55034
G1 X157.926 Y151.698 E1.56986
G1 X157.941 Y151.993 E1.58165
G1 X157.941 Y152.117 E1.5866
G1 X158.023 Y152.17 E1.5905
G1 X158.386 Y152.498 E1.61003
G1 X158.691 Y152.881 E1.62957
G1 X158.929 Y153.309 E1.64911
G1 X159.095 Y153.769 E1.66863
G1 X159.184 Y154.25 E1.68816
G1 X159.199 Y154.552 E1.70022
G1 X159.199 Y160.226 E1.92669
G1 X159.286 Y160.708 E1.94623
G1 X159.3 Y160.997 E1.95778
G1 X159.3 Y164 E2.07764
G1 X159.26 Y164.488 E2.09718
G1 X159.141 Y164.963 E2.11672
G1 X158.947 Y165.412 E2.13625
G1 X158.682 Y165.824 E2.1558
G1 X158.354 Y166.187 E2.17532
G1 X157.971 Y166.492 E2.19487
G1 X157.802 Y166.586 E2.20258
G1 X157.803 Y172.999 E2.45854
G1 X157.763 Y173.487 E2.47808
G1 X157.645 Y173.962 E2.49762
G1 X157.45 Y174.411 E2.51716
G1 X157.186 Y174.823 E2.53669
G1 X156.857 Y175.186 E2.55624
G1 X156.474 Y175.491 E2.57578
G1 X156.047 Y175.73 E2.59531
G1 X155.587 Y175.896 E2.61483
G1 X155.105 Y175.985 E2.63439
G1 X154.803 Y176 E2.64646
G1 X154.52 Y176 E2.65776
G1 X154.032 Y175.96 E2.6773
G1 X153.557 Y175.841 E2.69684
G1 X153.108 Y175.647 E2.71636
G1 X152.925 Y175.529 E2.72505
G1 X152.558 Y175.732 E2.74179
G1 X152.098 Y175.897 E2.7613
G1 X151.616 Y175.985 E2.78085
G1 X151.32 Y176 E2.79268
G1 X148.685 Y176 E2.89785
G1 X148.197 Y175.96 E2.91739
G1 X147.722 Y175.841 E2.93694
G1 X147.273 Y175.647 E2.95646
G1 X147.089 Y175.529 E2.96518
G1 X146.736 Y175.727 E2.98134
G1 X146.276 Y175.894 E3.00087
G1 X145.795 Y175.984 E3.0204
G1 X145.485 Y176 E3.03279
G1 X145.198 Y176 E3.04425
G1 X144.71 Y175.96 E3.06379
G1 X144.235 Y175.841 E3.08333
G1 X143.786 Y175.647 E3.10285
G1 X143.374 Y175.382 E3.12241
G1 X143.011 Y175.054 E3.14193
G1 X142.706 Y174.671 E3.16147
G1 X142.468 Y174.243 E3.18102
G1 X142.302 Y173.783 E3.20054
G1 X142.213 Y173.302 E3.22006
G1 X142.198 Y173.005 E3.23193
G1 X142.197 Y172.444 E3.25432
G1 X142.197 Y172.438 E3.25456
G1 X142.199 Y166.495 E3.49176
G1 X142.023 Y166.382 E3.50011
G1 X141.66 Y166.054 E3.51963
G1 X141.355 Y165.671 E3.53917
G1 X141.117 Y165.243 E3.55872
G1 X140.951 Y164.783 E3.57824
G1 X140.862 Y164.302 E3.59776
G1 X140.847 Y164 E3.60983
G1 X140.847 Y161 E3.72957
G1 X140.887 Y160.512 E3.74911
G1 X141.006 Y160.037 E3.76865
G1 X141.2 Y159.588 E3.78818
G1 X141.465 Y159.176 E3.80773
G1 X141.793 Y158.813 E3.82725
G1 X141.94 Y158.696 E3.83475
G1 X141.734 Y158.564 E3.84452
G1 X141.371 Y158.236 E3.86404
G1 X141.066 Y157.853 E3.88358
G1 X140.828 Y157.425 E3.90313
G1 X140.662 Y156.965 E3.92265
G1 X140.573 Y156.484 E3.94217
G1 X140.558 Y156.182 E3.95424
G1 X140.558 Y153.182 E4.07398
G1 X140.598 Y152.694 E4.09352
G1 X140.717 Y152.219 E4.11306
G1 X140.911 Y151.77 E4.13259
G1 X141.176 Y151.358 E4.15214
G1 X141.504 Y150.995 E4.17166
G1 X141.887 Y150.69 E4.19121
G1 X142.315 Y150.452 E4.21075
G1 X142.554 Y150.366 E4.22089
G1 X142.676 Y150.176 E4.2299
G1 X143.004 Y149.813 E4.24943
G1 X143.387 Y149.508 E4.26897
G1 X143.736 Y149.314 E4.28491
G1 X143.734 Y127 E5.17551
G1 X143.774 Y126.512 E5.19505
G1 X143.893 Y126.038 E5.21455
G1 X144.087 Y125.588 E5.23411
G1 X144.352 Y125.177 E5.25363
G0 F2520 X144.748 Y125.321
G1 F1050 X145.072 Y125.001 E5.27181
G1 X145.446 Y124.741 E5.28999
G1 X145.861 Y124.551 E5.3082
G1 X146.301 Y124.436 E5.32635
G1 X146.734 Y124.4 E5.34369
G1 X153.261 Y124.4 E5.6042
G1 X153.715 Y124.44 E5.62239
G1 X154.155 Y124.558 E5.64057
G1 X154.567 Y124.752 E5.65875
G1 X154.94 Y125.015 E5.67697
G1 X155.261 Y125.338 E5.69514
G1 X155.52 Y125.713 E5.71333
G1 X155.71 Y126.127 E5.73151
G1 X155.825 Y126.568 E5.7497
G1 X155.861 Y126.998 E5.76692
G1 X155.865 Y131.423 E5.94353
G1 X155.865 Y131.425 E5.94361
G1 X155.863 Y149.453 E6.66315
G1 X155.853 Y149.566 E6.66768
G1 X156.247 Y149.752 E6.68507
G1 X156.62 Y150.015 E6.70328
G1 X156.941 Y150.338 E6.72146
G1 X157.2 Y150.713 E6.73965
G1 X157.39 Y151.127 E6.75783
G1 X157.505 Y151.568 E6.77602
G1 X157.541 Y151.994 E6.79308
G1 X157.542 Y152.33 E6.80649
G1 X157.878 Y152.567 E6.8229
G1 X158.199 Y152.89 E6.84108
G1 X158.458 Y153.265 E6.85927
G1 X158.648 Y153.679 E6.87745
G1 X158.763 Y154.12 E6.89564
G1 X158.799 Y154.552 E6.91294
G1 X158.799 Y160.276 E7.1414
G1 X158.813 Y160.329 E7.14359
G1 X158.9 Y160.997 E7.17047
G1 X158.9 Y164 E7.29033
G1 X158.86 Y164.454 E7.30852
G1 X158.742 Y164.894 E7.3267
G1 X158.548 Y165.306 E7.34488
G1 X158.285 Y165.679 E7.36309
G1 X157.962 Y166 E7.38127
G1 X157.587 Y166.259 E7.39946
G1 X157.401 Y166.344 E7.40762
G1 X157.403 Y172.999 E7.67324
G1 X157.363 Y173.453 E7.69143
G1 X157.245 Y173.893 E7.70961
G1 X157.051 Y174.306 E7.72782
G1 X156.789 Y174.678 E7.74598
G1 X156.465 Y174.999 E7.76418
G1 X156.091 Y175.259 E7.78236
G1 X155.677 Y175.449 E7.80054
G1 X155.236 Y175.564 E7.81873
G1 X154.803 Y175.6 E7.83608
G1 X154.52 Y175.6 E7.84737
G1 X154.066 Y175.56 E7.86556
G1 X153.626 Y175.442 E7.88374
G1 X153.214 Y175.248 E7.90192
G1 X152.922 Y175.042 E7.91618
G1 X152.603 Y175.261 E7.93162
G1 X152.189 Y175.451 E7.9498
G1 X151.748 Y175.565 E7.96798
G1 X151.32 Y175.6 E7.98512
G1 X148.685 Y175.6 E8.09029
G1 X148.231 Y175.56 E8.10848
G1 X147.791 Y175.442 E8.12666
G1 X147.379 Y175.248 E8.14484
G1 X147.086 Y175.041 E8.15916
G1 X146.778 Y175.255 E8.17413
G1 X146.365 Y175.447 E8.19231
G1 X145.924 Y175.563 E8.21051
G1 X145.485 Y175.6 E8.22809
G1 X145.198 Y175.6 E8.23954
G1 X144.744 Y175.56 E8.25773
G1 X144.304 Y175.442 E8.27592
G1 X143.892 Y175.248 E8.29409
G1 X143.519 Y174.985 E8.31231
G1 X143.198 Y174.662 E8.33048
G1 X142.939 Y174.287 E8.34867
G1 X142.749 Y173.873 E8.36685
G1 X142.634 Y173.432 E8.38504
G1 X142.598 Y173.005 E8.40215
G1 X142.597 Y172.444 E8.42454
G1 X142.597 Y172.438 E8.42478
G1 X142.599 Y166.275 E8.67076
G1 X142.541 Y166.248 E8.67331
G1 X142.168 Y165.985 E8.69152
G1 X141.847 Y165.662 E8.7097
G1 X141.588 Y165.287 E8.72789
G1 X141.398 Y164.873 E8.74607
G1 X141.283 Y164.432 E8.76426
G1 X141.247 Y164 E8.78156
G1 X141.247 Y161 E8.9013
G1 X141.287 Y160.546 E8.91949
G1 X141.405 Y160.106 E8.93767
G1 X141.599 Y159.694 E8.95585
G1 X141.862 Y159.321 E8.97406
G1 X142.185 Y159 E8.99224
G1 X142.459 Y158.811 E9.00552
G1 X142.459 Y158.527 E9.01686
G1 X142.252 Y158.43 E9.02598
G1 X141.879 Y158.167 E9.0442
G1 X141.558 Y157.844 E9.06237
G1 X141.299 Y157.469 E9.08056
G1 X141.109 Y157.055 E9.09874
G1 X140.994 Y156.614 E9.11693
G1 X140.958 Y156.182 E9.13423
G1 X140.958 Y153.182 E9.25397
G1 X140.998 Y152.728 E9.27216
G1 X141.116 Y152.288 E9.29034
G1 X141.31 Y151.876 E9.30852
G1 X141.573 Y151.503 E9.32673
G1 X141.896 Y151.182 E9.34491
G1 X142.271 Y150.923 E9.3631
G1 X142.685 Y150.733 E9.38128
G1 X142.807 Y150.701 E9.38631
G1 X142.81 Y150.694 E9.38662
G1 X143.073 Y150.321 E9.40483
G1 X143.396 Y150 E9.42301
G1 X143.771 Y149.741 E9.4412
G1 X144.146 Y149.569 E9.45767
G1 X144.136 Y149.455 E9.46223
G1 X144.134 Y127 E10.35846
G1 X144.174 Y126.546 E10.37665
G1 X144.292 Y126.106 E10.39483
G1 X144.486 Y125.694 E10.41301
G1 X144.748 Y125.321 E10.4312
G0 F2520 X144.884 Y125.809
G1 F1050 X145.144 Y125.48 E10.44794
G1 X145.461 Y125.206 E10.46466
G1 X145.824 Y124.997 E10.48138
G1 X146.221 Y124.861 E10.49813
G1 X146.734 Y124.8 E10.51875
G1 X153.261 Y124.8 E10.77925
G1 X153.678 Y124.84 E10.79597
G1 X154.08 Y124.958 E10.8127
G1 X154.452 Y125.151 E10.82942
G1 X154.781 Y125.41 E10.84613
G1 X155.055 Y125.727 E10.86286
G1 X155.264 Y126.09 E10.87957
G1 X155.4 Y126.487 E10.89632
G1 X155.461 Y126.998 E10.91686
G1 X155.465 Y131.423 E11.09348
G1 X155.465 Y131.425 E11.09356
G1 X155.463 Y149.453 E11.81309
G1 X155.424 Y149.859 E11.82937
G1 X155.76 Y149.958 E11.84335
G1 X156.132 Y150.151 E11.86008
G1 X156.461 Y150.41 E11.87679
G1 X156.735 Y150.727 E11.89351
G1 X156.944 Y151.09 E11.91023
G1 X157.08 Y151.487 E11.92698
G1 X157.141 Y151.995 E11.9474
G1 X157.142 Y152.574 E11.97051
G1 X157.39 Y152.703 E11.98167
G1 X157.719 Y152.962 E11.99838
G1 X157.993 Y153.279 E12.0151
G1 X158.202 Y153.642 E12.03182
G1 X158.338 Y154.039 E12.04857
G1 X158.399 Y154.552 E12.06919
G1 X158.399 Y160.33 E12.2998
G1 X158.426 Y160.432 E12.30401
G1 X158.5 Y160.997 E12.32676
G1 X158.5 Y164 E12.44661
G1 X158.46 Y164.417 E12.46333
G1 X158.342 Y164.819 E12.48005
G1 X158.149 Y165.191 E12.49678
G1 X157.89 Y165.52 E12.51349
G1 X157.573 Y165.794 E12.53021
G1 X157.21 Y166.003 E12.54693
G1 X157.001 Y166.074 E12.55574
G1 X157.003 Y172.999 E12.83213
G1 X156.963 Y173.417 E12.84889
G1 X156.845 Y173.819 E12.86562
G1 X156.653 Y174.191 E12.88232
G1 X156.393 Y174.52 E12.89906
G1 X156.076 Y174.794 E12.91578
G1 X155.713 Y175.003 E12.9325
G1 X155.317 Y175.139 E12.94921
G1 X154.803 Y175.2 E12.96987
G1 X154.52 Y175.2 E12.98117
G1 X154.103 Y175.16 E12.99789
G1 X153.701 Y175.042 E13.01461
G1 X153.329 Y174.849 E13.03133
G1 X153 Y174.59 E13.04805
G1 X152.924 Y174.502 E13.05269
G1 X152.907 Y174.523 E13.05377
G1 X152.59 Y174.797 E13.07049
G1 X152.226 Y175.005 E13.08722
G1 X151.829 Y175.14 E13.10396
G1 X151.32 Y175.2 E13.12441
G1 X148.685 Y175.2 E13.22958
G1 X148.268 Y175.16 E13.2463
G1 X147.866 Y175.042 E13.26302
G1 X147.494 Y174.849 E13.27975
G1 X147.165 Y174.59 E13.29646
G1 X147.089 Y174.503 E13.30107
G1 X147.079 Y174.516 E13.30173
G1 X146.763 Y174.791 E13.31845
G1 X146.4 Y175.001 E13.33518
G1 X146.004 Y175.138 E13.35191
G1 X145.485 Y175.2 E13.37277
G1 X145.198 Y175.2 E13.38423
G1 X144.781 Y175.16 E13.40095
G1 X144.379 Y175.042 E13.41767
G1 X144.007 Y174.849 E13.43439
G1 X143.678 Y174.59 E13.45111
G1 X143.404 Y174.273 E13.46783
G1 X143.195 Y173.91 E13.48455
G1 X143.059 Y173.513 E13.5013
G1 X142.998 Y173.004 E13.52176
G1 X142.997 Y172.443 E13.54415
G1 X142.997 Y172.438 E13.54435
G1 X142.999 Y166.027 E13.80022
G1 X142.656 Y165.849 E13.81565
G1 X142.327 Y165.59 E13.83236
G1 X142.053 Y165.273 E13.84908
G1 X141.844 Y164.91 E13.8658
G1 X141.708 Y164.513 E13.88255
G1 X141.647 Y164 E13.90317
G1 X141.647 Y161 E14.02291
G1 X141.687 Y160.583 E14.03962
G1 X141.805 Y160.181 E14.05635
G1 X141.998 Y159.809 E14.07307
G1 X142.257 Y159.48 E14.08978
G1 X142.574 Y159.206 E14.10651
G1 X142.859 Y159.042 E14.11963
G1 X142.859 Y158.259 E14.15088
G1 X142.739 Y158.224 E14.15587
G1 X142.367 Y158.031 E14.1726
G1 X142.038 Y157.772 E14.18931
G1 X141.764 Y157.455 E14.20603
G1 X141.555 Y157.092 E14.22275
G1 X141.419 Y156.695 E14.2395
G1 X141.358 Y156.182 E14.26012
G1 X141.358 Y153.182 E14.37986
G1 X141.398 Y152.765 E14.39658
G1 X141.516 Y152.363 E14.4133
G1 X141.709 Y151.991 E14.43002
G1 X141.968 Y151.662 E14.44674
G1 X142.285 Y151.388 E14.46346
G1 X142.648 Y151.179 E14.48018
G1 X143.045 Y151.043 E14.49693
G1 X143.09 Y151.038 E14.49873
G1 X143.209 Y150.809 E14.50903
G1 X143.468 Y150.48 E14.52575
G1 X143.785 Y150.206 E14.54247
G1 X144.148 Y149.997 E14.55919
G1 X144.545 Y149.861 E14.57594
G1 X144.574 Y149.858 E14.5771
G1 X144.571 Y149.848 E14.57752
G1 X144.536 Y149.455 E14.59326
G1 X144.534 Y127 E15.48949
G1 X144.574 Y126.583 E15.50621
G1 X144.692 Y126.181 E15.52293
G1 X144.884 Y125.809 E15.53964
G0 F2520 X145.282 Y125.936
G1 F1050 X145.537 Y125.655 E15.55479
G1 X145.845 Y125.435 E15.56989
G1 X146.193 Y125.283 E15.58505
G1 X146.734 Y125.2 E15.6069
G1 X153.261 Y125.2 E15.8674
G1 X153.638 Y125.24 E15.88253
G1 X153.998 Y125.358 E15.89765
G1 X154.325 Y125.548 E15.91275
G1 X154.606 Y125.803 E15.92789
G1 X154.826 Y126.112 E15.94303
G1 X154.978 Y126.459 E15.95815
G1 X155.061 Y126.998 E15.97992
G1 X155.065 Y131.423 E16.15653
G1 X155.065 Y131.425 E16.15661
G1 X155.063 Y149.453 E16.87615
G1 X155.023 Y149.83 E16.89128
G1 X154.905 Y150.19 E16.9064
G1 X154.899 Y150.2 E16.90686
G1 X154.941 Y150.2 E16.90854
G1 X155.318 Y150.24 E16.92367
G1 X155.678 Y150.358 E16.93879
G1 X156.005 Y150.548 E16.95389
G1 X156.286 Y150.803 E16.96903
G1 X156.506 Y151.112 E16.98417
G1 X156.658 Y151.459 E16.99929
G1 X156.741 Y151.996 E17.02098
G1 X156.743 Y152.847 E17.05494
G1 X156.936 Y152.91 E17.06305
G1 X157.263 Y153.1 E17.07814
G1 X157.544 Y153.355 E17.09329
G1 X157.764 Y153.664 E17.10842
G1 X157.916 Y154.011 E17.12354
G1 X157.999 Y154.552 E17.14539
G1 X157.999 Y160.381 E17.37804
G1 X158.04 Y160.535 E17.3844
G1 X158.1 Y160.997 E17.40299
G1 X158.1 Y164 E17.52285
G1 X158.06 Y164.377 E17.53798
G1 X157.942 Y164.737 E17.5531
G1 X157.752 Y165.064 E17.5682
G1 X157.497 Y165.345 E17.58334
G1 X157.188 Y165.565 E17.59848
G1 X156.841 Y165.717 E17.6136
G1 X156.601 Y165.754 E17.62329
G1 X156.603 Y173 E17.91249
G1 X156.563 Y173.376 E17.92759
G1 X156.445 Y173.737 E17.94275
G1 X156.255 Y174.064 E17.95784
G1 X156 Y174.344 E17.97295
G1 X155.692 Y174.565 E17.98808
G1 X155.344 Y174.717 E18.00324
G1 X154.803 Y174.8 E18.02509
G1 X154.52 Y174.8 E18.03638
G1 X154.143 Y174.76 E18.05151
G1 X153.783 Y174.642 E18.06663
G1 X153.456 Y174.452 E18.08173
G1 X153.175 Y174.197 E18.09687
G1 X152.955 Y173.888 E18.11201
G1 X152.921 Y173.809 E18.11545
G1 X152.77 Y174.067 E18.12738
G1 X152.514 Y174.347 E18.14252
G1 X152.206 Y174.567 E18.15763
G1 X151.858 Y174.718 E18.17277
G1 X151.32 Y174.8 E18.19449
G1 X148.685 Y174.8 E18.29966
G1 X148.308 Y174.76 E18.31479
G1 X147.948 Y174.642 E18.32991
G1 X147.621 Y174.452 E18.345
G1 X147.34 Y174.197 E18.36015
G1 X147.12 Y173.888 E18.37529
G1 X147.085 Y173.809 E18.37873
G1 X146.939 Y174.061 E18.39036
G1 X146.685 Y174.342 E18.40548
G1 X146.378 Y174.563 E18.42057
G1 X146.031 Y174.715 E18.43569
G1 X145.485 Y174.8 E18.45775
G1 X145.198 Y174.8 E18.4692
G1 X144.821 Y174.76 E18.48433
G1 X144.461 Y174.642 E18.49946
G1 X144.134 Y174.452 E18.51455
G1 X143.853 Y174.197 E18.52969
G1 X143.633 Y173.888 E18.54483
G1 X143.481 Y173.541 E18.55995
G1 X143.398 Y173.003 E18.58168
G1 X143.397 Y172.442 E18.60407
G1 X143.397 Y172.438 E18.60423
G1 X143.399 Y165.737 E18.87168
G1 X143.11 Y165.642 E18.88382
G1 X142.783 Y165.452 E18.89892
G1 X142.502 Y165.197 E18.91406
G1 X142.282 Y164.888 E18.9292
G1 X142.13 Y164.541 E18.94432
G1 X142.047 Y164 E18.96617
G1 X142.047 Y161 E19.0859
G1 X142.087 Y160.623 E19.10104
G1 X142.205 Y160.263 E19.11616
G1 X142.395 Y159.936 E19.13125
G1 X142.65 Y159.655 E19.1464
G1 X142.959 Y159.435 E19.16154
G1 X143.259 Y159.304 E19.1746
G1 X143.259 Y157.95 E19.22864
G1 X143.181 Y157.942 E19.23177
G1 X142.821 Y157.824 E19.24689
G1 X142.494 Y157.634 E19.26199
G1 X142.213 Y157.379 E19.27713
G1 X141.993 Y157.07 E19.29227
G1 X141.841 Y156.723 E19.30739
G1 X141.758 Y156.182 E19.32924
G1 X141.758 Y153.182 E19.44897
G1 X141.798 Y152.805 E19.4641
G1 X141.916 Y152.445 E19.47922
G1 X142.106 Y152.118 E19.49432
G1 X142.361 Y151.837 E19.50946
G1 X142.67 Y151.617 E19.5246
G1 X143.017 Y151.465 E19.53972
G1 X143.367 Y151.411 E19.55386
G1 X143.416 Y151.263 E19.56008
G1 X143.606 Y150.936 E19.57517
G1 X143.861 Y150.655 E19.59032
G1 X144.17 Y150.435 E19.60546
G1 X144.517 Y150.283 E19.62058
G1 X145.058 Y150.2 E19.64242
G1 X145.105 Y150.2 E19.6443
G1 X145.064 Y150.122 E19.64782
G1 X144.962 Y149.758 E19.6629
G1 X144.936 Y149.455 E19.67504
G1 X144.934 Y127 E20.57127
G1 X144.974 Y126.623 E20.5864
G1 X145.092 Y126.263 E20.60152
G1 X145.282 Y125.936 E20.61662
G0 F2520 X145.679 Y126.08
