;FLAVOR:Marlin
;TIME:21358
;Filament used: 11.0672m
;Layer height: 0.12
;MINX:56.806
;MINY:56.811
;MINZ:0.24
;MAXX:243.18
;MAXY:243.189
;MAXZ:10.92
;Generated with Cura_SteamEngine 4.4.1
M140 S80
M105
M190 S80
M104 S210
M105
M109 S210
M82 ;absolute extrusion mode
G28 ;Home
G1 Z15.0 F6000 ;Move the platform down 15mm
;Prime the extruder
G92 E0
G1 F200 E3
G92 E0
G92 E0
G92 E0
G1 F1500 E-6.5
;LAYER_COUNT:90
;LAYER:0
M107
G1 F600 Z0.74
G0 F2520 X83.782 Y84.425 Z0.74
;TYPE:SKIRT
G1 F600 Z0.24
G1 F1500 E0
G1 F1050 X84.976 Y83.241 E0.06711
G1 X85.013 Y83.204 E0.0692
G1 X85.959 Y82.296 E0.12154
G1 X85.999 Y82.259 E0.12371
G1 X87.281 Y81.07 E0.1935
G1 X87.323 Y81.032 E0.19576
G1 X88.306 Y80.152 E0.24842
G1 X88.342 Y80.119 E0.25037
G1 X89.584 Y79.041 E0.316
G1 X89.629 Y79.004 E0.31833
G1 X90.669 Y78.134 E0.37245
G1 X90.708 Y78.101 E0.37449
G1 X92.029 Y77.031 E0.44234
G1 X92.072 Y76.997 E0.44452
G1 X93.148 Y76.156 E0.49903
G1 X93.191 Y76.123 E0.50119
G1 X94.49 Y75.142 E0.56616
G1 X94.534 Y75.11 E0.56833
G1 X95.661 Y74.289 E0.62399
G1 X95.703 Y74.258 E0.62607
G1 X97.034 Y73.321 E0.69104
G1 X97.08 Y73.29 E0.69325
G1 X98.208 Y72.525 E0.74765
G1 X98.251 Y72.496 E0.74972
G1 X99.656 Y71.576 E0.81675
G1 X99.701 Y71.547 E0.81888
G1 X100.813 Y70.845 E0.87137
G1 X100.86 Y70.816 E0.87357
G1 X102.368 Y69.9 E0.94399
G1 X102.414 Y69.872 E0.94614
G1 X103.521 Y69.225 E0.99732
G1 X103.567 Y69.199 E0.99943
G1 X105.039 Y68.371 E1.06684
G1 X105.085 Y68.346 E1.06893
G1 X106.277 Y67.701 E1.12302
G1 X106.327 Y67.674 E1.12529
G1 X107.796 Y66.912 E1.19134
G1 X107.841 Y66.889 E1.19335
G1 X109.02 Y66.301 E1.24594
G1 X109.071 Y66.277 E1.24819
G1 X110.667 Y65.516 E1.31876
G1 X110.715 Y65.493 E1.32088
G1 X111.911 Y64.947 E1.37336
G1 X111.96 Y64.925 E1.3755
G1 X113.445 Y64.277 E1.44017
G1 X113.494 Y64.256 E1.44229
G1 X114.79 Y63.716 E1.49833
G1 X114.84 Y63.696 E1.50048
G1 X116.378 Y63.085 E1.56653
G1 X116.428 Y63.065 E1.56868
G1 X117.683 Y62.591 E1.62223
G1 X117.731 Y62.574 E1.62426
G1 X119.305 Y62.008 E1.69102
G1 X119.358 Y61.989 E1.69326
G1 X120.635 Y61.555 E1.7471
G1 X120.688 Y61.538 E1.74932
G1 X122.334 Y61.01 E1.81831
G1 X122.384 Y60.994 E1.8204
G1 X123.646 Y60.612 E1.87303
G1 X123.697 Y60.597 E1.87515
G1 X125.279 Y60.147 E1.9408
G1 X125.33 Y60.133 E1.94291
G1 X126.631 Y59.786 E1.99665
G1 X126.684 Y59.773 E1.99883
G1 X128.345 Y59.36 E2.06714
G1 X128.397 Y59.347 E2.06928
G1 X129.675 Y59.052 E2.12163
G1 X129.727 Y59.04 E2.12376
G1 X131.396 Y58.684 E2.19187
G1 X131.449 Y58.674 E2.19402
G1 X132.767 Y58.416 E2.24763
G1 X132.824 Y58.405 E2.24994
G1 X134.489 Y58.11 E2.31743
G1 X134.536 Y58.102 E2.31934
G1 X135.796 Y57.898 E2.37028
G1 X135.853 Y57.889 E2.37258
G1 X137.611 Y57.637 E2.44347
G1 X137.662 Y57.63 E2.44552
G1 X138.907 Y57.472 E2.49561
G1 X138.961 Y57.466 E2.49778
G1 X140.718 Y57.273 E2.56833
G1 X142.068 Y57.148 E2.62244
G1 X142.121 Y57.143 E2.62456
G1 X143.766 Y57.018 E2.69041
G1 X143.82 Y57.015 E2.69257
G1 X145.178 Y56.935 E2.74686
G1 X145.232 Y56.932 E2.74902
G1 X146.955 Y56.86 E2.81785
G1 X147.008 Y56.858 E2.81996
G1 X148.265 Y56.826 E2.87015
G1 X148.321 Y56.825 E2.87239
G1 X150.102 Y56.811 E2.94347
G1 X150.154 Y56.811 E2.94555
G1 X151.464 Y56.822 E2.99783
G1 X151.517 Y56.823 E2.99995
G1 X153.149 Y56.864 E3.06511
G1 X153.202 Y56.866 E3.06722
G1 X154.569 Y56.923 E3.12183
G1 X154.625 Y56.926 E3.12407
G1 X156.331 Y57.027 E3.19228
G1 X156.382 Y57.03 E3.19432
G1 X157.656 Y57.126 E3.24531
G1 X157.712 Y57.131 E3.24755
G1 X159.476 Y57.295 E3.31826
G1 X159.527 Y57.3 E3.32031
G1 X160.801 Y57.439 E3.37146
G1 X160.855 Y57.445 E3.37363
G1 X162.541 Y57.658 E3.44145
G1 X162.596 Y57.666 E3.44367
G1 X163.929 Y57.858 E3.49742
G1 X163.982 Y57.866 E3.49956
G1 X165.619 Y58.13 E3.56574
G1 X165.671 Y58.138 E3.56784
G1 X167.031 Y58.38 E3.62298
G1 X167.084 Y58.39 E3.62513
G1 X168.696 Y58.705 E3.69068
G1 X168.751 Y58.717 E3.69293
G1 X170.085 Y59.002 E3.74737
G1 X170.136 Y59.013 E3.74946
G1 X171.755 Y59.387 E3.81578
G1 X171.805 Y59.399 E3.81783
G1 X173.136 Y59.729 E3.87256
G1 X173.192 Y59.743 E3.87486
G1 X174.791 Y60.17 E3.94092
G1 X174.841 Y60.184 E3.94299
G1 X176.155 Y60.558 E3.99752
G1 X176.206 Y60.573 E3.99964
G1 X177.788 Y61.052 E4.06561
G1 X177.837 Y61.067 E4.06766
G1 X179.102 Y61.472 E4.12067
G1 X179.156 Y61.49 E4.12294
G1 X180.794 Y62.047 E4.192
G1 X180.846 Y62.065 E4.19419
G1 X182.096 Y62.514 E4.2472
G1 X182.143 Y62.532 E4.24921
G1 X183.699 Y63.119 E4.31559
G1 X183.751 Y63.139 E4.31781
G1 X185.043 Y63.652 E4.37329
G1 X185.092 Y63.672 E4.37541
G1 X186.571 Y64.288 E4.43935
G1 X186.622 Y64.309 E4.44155
G1 X187.893 Y64.864 E4.49691
G1 X187.942 Y64.886 E4.49905
G1 X189.485 Y65.591 E4.56676
G1 X189.534 Y65.614 E4.56892
G1 X190.73 Y66.185 E4.62182
G1 X190.777 Y66.208 E4.6239
G1 X192.28 Y66.956 E4.69091
G1 X192.328 Y66.981 E4.69307
G1 X193.53 Y67.605 E4.74712
G1 X193.578 Y67.63 E4.74928
G1 X195.032 Y68.416 E4.81525
G1 X195.078 Y68.441 E4.81734
G1 X196.272 Y69.112 E4.87201
G1 X196.321 Y69.141 E4.87428
G1 X197.757 Y69.982 E4.9407
G1 X197.801 Y70.008 E4.94274
G1 X198.939 Y70.699 E4.99588
G1 X198.986 Y70.728 E4.99808
G1 X200.45 Y71.652 E5.06718
G1 X200.494 Y71.68 E5.06926
G1 X201.57 Y72.384 E5.12058
G1 X201.614 Y72.413 E5.12268
G1 X203.036 Y73.377 E5.19125
G1 X203.082 Y73.41 E5.19351
G1 X204.184 Y74.186 E5.2473
G1 X204.229 Y74.218 E5.24951
G1 X205.578 Y75.203 E5.31617
G1 X205.619 Y75.233 E5.3182
G1 X206.685 Y76.038 E5.37152
G1 X206.727 Y76.07 E5.37362
G1 X208.048 Y77.102 E5.44053
G1 X208.091 Y77.136 E5.44272
G1 X209.169 Y78.008 E5.49806
G1 X209.212 Y78.044 E5.5003
G1 X210.448 Y79.08 E5.56466
G1 X210.488 Y79.114 E5.56676
G1 X211.523 Y80.011 E5.62142
G1 X211.563 Y80.046 E5.62355
G1 X212.816 Y81.169 E5.6907
G1 X212.855 Y81.205 E5.69282
G1 X213.847 Y82.124 E5.74679
G1 X213.887 Y82.162 E5.74899
G1 X215.092 Y83.318 E5.81564
G1 X215.131 Y83.356 E5.81781
G1 X216.058 Y84.276 E5.86994
G1 X216.094 Y84.312 E5.87197
G1 X217.322 Y85.57 E5.94214
G1 X217.361 Y85.611 E5.9444
G1 X218.269 Y86.575 E5.99725
G1 X218.304 Y86.612 E5.99928
G1 X219.405 Y87.819 E6.06449
G1 X219.443 Y87.861 E6.06675
G1 X220.365 Y88.908 E6.12243
G1 X220.398 Y88.947 E6.12447
G1 X221.471 Y90.206 E6.19049
G1 X221.506 Y90.247 E6.19265
G1 X222.335 Y91.253 E6.24467
G1 X222.371 Y91.297 E6.24694
G1 X223.465 Y92.674 E6.31714
G1 X223.496 Y92.714 E6.31916
G1 X224.295 Y93.753 E6.37147
G1 X224.328 Y93.797 E6.37366
G1 X225.315 Y95.127 E6.43977
G1 X225.347 Y95.171 E6.44194
G1 X226.152 Y96.295 E6.49712
G1 X226.183 Y96.339 E6.49927
G1 X227.132 Y97.713 E6.56591
G1 X227.162 Y97.757 E6.56804
G1 X227.884 Y98.84 E6.61999
G1 X227.912 Y98.884 E6.62207
G1 X228.852 Y100.345 E6.69141
G1 X228.882 Y100.393 E6.69367
G1 X229.581 Y101.523 E6.7467
G1 X229.608 Y101.566 E6.74873
G1 X230.456 Y102.987 E6.81477
G1 X230.484 Y103.036 E6.81703
G1 X231.151 Y104.2 E6.87057
G1 X231.177 Y104.245 E6.87265
G1 X232.019 Y105.771 E6.94221
G1 X232.045 Y105.819 E6.94439
G1 X232.645 Y106.952 E6.99556
G1 X232.669 Y106.999 E6.99766
G1 X233.436 Y108.506 E7.06515
G1 X233.46 Y108.553 E7.06726
G1 X234.056 Y109.774 E7.12149
G1 X234.08 Y109.825 E7.12374
G1 X234.784 Y111.334 E7.1902
G1 X234.806 Y111.383 E7.19234
G1 X235.347 Y112.595 E7.24531
G1 X235.369 Y112.644 E7.24746
G1 X236.046 Y114.232 E7.31636
G1 X236.065 Y114.279 E7.31838
G1 X236.568 Y115.513 E7.37157
G1 X236.59 Y115.567 E7.37389
G1 X237.181 Y117.095 E7.43928
G1 X237.199 Y117.143 E7.44133
G1 X237.685 Y118.463 E7.49747
G1 X237.703 Y118.515 E7.49967
G1 X238.242 Y120.06 E7.56498
G1 X238.259 Y120.108 E7.56701
G1 X238.689 Y121.406 E7.62158
G1 X238.706 Y121.458 E7.62377
G1 X239.193 Y123.018 E7.68899
G1 X239.208 Y123.071 E7.69119
G1 X239.599 Y124.403 E7.7466
G1 X239.614 Y124.455 E7.74876
G1 X240.053 Y126.05 E7.81478
G1 X240.067 Y126.101 E7.8169
G1 X240.406 Y127.418 E7.87117
G1 X240.419 Y127.47 E7.87331
G1 X240.809 Y129.097 E7.94009
G1 X240.821 Y129.151 E7.9423
G1 X241.122 Y130.509 E7.99781
G1 X241.133 Y130.557 E7.99978
G1 X241.454 Y132.12 E8.06346
G1 X241.465 Y132.178 E8.06582
G1 X241.723 Y133.563 E8.12205
G1 X241.732 Y133.614 E8.12412
G1 X242.001 Y135.201 E8.18836
G1 X242.01 Y135.254 E8.19051
G1 X242.217 Y136.613 E8.24537
G1 X242.224 Y136.665 E8.24747
G1 X242.455 Y138.369 E8.3161
G1 X242.462 Y138.424 E8.31831
G1 X242.617 Y139.739 E8.37116
G1 X242.623 Y139.79 E8.37321
G1 X242.789 Y141.423 E8.43872
G1 X242.794 Y141.481 E8.44104
G1 X242.912 Y142.898 E8.4978
G1 X242.916 Y142.948 E8.4998
G1 X243.024 Y144.546 E8.56372
G1 X243.027 Y144.602 E8.56596
G1 X243.096 Y145.978 E8.62095
G1 X243.098 Y146.029 E8.62299
G1 X243.155 Y147.703 E8.68984
G1 X243.157 Y147.758 E8.69203
G1 X243.18 Y149.116 E8.74624
G1 X243.18 Y150.884 E8.81681
G1 X243.157 Y152.24 E8.87094
G1 X243.155 Y152.295 E8.87313
G1 X243.098 Y153.971 E8.94006
G1 X243.096 Y154.022 E8.9421
G1 X243.027 Y155.398 E8.99709
G1 X243.024 Y155.454 E8.99933
G1 X242.916 Y157.052 E9.06325
G1 X242.912 Y157.102 E9.06526
G1 X242.794 Y158.518 E9.12197
G1 X242.789 Y158.575 E9.12425
G1 X242.623 Y160.209 E9.1898
G1 X242.617 Y160.261 E9.19189
G1 X242.462 Y161.576 E9.24474
G1 X242.455 Y161.631 E9.24695
G1 X242.224 Y163.335 E9.31558
G1 X242.217 Y163.385 E9.3176
G1 X242.016 Y164.709 E9.37105
G1 X242.007 Y164.764 E9.37327
G1 X241.732 Y166.386 E9.43893
G1 X241.722 Y166.439 E9.44109
G1 X241.463 Y167.824 E9.49732
G1 X241.453 Y167.878 E9.49952
G1 X241.133 Y169.441 E9.56319
G1 X241.122 Y169.491 E9.56524
G1 X240.821 Y170.849 E9.62075
G1 X240.809 Y170.903 E9.62296
G1 X240.419 Y172.53 E9.68974
G1 X240.405 Y172.584 E9.69196
G1 X240.065 Y173.901 E9.74625
G1 X240.053 Y173.948 E9.74819
G1 X239.615 Y175.543 E9.8142
G1 X239.599 Y175.597 E9.81645
G1 X239.208 Y176.929 E9.87186
G1 X239.192 Y176.982 E9.87407
G1 X238.705 Y178.541 E9.93926
G1 X238.689 Y178.593 E9.94143
G1 X238.259 Y179.892 E9.99604
G1 X238.242 Y179.94 E9.99807
G1 X237.703 Y181.485 E10.06338
G1 X237.685 Y181.537 E10.06558
G1 X237.199 Y182.857 E10.12172
G1 X237.18 Y182.906 E10.12382
G1 X236.592 Y184.426 E10.18886
G1 X236.571 Y184.478 E10.1911
G1 X236.065 Y185.72 E10.24463
G1 X236.046 Y185.768 E10.24669
G1 X235.369 Y187.356 E10.31559
G1 X235.346 Y187.408 E10.31786
G1 X234.804 Y188.619 E10.37081
G1 X234.784 Y188.663 E10.37274
G1 X234.081 Y190.172 E10.43918
G1 X234.056 Y190.224 E10.44149
G1 X233.46 Y191.446 E10.49575
G1 X233.436 Y191.494 E10.49789
G1 X232.67 Y193 E10.56533
G1 X232.646 Y193.047 E10.56744
G1 X232.046 Y194.18 E10.61861
G1 X232.019 Y194.229 E10.62084
G1 X231.176 Y195.756 E10.69046
G1 X231.151 Y195.8 E10.69247
G1 X230.484 Y196.964 E10.74602
G1 X230.456 Y197.013 E10.74827
G1 X229.608 Y198.434 E10.81432
G1 X229.581 Y198.477 E10.81634
G1 X228.882 Y199.607 E10.86938
G1 X228.853 Y199.654 E10.87158
G1 X227.914 Y201.115 E10.9409
G1 X227.884 Y201.161 E10.94309
G1 X227.162 Y202.243 E10.99501
G1 X227.133 Y202.286 E10.99708
G1 X226.183 Y203.661 E11.06378
G1 X226.152 Y203.705 E11.06593
G1 X225.348 Y204.828 E11.12105
G1 X225.315 Y204.872 E11.12325
G1 X224.327 Y206.203 E11.18941
G1 X224.295 Y206.247 E11.19158
G1 X223.496 Y207.286 E11.24389
G1 X223.465 Y207.325 E11.24588
G1 X222.372 Y208.701 E11.31602
G1 X222.336 Y208.746 E11.31832
G1 X221.507 Y209.752 E11.37034
G1 X221.473 Y209.792 E11.37244
G1 X220.399 Y211.053 E11.43855
G1 X220.364 Y211.094 E11.4407
G1 X219.442 Y212.14 E11.49635
G1 X219.405 Y212.181 E11.49856
G1 X218.304 Y213.388 E11.56376
G1 X218.271 Y213.424 E11.56571
G1 X217.363 Y214.389 E11.6186
G1 X217.321 Y214.432 E11.62099
G1 X216.092 Y215.69 E11.69119
G1 X216.057 Y215.725 E11.69316
G1 X215.131 Y216.644 E11.74523
G1 X215.092 Y216.682 E11.74741
G1 X213.888 Y217.837 E11.814
G1 X213.849 Y217.874 E11.81614
G1 X212.856 Y218.795 E11.8702
G1 X212.816 Y218.832 E11.87237
G1 X211.564 Y219.954 E11.93947
G1 X211.524 Y219.989 E11.94159
G1 X210.489 Y220.886 E11.99626
G1 X210.447 Y220.921 E11.99844
G1 X209.211 Y221.956 E12.06278
G1 X209.171 Y221.99 E12.06488
G1 X208.093 Y222.863 E12.12024
G1 X208.049 Y222.898 E12.12249
G1 X206.728 Y223.93 E12.18939
G1 X206.686 Y223.962 E12.1915
G1 X205.62 Y224.767 E12.24482
G1 X205.578 Y224.798 E12.2469
G1 X204.228 Y225.783 E12.3136
G1 X204.184 Y225.815 E12.31577
G1 X203.083 Y226.59 E12.36951
G1 X203.037 Y226.622 E12.37174
G1 X201.615 Y227.586 E12.44031
G1 X201.572 Y227.614 E12.44236
G1 X200.495 Y228.319 E12.49374
G1 X200.45 Y228.348 E12.49587
G1 X198.986 Y229.272 E12.56497
G1 X198.94 Y229.301 E12.56714
G1 X197.803 Y229.992 E12.62024
G1 X197.756 Y230.019 E12.62241
G1 X196.318 Y230.86 E12.68889
G1 X196.272 Y230.887 E12.69102
G1 X195.079 Y231.558 E12.74565
G1 X195.03 Y231.585 E12.74789
G1 X193.576 Y232.37 E12.81384
G1 X193.531 Y232.394 E12.81587
G1 X192.328 Y233.019 E12.86998
G1 X192.279 Y233.044 E12.87217
G1 X190.776 Y233.792 E12.93918
G1 X190.73 Y233.814 E12.94122
G1 X189.535 Y234.385 E12.99408
G1 X189.484 Y234.409 E12.99633
G1 X187.94 Y235.114 E13.06407
G1 X187.892 Y235.136 E13.06618
G1 X186.621 Y235.691 E13.12153
G1 X186.571 Y235.712 E13.1237
G1 X185.093 Y236.328 E13.1876
G1 X185.045 Y236.347 E13.18967
G1 X183.753 Y236.861 E13.24516
G1 X183.699 Y236.882 E13.24748
G1 X182.143 Y237.469 E13.31385
G1 X182.095 Y237.487 E13.3159
G1 X180.847 Y237.935 E13.36882
G1 X180.796 Y237.953 E13.37098
G1 X179.157 Y238.51 E13.44007
G1 X179.103 Y238.528 E13.44234
G1 X177.838 Y238.933 E13.49535
G1 X177.789 Y238.948 E13.4974
G1 X176.207 Y239.427 E13.56337
G1 X176.156 Y239.442 E13.56549
G1 X174.842 Y239.816 E13.62002
G1 X174.791 Y239.83 E13.62213
G1 X173.191 Y240.257 E13.68823
G1 X173.136 Y240.271 E13.69049
G1 X171.805 Y240.601 E13.74522
G1 X171.755 Y240.613 E13.74727
G1 X170.136 Y240.987 E13.81359
G1 X170.086 Y240.998 E13.81564
G1 X168.751 Y241.284 E13.87013
G1 X168.695 Y241.296 E13.87241
G1 X167.084 Y241.611 E13.93793
G1 X167.029 Y241.621 E13.94016
G1 X165.67 Y241.862 E13.99525
G1 X165.62 Y241.87 E13.99727
G1 X163.982 Y242.134 E14.06349
G1 X163.929 Y242.142 E14.06563
G1 X162.595 Y242.334 E14.11942
G1 X162.541 Y242.342 E14.1216
G1 X160.857 Y242.555 E14.18935
G1 X160.802 Y242.561 E14.19155
G1 X159.527 Y242.7 E14.24274
G1 X159.476 Y242.705 E14.24479
G1 X157.711 Y242.869 E14.31554
G1 X157.656 Y242.874 E14.31774
G1 X156.383 Y242.97 E14.36869
G1 X156.331 Y242.973 E14.37077
G1 X154.625 Y243.074 E14.43898
G1 X154.569 Y243.077 E14.44122
G1 X153.201 Y243.134 E14.49587
G1 X153.148 Y243.136 E14.49799
G1 X151.517 Y243.177 E14.5631
G1 X151.464 Y243.178 E14.56522
G1 X150.154 Y243.189 E14.6175
G1 X150.102 Y243.189 E14.61958
G1 X148.322 Y243.175 E14.69063
G1 X148.266 Y243.174 E14.69286
G1 X147.008 Y243.142 E14.74309
G1 X146.955 Y243.14 E14.7452
G1 X145.232 Y243.068 E14.81403
G1 X145.178 Y243.065 E14.81619
G1 X143.821 Y242.985 E14.87045
G1 X143.767 Y242.982 E14.8726
G1 X142.121 Y242.857 E14.93849
G1 X142.068 Y242.852 E14.94061
G1 X140.718 Y242.727 E14.99473
G1 X138.961 Y242.534 E15.06527
G1 X138.907 Y242.528 E15.06744
G1 X137.662 Y242.37 E15.11753
G1 X137.611 Y242.363 E15.11959
G1 X135.853 Y242.111 E15.19047
G1 X135.796 Y242.102 E15.19277
G1 X134.536 Y241.898 E15.24372
G1 X134.487 Y241.89 E15.2457
G1 X132.823 Y241.594 E15.31315
G1 X132.771 Y241.584 E15.31527
G1 X131.452 Y241.327 E15.3689
G1 X131.396 Y241.316 E15.37118
G1 X129.727 Y240.96 E15.43929
G1 X129.675 Y240.948 E15.44142
G1 X128.397 Y240.653 E15.49377
G1 X128.345 Y240.64 E15.49591
G1 X126.684 Y240.227 E15.56422
G1 X126.631 Y240.214 E15.5664
G1 X125.33 Y239.867 E15.62014
G1 X125.279 Y239.853 E15.62225
G1 X123.697 Y239.403 E15.6879
G1 X123.646 Y239.388 E15.69002
G1 X122.384 Y239.006 E15.74265
G1 X122.334 Y238.99 E15.74474
G1 X120.688 Y238.462 E15.81373
G1 X120.635 Y238.445 E15.81596
G1 X119.359 Y238.011 E15.86975
G1 X119.307 Y237.992 E15.87196
G1 X117.732 Y237.426 E15.93876
G1 X117.683 Y237.409 E15.94083
G1 X116.428 Y236.935 E15.99437
G1 X116.378 Y236.915 E15.99652
G1 X114.84 Y236.304 E16.06257
G1 X114.791 Y236.284 E16.06468
G1 X113.494 Y235.744 E16.12076
G1 X113.443 Y235.723 E16.12296
G1 X111.959 Y235.075 E16.18759
G1 X111.911 Y235.053 E16.18969
G1 X110.715 Y234.507 E16.24217
G1 X110.666 Y234.484 E16.24433
G1 X109.071 Y233.723 E16.31486
G1 X109.022 Y233.699 E16.31704
G1 X107.842 Y233.111 E16.36966
G1 X107.796 Y233.088 E16.37171
G1 X106.327 Y232.326 E16.43776
G1 X106.277 Y232.299 E16.44003
