;FLAVOR:Marlin
;TIME:5582
;Filament used: 11.171m
;Layer height: 0.2
;MINX:118.378
;MINY:118.381
;MINZ:0.28
;MAXX:181.624
;MAXY:181.618
;MAXZ:44.88
;Generated with Cura_SteamEngine 4.4.1
M104 S230
M105
M109 S230
M82 ;absolute extrusion mode
G28 ;Home
G1 Z15.0 F6000 ;Move the platform down 15mm
;Prime the extruder
G92 E0
G1 F200 E3
G92 E0
G92 E0
G92 E0
;LAYER_COUNT:224
;LAYER:0
M107
M204 S3000
M205 X15 Y15
G0 F3600 X127.63 Y127.644 Z0.28
M204 S2000
M205 X7 Y7
;TYPE:SKIRT
G1 F1950 X127.786 Y127.488 E0.01729
G1 X128.089 Y127.193 E0.05043
G1 X128.248 Y127.043 E0.06756
G1 X129.204 Y126.173 E0.16886
G1 X129.378 Y126.02 E0.18702
G1 X129.692 Y125.754 E0.21927
G1 X129.855 Y125.62 E0.2358
G1 X130.854 Y124.828 E0.33571
G1 X131.034 Y124.691 E0.35344
G1 X131.411 Y124.413 E0.39015
G1 X131.595 Y124.282 E0.40785
G1 X132.615 Y123.583 E0.50475
G1 X132.775 Y123.477 E0.51979
G1 X133.136 Y123.245 E0.55342
G1 X133.341 Y123.118 E0.57232
G1 X134.474 Y122.448 E0.67547
G1 X134.655 Y122.345 E0.69179
G1 X135.012 Y122.149 E0.72371
G1 X135.227 Y122.036 E0.74274
G1 X136.382 Y121.457 E0.84399
G1 X136.572 Y121.366 E0.8605
G1 X136.947 Y121.193 E0.89287
G1 X137.151 Y121.103 E0.91034
G1 X138.362 Y120.594 E1.01329
G1 X138.571 Y120.51 E1.03094
G1 X138.934 Y120.372 E1.06137
G1 X139.143 Y120.297 E1.07877
G1 X140.393 Y119.87 E1.18229
G1 X140.595 Y119.805 E1.19892
G1 X140.978 Y119.688 E1.23031
G1 X141.197 Y119.625 E1.24816
G1 X142.438 Y119.293 E1.34884
G1 X142.655 Y119.239 E1.36636
G1 X143.101 Y119.136 E1.40223
G1 X143.32 Y119.089 E1.41979
G1 X144.551 Y118.849 E1.51807
G1 X144.753 Y118.813 E1.53415
G1 X145.19 Y118.742 E1.56885
G1 X145.423 Y118.709 E1.58729
G1 X146.674 Y118.552 E1.6861
G1 X146.89 Y118.528 E1.70313
G1 X147.621 Y118.461 E1.76066
G1 X147.805 Y118.447 E1.77512
G1 X148.154 Y118.425 E1.80252
G1 X148.343 Y118.416 E1.81735
G1 X148.875 Y118.398 E1.85907
G1 X148.962 Y118.395 E1.86589
G1 X149.597 Y118.382 E1.91566
G1 X149.782 Y118.381 E1.93016
G1 X150.534 Y118.387 E1.9891
G1 X150.633 Y118.389 E1.99685
G1 X151.107 Y118.4 E2.03401
G1 X151.198 Y118.403 E2.04115
G1 X151.868 Y118.428 E2.09369
G1 X152.153 Y118.444 E2.11606
G1 X152.731 Y118.491 E2.16151
G1 X152.852 Y118.502 E2.17103
G1 X153.241 Y118.541 E2.20166
G1 X153.339 Y118.552 E2.20939
G1 X153.824 Y118.608 E2.24765
G1 X154.029 Y118.635 E2.26386
G1 X155.246 Y118.815 E2.36027
G1 X155.456 Y118.85 E2.37695
G1 X155.88 Y118.927 E2.41072
G1 X156.105 Y118.971 E2.42869
G1 X157.37 Y119.247 E2.53016
G1 X157.599 Y119.302 E2.54861
G1 X158.024 Y119.411 E2.583
G1 X158.226 Y119.466 E2.5994
G1 X159.435 Y119.818 E2.69809
G1 X159.635 Y119.88 E2.71449
G1 X160.024 Y120.007 E2.74656
G1 X160.243 Y120.083 E2.76473
G1 X161.512 Y120.548 E2.87064
G1 X161.72 Y120.628 E2.88811
G1 X162.102 Y120.783 E2.92042
G1 X162.308 Y120.871 E2.93797
G1 X163.437 Y121.375 E3.03486
G1 X163.633 Y121.466 E3.0518
G1 X164.058 Y121.673 E3.08885
G1 X164.256 Y121.774 E3.10626
G1 X165.352 Y122.355 E3.20348
G1 X165.552 Y122.465 E3.22136
G1 X165.96 Y122.7 E3.25826
G1 X166.144 Y122.811 E3.2751
G1 X167.191 Y123.461 E3.37168
G1 X167.355 Y123.566 E3.38694
G1 X167.729 Y123.814 E3.42211
G1 X167.935 Y123.956 E3.44172
G1 X168.985 Y124.712 E3.54311
G1 X169.161 Y124.844 E3.56035
G1 X169.491 Y125.099 E3.59304
G1 X169.666 Y125.238 E3.61055
G1 X170.678 Y126.077 E3.71357
G1 X170.854 Y126.229 E3.73179
G1 X171.167 Y126.508 E3.76465
G1 X171.317 Y126.646 E3.78063
G1 X172.242 Y127.524 E3.88057
G1 X172.402 Y127.681 E3.89814
G1 X172.691 Y127.975 E3.93045
G1 X172.84 Y128.132 E3.94741
G1 X173.711 Y129.079 E4.04824
G1 X173.872 Y129.261 E4.06728
G1 X174.168 Y129.608 E4.10303
G1 X174.296 Y129.762 E4.11872
G1 X175.081 Y130.742 E4.21712
G1 X175.219 Y130.92 E4.23477
G1 X175.477 Y131.266 E4.26859
G1 X175.609 Y131.45 E4.28634
G1 X176.338 Y132.502 E4.38664
G1 X176.446 Y132.663 E4.40184
G1 X176.676 Y133.017 E4.43492
G1 X176.817 Y133.244 E4.45586
G1 X177.581 Y134.533 E4.57329
G1 X177.684 Y134.714 E4.58961
G1 X178.002 Y135.292 E4.64131
G1 X178.109 Y135.495 E4.65929
G1 X178.312 Y135.897 E4.69458
G1 X178.378 Y136.031 E4.70629
G1 X178.61 Y136.518 E4.74856
G1 X178.656 Y136.616 E4.75705
G1 X178.849 Y137.039 E4.79348
G1 X178.931 Y137.228 E4.80963
G1 X179.41 Y138.373 E4.9069
G1 X179.49 Y138.573 E4.92378
G1 X179.65 Y138.994 E4.95907
G1 X179.729 Y139.213 E4.97732
G1 X180.142 Y140.429 E5.07796
G1 X180.204 Y140.623 E5.09392
G1 X180.326 Y141.023 E5.12669
G1 X180.391 Y141.249 E5.14512
G1 X180.719 Y142.483 E5.24518
G1 X180.769 Y142.683 E5.26134
G1 X180.873 Y143.131 E5.29738
G1 X180.923 Y143.366 E5.31621
G1 X181.159 Y144.585 E5.41351
G1 X181.197 Y144.805 E5.43101
G1 X181.271 Y145.273 E5.46814
G1 X181.301 Y145.486 E5.485
G1 X181.45 Y146.684 E5.57961
G1 X181.472 Y146.886 E5.59553
G1 X181.514 Y147.339 E5.63118
G1 X181.532 Y147.575 E5.64973
G1 X181.604 Y148.858 E5.75044
G1 X181.612 Y149.068 E5.7669
G1 X181.622 Y149.49 E5.79999
G1 X181.624 Y149.723 E5.81825
G1 X181.608 Y151.047 E5.92201
G1 X181.6 Y151.282 E5.94044
G1 X181.58 Y151.695 E5.97284
G1 X181.567 Y151.905 E5.98933
G1 X181.463 Y153.191 E6.09044
G1 X181.443 Y153.398 E6.10674
G1 X181.396 Y153.813 E6.13947
G1 X181.365 Y154.047 E6.15797
G1 X181.178 Y155.293 E6.25671
G1 X181.144 Y155.495 E6.27276
G1 X181.063 Y155.939 E6.30813
G1 X181.017 Y156.171 E6.32666
G1 X180.744 Y157.41 E6.42609
G1 X180.692 Y157.625 E6.44343
G1 X180.58 Y158.062 E6.47878
G1 X180.523 Y158.272 E6.49583
G1 X180.166 Y159.493 E6.59552
G1 X180.098 Y159.711 E6.61342
G1 X179.963 Y160.119 E6.6471
G1 X179.892 Y160.323 E6.66403
G1 X179.448 Y161.529 E6.76474
G1 X179.368 Y161.735 E6.78206
G1 X179.199 Y162.15 E6.81717
G1 X179.109 Y162.36 E6.83508
G1 X178.604 Y163.485 E6.93172
G1 X178.524 Y163.656 E6.94651
G1 X178.323 Y164.071 E6.98265
G1 X178.21 Y164.294 E7.00224
G1 X177.623 Y165.396 E7.10009
G1 X177.518 Y165.586 E7.1171
G1 X177.284 Y165.992 E7.15382
G1 X177.171 Y166.18 E7.17101
G1 X176.512 Y167.239 E7.26876
G1 X176.401 Y167.411 E7.2848
G1 X176.151 Y167.786 E7.32012
G1 X176.013 Y167.985 E7.3391
G1 X175.275 Y169.007 E7.43789
G1 X175.149 Y169.176 E7.45441
G1 X174.884 Y169.519 E7.48838
G1 X174.738 Y169.701 E7.50667
G1 X173.909 Y170.698 E7.60828
G1 X173.76 Y170.871 E7.62617
G1 X173.46 Y171.207 E7.66147
G1 X173.318 Y171.361 E7.67789
G1 X172.437 Y172.286 E7.778
G1 X172.277 Y172.448 E7.79584
G1 X171.993 Y172.726 E7.82698
G1 X171.836 Y172.874 E7.84389
G1 X170.873 Y173.756 E7.94623
G1 X170.694 Y173.914 E7.96494
G1 X170.366 Y174.193 E7.99869
G1 X170.205 Y174.326 E8.01505
G1 X169.212 Y175.117 E8.11454
G1 X169.035 Y175.253 E8.13204
G1 X168.663 Y175.529 E8.16834
G1 X168.486 Y175.656 E8.18541
G1 X167.469 Y176.359 E8.2823
G1 X167.302 Y176.471 E8.29805
G1 X166.923 Y176.716 E8.33342
G1 X166.716 Y176.844 E8.35249
G1 X165.616 Y177.498 E8.45278
G1 X165.431 Y177.604 E8.46949
G1 X165.079 Y177.798 E8.50099
G1 X164.874 Y177.906 E8.51915
G1 X163.675 Y178.512 E8.62443
G1 X163.482 Y178.606 E8.64126
G1 X163.114 Y178.777 E8.67306
G1 X162.91 Y178.867 E8.69053
G1 X161.779 Y179.346 E8.78678
G1 X161.583 Y179.426 E8.80337
G1 X161.15 Y179.593 E8.83974
G1 X160.935 Y179.671 E8.85767
G1 X159.746 Y180.082 E8.95626
G1 X159.549 Y180.147 E8.97251
G1 X159.127 Y180.278 E9.00714
G1 X158.897 Y180.345 E9.02592
G1 X157.64 Y180.685 E9.12796
G1 X157.422 Y180.739 E9.14556
G1 X157.007 Y180.836 E9.17896
G1 X156.804 Y180.881 E9.19526
G1 X155.565 Y181.129 E9.29428
G1 X155.338 Y181.17 E9.31236
G1 X154.922 Y181.238 E9.34539
G1 X154.703 Y181.27 E9.36274
G1 X153.406 Y181.437 E9.46522
G1 X153.192 Y181.461 E9.48209
G1 X152.772 Y181.501 E9.51516
G1 X152.548 Y181.518 E9.53276
G1 X151.273 Y181.595 E9.63286
G1 X151.054 Y181.605 E9.65004
G1 X150.642 Y181.616 E9.68234
G1 X150.415 Y181.618 E9.70013
G1 X149.088 Y181.607 E9.80413
G1 X148.886 Y181.602 E9.81996
G1 X148.048 Y181.569 E9.88569
G1 X147.835 Y181.557 E9.90241
G1 X147.531 Y181.535 E9.92629
G1 X147.344 Y181.519 E9.941
G1 X146.644 Y181.448 E9.99614
G1 X146.551 Y181.438 E10.00347
G1 X146.12 Y181.388 E10.03747
G1 X145.898 Y181.358 E10.05503
G1 X144.641 Y181.168 E10.15465
G1 X144.41 Y181.129 E10.17301
G1 X143.969 Y181.046 E10.20818
G1 X143.761 Y181.003 E10.22483
G1 X142.532 Y180.73 E10.32349
G1 X142.331 Y180.682 E10.33968
G1 X141.901 Y180.572 E10.37447
G1 X141.675 Y180.51 E10.39283
G1 X140.463 Y180.153 E10.49185
G1 X140.253 Y180.087 E10.5091
G1 X139.813 Y179.941 E10.54543
G1 X139.601 Y179.867 E10.56303
G1 X138.438 Y179.436 E10.66022
G1 X138.248 Y179.362 E10.6762
G1 X137.835 Y179.194 E10.71114
G1 X137.617 Y179.1 E10.72975
G1 X136.457 Y178.578 E10.82944
G1 X136.264 Y178.488 E10.84612
G1 X135.866 Y178.293 E10.88086
G1 X135.663 Y178.189 E10.89873
G1 X134.536 Y177.587 E10.99886
G1 X134.346 Y177.481 E11.01591
G1 X133.981 Y177.27 E11.04895
G1 X133.785 Y177.153 E11.06684
G1 X132.697 Y176.472 E11.16743
G1 X132.517 Y176.355 E11.18425
G1 X132.141 Y176.102 E11.21977
G1 X131.956 Y175.972 E11.23749
G1 X130.939 Y175.235 E11.33592
G1 X130.76 Y175.101 E11.35344
G1 X130.426 Y174.841 E11.38661
G1 X130.259 Y174.706 E11.40344
G1 X129.247 Y173.863 E11.50666
G1 X129.075 Y173.715 E11.52444
G1 X128.773 Y173.445 E11.55619
G1 X128.617 Y173.301 E11.57282
G1 X127.695 Y172.421 E11.67271
G1 X127.527 Y172.255 E11.69122
G1 X127.225 Y171.945 E11.72513
G1 X127.081 Y171.792 E11.7416
G1 X126.221 Y170.85 E11.84156
G1 X126.076 Y170.686 E11.85871
G1 X125.791 Y170.352 E11.89312
G1 X125.645 Y170.174 E11.91116
G1 X124.864 Y169.19 E12.00961
G1 X124.726 Y169.011 E12.02733
G1 X124.435 Y168.617 E12.06571
G1 X124.313 Y168.445 E12.08224
G1 X123.611 Y167.427 E12.17915
G1 X123.49 Y167.245 E12.19627
G1 X123.256 Y166.88 E12.23025
G1 X123.137 Y166.687 E12.24802
G1 X122.47 Y165.562 E12.35051
G1 X122.371 Y165.39 E12.36607
G1 X122.181 Y165.046 E12.39686
G1 X122.066 Y164.828 E12.41618
G1 X121.482 Y163.669 E12.51789
G1 X121.387 Y163.471 E12.5351
G1 X121.191 Y163.047 E12.5717
G1 X121.1 Y162.843 E12.58921
G1 X120.633 Y161.734 E12.68351
G1 X120.561 Y161.555 E12.69863
G1 X120.394 Y161.123 E12.73493
G1 X120.308 Y160.887 E12.75461
G1 X119.89 Y159.668 E12.8556
G1 X119.828 Y159.477 E12.87134
G1 X119.707 Y159.085 E12.90349
G1 X119.64 Y158.851 E12.92256
G1 X119.302 Y157.59 E13.02487
G1 X119.251 Y157.387 E13.04128
G1 X119.153 Y156.968 E13.075
G1 X119.106 Y156.752 E13.09232
G1 X118.86 Y155.511 E13.19147
G1 X118.819 Y155.282 E13.2097
G1 X118.749 Y154.848 E13.24415
G1 X118.718 Y154.632 E13.26125
G1 X118.558 Y153.373 E13.36071
G1 X118.534 Y153.153 E13.37805
G1 X118.493 Y152.71 E13.41292
G1 X118.476 Y152.494 E13.4299
G1 X118.401 Y151.223 E13.52968
G1 X118.392 Y151.02 E13.5456
G1 X118.38 Y150.587 E13.57955
G1 X118.378 Y150.34 E13.5989
G1 X118.391 Y149.076 E13.69797
G1 X118.396 Y148.877 E13.71357
G1 X118.414 Y148.437 E13.74808
G1 X118.429 Y148.197 E13.76692
G1 X118.53 Y146.903 E13.86864
G1 X118.551 Y146.683 E13.88596
G1 X118.598 Y146.265 E13.91892
G1 X118.626 Y146.043 E13.93646
G1 X118.812 Y144.781 E14.03642
G1 X118.845 Y144.581 E14.05231
G1 X118.92 Y144.163 E14.08559
G1 X118.965 Y143.934 E14.10388
G1 X119.235 Y142.688 E14.20379
G1 X119.288 Y142.466 E14.22168
G1 X119.406 Y142.001 E14.25927
G1 X119.462 Y141.795 E14.276
G1 X119.797 Y140.636 E14.37055
G1 X119.858 Y140.435 E14.38701
G1 X119.993 Y140.019 E14.42129
G1 X120.071 Y139.794 E14.43995
G1 X120.529 Y138.541 E14.5445
G1 X120.607 Y138.338 E14.56154
G1 X120.775 Y137.922 E14.5967
G1 X120.864 Y137.713 E14.6145
G1 X121.342 Y136.639 E14.70663
G1 X121.423 Y136.464 E14.72174
G1 X121.627 Y136.04 E14.75861
G1 X121.737 Y135.821 E14.77782
G1 X122.35 Y134.661 E14.88064
G1 X122.46 Y134.462 E14.89846
G1 X122.685 Y134.07 E14.93388
G1 X122.797 Y133.883 E14.95096
G1 X123.455 Y132.821 E15.04887
G1 X123.565 Y132.648 E15.06493
G1 X124.065 Y131.895 E15.13577
G1 X124.184 Y131.722 E15.15222
G1 X124.342 Y131.5 E15.17358
G1 X124.453 Y131.349 E15.18826
G1 X124.896 Y130.763 E15.24583
G1 X124.954 Y130.688 E15.25326
G1 X125.187 Y130.389 E15.28297
G1 X125.328 Y130.214 E15.30058
G1 X126.145 Y129.237 E15.40039
G1 X126.288 Y129.072 E15.4175
G1 X126.595 Y128.729 E15.45357
G1 X126.748 Y128.563 E15.47127
G1 X127.63 Y127.644 E15.57109
M204 S3000
M205 X15 Y15
G0 F3600 X128.063 Y128.06
M204 S2000
M205 X7 Y7
G1 F1950 X128.204 Y127.918 E15.58677
G1 X128.507 Y127.623 E15.61991
G1 X128.652 Y127.486 E15.63554
G1 X129.608 Y126.616 E15.73684
G1 X129.765 Y126.478 E15.75322
G1 X130.079 Y126.212 E15.78547
G1 X130.228 Y126.091 E15.80052
G1 X131.227 Y125.299 E15.90042
G1 X131.39 Y125.173 E15.91657
G1 X131.767 Y124.895 E15.95328
G1 X131.934 Y124.777 E15.9693
G1 X132.954 Y124.078 E16.06621
G1 X133.099 Y123.982 E16.07983
G1 X133.46 Y123.75 E16.11346
G1 X133.647 Y123.635 E16.13067
G1 X134.78 Y122.965 E16.23382
G1 X134.944 Y122.871 E16.24863
G1 X135.301 Y122.675 E16.28055
G1 X135.496 Y122.573 E16.2978
G1 X136.651 Y121.994 E16.39905
G1 X136.823 Y121.911 E16.41401
G1 X137.198 Y121.738 E16.44638
G1 X137.384 Y121.656 E16.46231
G1 X138.595 Y121.147 E16.56525
G1 X138.784 Y121.071 E16.58122
G1 X139.147 Y120.933 E16.61165
G1 X139.337 Y120.865 E16.62747
G1 X140.587 Y120.438 E16.73098
G1 X140.77 Y120.378 E16.74608
G1 X141.153 Y120.261 E16.77746
G1 X141.352 Y120.204 E16.79368
G1 X142.593 Y119.872 E16.89436
G1 X142.79 Y119.823 E16.91026
G1 X143.236 Y119.72 E16.94614
G1 X143.435 Y119.678 E16.96208
G1 X144.666 Y119.438 E17.06036
G1 X144.849 Y119.405 E17.07493
G1 X145.286 Y119.334 E17.10963
G1 X145.497 Y119.304 E17.12633
G1 X146.748 Y119.147 E17.22514
G1 X146.944 Y119.126 E17.24059
G1 X147.675 Y119.059 E17.29811
G1 X147.843 Y119.046 E17.31132
G1 X148.192 Y119.024 E17.33872
G1 X148.363 Y119.015 E17.35214
G1 X148.895 Y118.997 E17.39386
G1 X148.974 Y118.995 E17.40005
G1 X149.609 Y118.982 E17.44982
G1 X149.777 Y118.981 E17.46299
G1 X150.529 Y118.987 E17.52193
G1 X150.619 Y118.989 E17.52898
G1 X151.093 Y119 E17.56614
G1 X151.176 Y119.002 E17.57264
G1 X151.846 Y119.027 E17.62519
G1 X152.104 Y119.042 E17.64544
G1 X152.682 Y119.089 E17.69088
G1 X152.793 Y119.099 E17.69962
G1 X153.182 Y119.138 E17.73026
G1 X153.27 Y119.148 E17.7372
G1 X153.755 Y119.204 E17.77546
G1 X153.941 Y119.228 E17.79015
G1 X155.158 Y119.408 E17.88657
G1 X155.349 Y119.44 E17.90174
G1 X155.773 Y119.517 E17.93551
G1 X155.977 Y119.558 E17.95182
G1 X157.242 Y119.834 E18.05329
G1 X157.45 Y119.883 E18.07003
G1 X157.875 Y119.992 E18.10442
G1 X158.058 Y120.042 E18.11929
G1 X159.267 Y120.394 E18.21797
G1 X159.449 Y120.45 E18.23289
G1 X159.838 Y120.577 E18.26496
G1 X160.037 Y120.646 E18.28146
G1 X161.306 Y121.111 E18.38738
G1 X161.494 Y121.184 E18.40318
G1 X161.876 Y121.339 E18.43549
G1 X162.063 Y121.418 E18.4514
G1 X163.192 Y121.922 E18.54829
G1 X163.371 Y122.006 E18.56379
G1 X163.796 Y122.213 E18.60083
G1 X163.975 Y122.304 E18.61657
G1 X165.071 Y122.885 E18.71378
G1 X165.253 Y122.985 E18.73006
G1 X165.661 Y123.22 E18.76696
G1 X165.828 Y123.32 E18.78221
G1 X166.875 Y123.97 E18.87879
G1 X167.024 Y124.066 E18.89268
G1 X167.398 Y124.314 E18.92784
G1 X167.584 Y124.443 E18.94558
G1 X168.634 Y125.199 E19.04698
G1 X168.795 Y125.318 E19.06267
G1 X169.125 Y125.573 E19.09535
G1 X169.283 Y125.7 E19.11124
G1 X170.295 Y126.539 E19.21426
G1 X170.455 Y126.677 E19.23081
G1 X170.768 Y126.956 E19.26367
G1 X170.904 Y127.081 E19.27815
G1 X171.829 Y127.959 E19.3781
G1 X171.975 Y128.102 E19.39411
G1 X172.264 Y128.396 E19.42642
G1 X172.399 Y128.538 E19.44177
G1 X173.27 Y129.485 E19.5426
G1 X173.416 Y129.65 E19.55987
G1 X173.712 Y129.997 E19.59561
G1 X173.828 Y130.137 E19.60986
G1 X174.613 Y131.117 E19.70826
G1 X174.738 Y131.279 E19.7243
G1 X174.996 Y131.625 E19.75812
G1 X175.115 Y131.792 E19.77419
G1 X175.844 Y132.844 E19.87449
G1 X175.942 Y132.99 E19.88828
G1 X176.172 Y133.344 E19.92136
G1 X176.3 Y133.55 E19.94036
