;FLAVOR:Marlin
;TIME:10532
;Filament used: 3.43218m
;Layer height: 0.12
;MINX:99.188
;MINY:121.631
;MINZ:0.24
;MAXX:187.674
;MAXY:224.257
;MAXZ:36.12
;Generated with Cura_SteamEngine 4.4.1
M140 S80
M105
M190 S80
M104 S200
M105
M109 S200
M82 ;absolute extrusion mode
G28 ;Home
G1 Z15.0 F6000 ;Move the platform down 15mm
;Prime the extruder
G92 E0
G1 F200 E3
G92 E0
G92 E0
G92 E0
G1 F1500 E-6.5
;LAYER_COUNT:302
;LAYER:0
M107
M204 S5000
G1 F600 Z0.74
G0 F2400 X100.131 Y122.447 Z0.74
M204 S2000
;TYPE:SKIRT
G1 F600 Z0.24
G1 F1500 E0
G1 F600 X100.514 Y122.142 E0.01935
G1 X100.941 Y121.902 E0.0387
G1 X101.401 Y121.736 E0.05802
G1 X101.883 Y121.647 E0.07739
G1 X102.188 Y121.631 E0.08946
G1 X103.96 Y121.631 E0.15948
G1 X104.448 Y121.671 E0.17882
G1 X104.923 Y121.79 E0.19817
G1 X105.372 Y121.984 E0.2175
G1 X105.784 Y122.249 E0.23685
G1 X106.147 Y122.577 E0.25619
G1 X106.452 Y122.96 E0.27553
G1 X106.69 Y123.388 E0.29488
G1 X106.856 Y123.848 E0.31421
G1 X106.945 Y124.329 E0.33353
G1 X106.96 Y124.63 E0.34544
G1 X106.96 Y125.005 E0.36026
G1 X107.699 Y125.005 E0.38946
G1 X108.187 Y125.045 E0.40881
G1 X108.662 Y125.164 E0.42816
G1 X109.111 Y125.358 E0.44748
G1 X109.523 Y125.623 E0.46684
G1 X109.886 Y125.951 E0.48617
G1 X110.191 Y126.334 E0.50551
G1 X110.429 Y126.762 E0.52487
G1 X110.595 Y127.222 E0.54419
G1 X110.684 Y127.703 E0.56352
G1 X110.699 Y128.006 E0.5755
G1 X110.699 Y128.912 E0.6113
G1 X119.051 Y128.912 E0.94132
G1 X119.052 Y128.731 E0.94847
G1 X119.094 Y128.243 E0.96782
G1 X119.215 Y127.769 E0.98715
G1 X119.411 Y127.321 E1.00647
G1 X119.678 Y126.91 E1.02584
G1 X120.008 Y126.548 E1.04519
G1 X120.392 Y126.245 E1.06452
G1 X120.82 Y126.008 E1.08385
G1 X121.282 Y125.845 E1.10321
G1 X121.763 Y125.758 E1.12252
G1 X122.052 Y125.744 E1.13396
G1 X183.315 Y125.744 E3.55464
G1 X183.803 Y125.784 E3.57399
G1 X184.278 Y125.903 E3.59334
G1 X184.727 Y126.097 E3.61267
G1 X185.139 Y126.362 E3.63202
G1 X185.502 Y126.69 E3.65135
G1 X185.807 Y127.073 E3.6707
G1 X186.045 Y127.501 E3.69005
G1 X186.211 Y127.961 E3.70937
G1 X186.3 Y128.442 E3.7287
G1 X186.315 Y128.743 E3.74061
G1 X186.316 Y131.383 E3.84493
G1 X186.276 Y131.871 E3.86427
G1 X186.158 Y132.346 E3.88361
G1 X185.963 Y132.795 E3.90295
G1 X185.699 Y133.207 E3.92229
G1 X185.371 Y133.57 E3.94162
G1 X184.988 Y133.875 E3.96097
G1 X184.561 Y134.114 E3.9803
G1 X184.1 Y134.28 E3.99966
G1 X183.619 Y134.369 E4.01899
G1 X183.316 Y134.384 E4.03098
G1 X128.599 Y134.384 E6.19301
G1 X128.682 Y134.614 E6.20267
G1 X128.771 Y135.095 E6.222
G1 X128.786 Y135.396 E6.23391
G1 X128.787 Y137.719 E6.3257
G1 X128.747 Y138.207 E6.34505
G1 X128.629 Y138.682 E6.36438
G1 X128.435 Y139.131 E6.38371
G1 X128.17 Y139.543 E6.40307
G1 X127.842 Y139.906 E6.4224
G1 X127.459 Y140.211 E6.44174
G1 X127.032 Y140.45 E6.46108
G1 X126.571 Y140.616 E6.48044
G1 X126.09 Y140.705 E6.49977
G1 X125.787 Y140.72 E6.51176
G1 X121.682 Y140.72 E6.67396
G1 X121.194 Y140.68 E6.6933
G1 X120.719 Y140.561 E6.71265
G1 X120.27 Y140.367 E6.73198
G1 X119.858 Y140.102 E6.75134
G1 X119.495 Y139.774 E6.77067
G1 X119.19 Y139.391 E6.79001
G1 X118.952 Y138.963 E6.80936
G1 X118.786 Y138.503 E6.82869
G1 X118.697 Y138.022 E6.84801
G1 X118.695 Y137.974 E6.84991
G1 X110.677 Y137.974 E7.16673
G1 X110.658 Y138.208 E7.176
G1 X110.539 Y138.683 E7.19535
G1 X110.345 Y139.132 E7.21468
G1 X110.08 Y139.544 E7.23404
G1 X109.752 Y139.907 E7.25337
G1 X109.369 Y140.212 E7.27271
G1 X108.941 Y140.45 E7.29206
G1 X108.481 Y140.616 E7.31139
G1 X108 Y140.705 E7.33072
G1 X107.698 Y140.72 E7.34266
G1 X106.961 Y140.72 E7.37178
G1 X106.961 Y141.756 E7.41272
G1 X106.921 Y142.244 E7.43207
G1 X106.802 Y142.719 E7.45142
G1 X106.608 Y143.168 E7.47074
G1 X106.343 Y143.58 E7.4901
G1 X106.015 Y143.943 E7.50943
G1 X105.632 Y144.248 E7.52877
G1 X105.204 Y144.486 E7.54813
G1 X104.744 Y144.652 E7.56745
G1 X104.263 Y144.741 E7.58678
G1 X103.961 Y144.756 E7.59872
G1 X103.375 Y144.756 E7.62188
G1 X103.112 Y144.734 E7.63231
G1 X103.077 Y144.741 E7.63372
G1 X102.775 Y144.756 E7.64567
G1 X102.21 Y144.756 E7.66799
G1 X101.722 Y144.716 E7.68734
G1 X101.247 Y144.597 E7.70669
G1 X100.798 Y144.403 E7.72601
G1 X100.386 Y144.138 E7.74537
G1 X100.023 Y143.81 E7.7647
G1 X99.718 Y143.427 E7.78405
G1 X99.48 Y142.999 E7.8034
G1 X99.314 Y142.539 E7.82272
G1 X99.225 Y142.058 E7.84205
G1 X99.21 Y141.76 E7.85384
G1 X99.188 Y124.635 E8.5305
G1 X99.227 Y124.147 E8.54984
G1 X99.345 Y123.672 E8.56918
G1 X99.539 Y123.222 E8.58854
G1 X99.804 Y122.81 E8.6079
G1 X100.131 Y122.447 E8.62721
M204 S5000
G0 F2400 X100.524 Y122.634
M204 S2000
G1 F600 X100.898 Y122.374 E8.6452
G1 X101.312 Y122.183 E8.66322
G1 X101.752 Y122.068 E8.68119
G1 X102.188 Y122.031 E8.69848
G1 X103.96 Y122.031 E8.7685
G1 X104.414 Y122.071 E8.7865
G1 X104.854 Y122.189 E8.8045
G1 X105.266 Y122.383 E8.8225
G1 X105.639 Y122.646 E8.84053
G1 X105.96 Y122.969 E8.85853
G1 X106.219 Y123.344 E8.87653
G1 X106.409 Y123.758 E8.89453
G1 X106.524 Y124.199 E8.91254
G1 X106.56 Y124.63 E8.92963
G1 X106.56 Y125.405 E8.96025
G1 X107.699 Y125.405 E9.00526
G1 X108.153 Y125.445 E9.02327
G1 X108.593 Y125.563 E9.04127
G1 X109.005 Y125.757 E9.05926
G1 X109.378 Y126.02 E9.07729
G1 X109.699 Y126.343 E9.09529
G1 X109.958 Y126.718 E9.11329
G1 X110.148 Y127.132 E9.13129
G1 X110.263 Y127.573 E9.1493
G1 X110.299 Y128.006 E9.16647
G1 X110.299 Y129.312 E9.21807
G1 X119.451 Y129.312 E9.5797
G1 X119.451 Y128.964 E9.59345
G1 X119.452 Y128.733 E9.60258
G1 X119.494 Y128.279 E9.62059
G1 X119.614 Y127.84 E9.63857
G1 X119.81 Y127.428 E9.6566
G1 X120.074 Y127.057 E9.67459
G1 X120.399 Y126.737 E9.69261
G1 X120.774 Y126.48 E9.71058
G1 X121.189 Y126.291 E9.7286
G1 X121.631 Y126.178 E9.74662
G1 X122.052 Y126.144 E9.76331
G1 X183.315 Y126.144 E12.184
G1 X183.769 Y126.184 E12.20201
G1 X184.209 Y126.302 E12.22001
G1 X184.621 Y126.496 E12.238
G1 X184.994 Y126.759 E12.25604
G1 X185.315 Y127.082 E12.27403
G1 X185.574 Y127.457 E12.29204
G1 X185.764 Y127.871 E12.31004
G1 X185.879 Y128.312 E12.32804
G1 X185.915 Y128.743 E12.34513
G1 X185.916 Y131.383 E12.44945
G1 X185.876 Y131.837 E12.46746
G1 X185.758 Y132.277 E12.48546
G1 X185.565 Y132.689 E12.50343
G1 X185.302 Y133.062 E12.52147
G1 X184.979 Y133.383 E12.53946
G1 X184.604 Y133.642 E12.55747
G1 X184.19 Y133.833 E12.57548
G1 X183.749 Y133.948 E12.59349
G1 X183.316 Y133.984 E12.61066
G1 X127.958 Y133.984 E14.79802
G1 X128.045 Y134.11 E14.80407
G1 X128.235 Y134.524 E14.82207
G1 X128.35 Y134.965 E14.84008
G1 X128.386 Y135.396 E14.85717
G1 X128.387 Y137.719 E14.94896
G1 X128.347 Y138.173 E14.96697
G1 X128.229 Y138.613 E14.98497
G1 X128.036 Y139.025 E15.00294
G1 X127.773 Y139.398 E15.02098
G1 X127.45 Y139.719 E15.03897
G1 X127.075 Y139.978 E15.05698
G1 X126.661 Y140.169 E15.07499
G1 X126.22 Y140.284 E15.093
G1 X125.787 Y140.32 E15.11017
G1 X121.682 Y140.32 E15.27237
G1 X121.228 Y140.28 E15.29038
G1 X120.788 Y140.162 E15.30838
G1 X120.376 Y139.968 E15.32637
G1 X120.003 Y139.705 E15.34441
G1 X119.682 Y139.382 E15.3624
G1 X119.423 Y139.007 E15.38041
G1 X119.233 Y138.593 E15.39841
G1 X119.118 Y138.152 E15.41641
G1 X119.082 Y137.72 E15.43354
G1 X119.082 Y137.574 E15.43931
G1 X110.298 Y137.574 E15.7864
G1 X110.298 Y137.72 E15.79216
G1 X110.258 Y138.174 E15.81017
G1 X110.14 Y138.614 E15.82817
G1 X109.946 Y139.026 E15.84617
G1 X109.683 Y139.399 E15.8642
G1 X109.36 Y139.72 E15.88219
G1 X108.985 Y139.979 E15.9002
G1 X108.571 Y140.169 E15.9182
G1 X108.13 Y140.284 E15.93621
G1 X107.698 Y140.32 E15.95334
G1 X106.561 Y140.32 E15.99826
G1 X106.561 Y141.756 E16.055
G1 X106.521 Y142.21 E16.07301
G1 X106.403 Y142.65 E16.09101
G1 X106.209 Y143.062 E16.10901
G1 X105.946 Y143.435 E16.12704
G1 X105.623 Y143.756 E16.14503
G1 X105.248 Y144.015 E16.16304
G1 X104.834 Y144.205 E16.18104
G1 X104.393 Y144.32 E16.19905
G1 X103.961 Y144.356 E16.21618
G1 X103.375 Y144.356 E16.23933
G1 X103.083 Y144.33 E16.25092
G1 X102.775 Y144.356 E16.26313
G1 X102.21 Y144.356 E16.28545
G1 X101.756 Y144.316 E16.30346
G1 X101.316 Y144.198 E16.32146
G1 X100.904 Y144.004 E16.33946
G1 X100.531 Y143.741 E16.35749
G1 X100.21 Y143.418 E16.37548
G1 X99.951 Y143.043 E16.39349
G1 X99.761 Y142.629 E16.41149
G1 X99.646 Y142.188 E16.4295
G1 X99.61 Y141.759 E16.44651
G1 X99.588 Y124.634 E17.12317
G1 X99.627 Y124.18 E17.14117
G1 X99.745 Y123.74 E17.15917
G1 X99.938 Y123.328 E17.17715
G1 X100.2 Y122.955 E17.19516
G1 X100.524 Y122.634 E17.21318
M204 S5000
G0 F2400 X100.596 Y123.113
M204 S2000
G1 F600 X100.913 Y122.838 E17.22977
G1 X101.276 Y122.629 E17.24632
G1 X101.672 Y122.492 E17.26287
G1 X102.188 Y122.431 E17.2834
G1 X103.96 Y122.431 E17.35342
G1 X104.377 Y122.471 E17.36997
G1 X104.779 Y122.589 E17.38653
G1 X105.151 Y122.782 E17.40309
G1 X105.48 Y123.041 E17.41963
G1 X105.754 Y123.358 E17.43619
G1 X105.963 Y123.721 E17.45274
G1 X106.099 Y124.118 E17.46932
G1 X106.16 Y124.63 E17.4897
G1 X106.16 Y125.805 E17.53612
G1 X107.699 Y125.805 E17.59693
G1 X108.116 Y125.845 E17.61349
G1 X108.518 Y125.963 E17.63004
G1 X108.89 Y126.156 E17.6466
G1 X109.219 Y126.415 E17.66314
G1 X109.493 Y126.732 E17.6797
G1 X109.702 Y127.095 E17.69625
G1 X109.838 Y127.492 E17.71283
G1 X109.899 Y128.006 E17.73329
G1 X109.899 Y129.712 E17.80069
G1 X119.851 Y129.712 E18.19393
G1 X119.851 Y128.965 E18.22344
G1 X119.852 Y128.734 E18.23257
G1 X119.894 Y128.318 E18.24909
G1 X120.014 Y127.916 E18.26567
G1 X120.208 Y127.545 E18.28221
G1 X120.469 Y127.217 E18.29878
G1 X120.787 Y126.944 E18.31534
G1 X121.151 Y126.737 E18.33188
G1 X121.548 Y126.602 E18.34845
G1 X122.052 Y126.544 E18.3685
G1 X183.315 Y126.544 E20.78918
G1 X183.732 Y126.584 E20.80574
G1 X184.134 Y126.702 E20.82229
G1 X184.506 Y126.895 E20.83885
G1 X184.835 Y127.154 E20.85539
G1 X185.109 Y127.471 E20.87195
G1 X185.318 Y127.834 E20.8885
G1 X185.454 Y128.231 E20.90508
G1 X185.515 Y128.743 E20.92546
G1 X185.516 Y131.383 E21.02977
G1 X185.476 Y131.8 E21.04632
G1 X185.358 Y132.202 E21.06288
G1 X185.166 Y132.575 E21.07945
G1 X184.907 Y132.904 E21.096
G1 X184.59 Y133.178 E21.11256
G1 X184.226 Y133.387 E21.12914
G1 X183.83 Y133.523 E21.14568
G1 X183.316 Y133.584 E21.16614
G1 X127.023 Y133.584 E23.39044
G1 X127.306 Y133.807 E23.40468
G1 X127.58 Y134.124 E23.42124
G1 X127.789 Y134.487 E23.43779
G1 X127.925 Y134.884 E23.45437
G1 X127.986 Y135.396 E23.47474
G1 X127.987 Y137.719 E23.56653
G1 X127.947 Y138.136 E23.58308
G1 X127.829 Y138.538 E23.59964
G1 X127.637 Y138.911 E23.61622
G1 X127.378 Y139.24 E23.63276
G1 X127.061 Y139.514 E23.64932
G1 X126.697 Y139.723 E23.6659
G1 X126.301 Y139.859 E23.68245
G1 X125.787 Y139.92 E23.7029
G1 X121.682 Y139.92 E23.8651
G1 X121.265 Y139.88 E23.88165
G1 X120.863 Y139.762 E23.89821
G1 X120.491 Y139.569 E23.91476
G1 X120.162 Y139.31 E23.93131
G1 X119.888 Y138.993 E23.94787
G1 X119.679 Y138.63 E23.96442
G1 X119.543 Y138.233 E23.981
G1 X119.482 Y137.72 E24.00141
G1 X119.482 Y137.174 E24.02299
G1 X109.898 Y137.174 E24.40168
G1 X109.898 Y137.72 E24.42325
G1 X109.858 Y138.137 E24.4398
G1 X109.74 Y138.539 E24.45636
G1 X109.547 Y138.911 E24.47292
G1 X109.288 Y139.24 E24.48946
G1 X108.971 Y139.514 E24.50602
G1 X108.608 Y139.723 E24.52257
G1 X108.211 Y139.859 E24.53915
G1 X107.698 Y139.92 E24.55956
G1 X106.161 Y139.92 E24.6203
G1 X106.161 Y141.756 E24.69284
G1 X106.121 Y142.173 E24.70939
G1 X106.003 Y142.575 E24.72595
G1 X105.81 Y142.947 E24.74251
G1 X105.551 Y143.276 E24.75905
G1 X105.234 Y143.55 E24.77561
G1 X104.871 Y143.759 E24.79216
G1 X104.474 Y143.895 E24.80874
G1 X103.961 Y143.956 E24.82915
G1 X103.375 Y143.956 E24.85231
G1 X103.043 Y143.924 E24.86549
G1 X102.775 Y143.956 E24.87615
G1 X102.21 Y143.956 E24.89848
G1 X101.793 Y143.916 E24.91503
G1 X101.391 Y143.798 E24.93159
G1 X101.019 Y143.605 E24.94814
G1 X100.69 Y143.346 E24.96469
G1 X100.416 Y143.029 E24.98125
G1 X100.207 Y142.666 E24.9978
G1 X100.071 Y142.269 E25.01438
G1 X100.01 Y141.759 E25.03467
G1 X99.988 Y124.634 E25.71133
G1 X100.027 Y124.217 E25.72788
G1 X100.145 Y123.814 E25.74448
G1 X100.337 Y123.442 E25.76102
G1 X100.596 Y123.113 E25.77756
M204 S5000
G0 F2400 X100.99 Y123.288
M204 S2000
G1 F600 X101.298 Y123.067 E25.79254
G1 X101.645 Y122.915 E25.80751
G1 X102.188 Y122.831 E25.82922
G1 X103.96 Y122.831 E25.89924
G1 X104.337 Y122.871 E25.91422
G1 X104.697 Y122.989 E25.92919
G1 X105.024 Y123.179 E25.94413
G1 X105.305 Y123.434 E25.95912
G1 X105.525 Y123.743 E25.97411
G1 X105.677 Y124.09 E25.98908
G1 X105.76 Y124.63 E26.01067
G1 X105.76 Y126.205 E26.0729
G1 X107.699 Y126.205 E26.14952
G1 X108.076 Y126.245 E26.1645
G1 X108.436 Y126.363 E26.17947
G1 X108.763 Y126.553 E26.19441
G1 X109.044 Y126.808 E26.2094
G1 X109.264 Y127.117 E26.22439
G1 X109.416 Y127.464 E26.23936
G1 X109.499 Y128.005 E26.26099
G1 X109.498 Y130.112 E26.34424
G1 X120.251 Y130.112 E26.76912
G1 X120.251 Y128.967 E26.81437
G1 X120.252 Y128.736 E26.82349
G1 X120.294 Y128.36 E26.83844
G1 X120.413 Y128 E26.85342
G1 X120.605 Y127.673 E26.86841
G1 X120.861 Y127.394 E26.88337
G1 X121.17 Y127.175 E26.89833
G1 X121.518 Y127.025 E26.91331
G1 X122.052 Y126.944 E26.93465
G1 X183.315 Y126.944 E29.35534
G1 X183.692 Y126.984 E29.37032
G1 X184.052 Y127.102 E29.38529
G1 X184.379 Y127.292 E29.40023
G1 X184.66 Y127.547 E29.41522
G1 X184.88 Y127.856 E29.43021
G1 X185.032 Y128.203 E29.44518
G1 X185.115 Y128.743 E29.46677
G1 X185.116 Y131.383 E29.57108
G1 X185.076 Y131.76 E29.58606
G1 X184.958 Y132.12 E29.60103
G1 X184.768 Y132.448 E29.61601
G1 X184.513 Y132.728 E29.63097
G1 X184.205 Y132.949 E29.64595
G1 X183.858 Y133.101 E29.66092
G1 X183.316 Y133.184 E29.68259
G1 X126.534 Y133.184 E31.92622
G1 X126.535 Y133.762 E31.94905
G1 X126.85 Y133.945 E31.96345
G1 X127.131 Y134.2 E31.97844
G1 X127.351 Y134.509 E31.99343
G1 X127.503 Y134.856 E32.0084
G1 X127.586 Y135.396 E32.02999
G1 X127.587 Y137.719 E32.12178
G1 X127.547 Y138.096 E32.13676
G1 X127.43 Y138.456 E32.15171
G1 X127.239 Y138.784 E32.16671
G1 X126.984 Y139.064 E32.18167
G1 X126.676 Y139.285 E32.19665
G1 X126.329 Y139.437 E32.21162
G1 X125.787 Y139.52 E32.23329
G1 X121.682 Y139.52 E32.39549
G1 X121.305 Y139.48 E32.41047
G1 X120.945 Y139.362 E32.42544
G1 X120.618 Y139.172 E32.44038
G1 X120.337 Y138.917 E32.45538
G1 X120.117 Y138.608 E32.47036
G1 X119.965 Y138.261 E32.48533
G1 X119.882 Y137.72 E32.50696
G1 X119.882 Y136.774 E32.54434
G1 X109.498 Y136.774 E32.95464
G1 X109.498 Y137.72 E32.99202
G1 X109.458 Y138.097 E33.007
G1 X109.34 Y138.457 E33.02197
G1 X109.15 Y138.784 E33.03691
G1 X108.895 Y139.065 E33.05191
G1 X108.586 Y139.285 E33.06689
G1 X108.239 Y139.437 E33.08186
G1 X107.698 Y139.52 E33.10349
G1 X105.761 Y139.52 E33.18003
G1 X105.761 Y141.756 E33.26838
G1 X105.721 Y142.133 E33.28336
G1 X105.603 Y142.493 E33.29833
G1 X105.413 Y142.82 E33.31327
G1 X105.158 Y143.101 E33.32826
G1 X104.849 Y143.321 E33.34325
G1 X104.502 Y143.473 E33.35822
G1 X103.961 Y143.556 E33.37985
G1 X103.375 Y143.556 E33.403
G1 X103.02 Y143.518 E33.41711
G1 X102.775 Y143.556 E33.42691
G1 X102.21 Y143.556 E33.44923
G1 X101.833 Y143.516 E33.46421
G1 X101.473 Y143.398 E33.47918
G1 X101.146 Y143.208 E33.49412
G1 X100.865 Y142.953 E33.50912
G1 X100.645 Y142.644 E33.52411
G1 X100.493 Y142.297 E33.53907
G1 X100.41 Y141.758 E33.56062
G1 X100.388 Y124.633 E34.23728
G1 X100.427 Y124.256 E34.25226
G1 X100.545 Y123.896 E34.26723
G1 X100.735 Y123.568 E34.28221
G1 X100.99 Y123.288 E34.29717
M204 S5000
G0 F2400 X101.132 Y123.712
M204 S2000
G1 F600 X101.38 Y123.488 E34.31038
G1 X101.674 Y123.329 E34.32358
G1 X101.997 Y123.244 E34.33678
G1 X102.188 Y123.231 E34.34434
G1 X103.96 Y123.231 E34.41436
G1 X104.292 Y123.271 E34.42757
G1 X104.604 Y123.388 E34.44074
G1 X104.881 Y123.576 E34.45397
G1 X105.104 Y123.824 E34.46715
G1 X105.263 Y124.118 E34.48035
G1 X105.347 Y124.442 E34.49358
G1 X105.36 Y124.631 E34.50107
G1 X105.361 Y126.605 E34.57906
G1 X107.699 Y126.605 E34.67145
G1 X108.031 Y126.645 E34.68466
G1 X108.343 Y126.762 E34.69782
G1 X108.62 Y126.95 E34.71105
G1 X108.843 Y127.198 E34.72423
G1 X109.002 Y127.492 E34.73744
G1 X109.086 Y127.816 E34.75066
G1 X109.099 Y128.005 E34.75815
G1 X109.098 Y130.512 E34.85721
G1 X120.651 Y130.512 E35.3137
G1 X120.651 Y128.969 E35.37467
G1 X120.652 Y128.738 E35.3838
G1 X120.693 Y128.406 E35.39702
