;FLAVOR:Marlin
;TIME:1854
;Filament used: 1.98817m
;Layer height: 0.16
;MINX:81.083
;MINY:121.685
;MINZ:0.3
;MAXX:175.114
;MAXY:178.119
;MAXZ:8.48
;Generated with Cura_SteamEngine 4.4.1
M104 S230
M105
M109 S230
M82 ;absolute extrusion mode
G28 ;Home
G1 Z15.0 F6000 ;Move the platform down 15mm
;Prime the extruder
G92 E0
G1 F200 E3
G92 E0
G92 E0
G92 E0
G1 F1500 E-6.5
;LAYER_COUNT:49
;LAYER:0
M107
G1 F600 Z0.8
G0 F12000 X91.612 Y131.852 Z0.8
;TYPE:SKIRT
G1 F600 Z0.3
G1 F1500 E0
G1 F2700 X91.933 Y131.65 E0.01892
G1 X92.279 Y131.522 E0.03733
G1 X92.609 Y131.437 E0.05433
G1 X92.984 Y131.382 E0.07324
G1 X93.371 Y131.408 E0.09259
G1 X93.682 Y131.463 E0.10834
G1 X94.047 Y131.567 E0.12728
G1 X94.322 Y131.708 E0.1427
G1 X94.591 Y131.876 E0.15852
G1 X94.89 Y132.11 E0.17746
G1 X95.13 Y132.396 E0.19609
G1 X95.327 Y132.688 E0.21366
G1 X95.437 Y132.875 E0.22449
G1 X95.673 Y133.336 E0.25032
G1 X97.656 Y136.783 E0.44872
G1 X97.7 Y136.864 E0.45332
G1 X98.233 Y137.91 E0.51189
G1 X99.276 Y139.736 E0.6168
G1 X99.316 Y139.811 E0.62105
G1 X99.563 Y140.295 E0.64815
G1 X100.086 Y141.21 E0.70074
G1 X100.666 Y141.102 E0.73017
G1 X100.826 Y141.08 E0.73823
G1 X101.482 Y141.018 E0.7711
G1 X101.643 Y141.01 E0.77914
G1 X102.301 Y141.007 E0.81197
G1 X102.468 Y141.014 E0.82031
G1 X103.124 Y141.072 E0.85317
G1 X103.286 Y141.094 E0.86132
G1 X103.954 Y141.215 E0.89519
G1 X104.122 Y141.254 E0.9038
G1 X104.189 Y141.273 E0.90727
G1 X104.389 Y140.927 E0.92721
G1 X104.414 Y140.885 E0.92965
G1 X105.208 Y139.591 E1.00539
G1 X105.756 Y138.639 E1.06019
G1 X105.782 Y138.596 E1.0627
G1 X106.879 Y136.807 E1.1674
G1 X108.226 Y134.497 E1.3008
G1 X108.246 Y134.464 E1.30273
G1 X108.957 Y133.303 E1.37065
G1 X108.977 Y133.27 E1.37258
G1 X109.275 Y132.806 E1.40009
G1 X109.613 Y132.417 E1.4258
G1 X109.864 Y132.2 E1.44235
G1 X110.175 Y131.984 E1.46124
G1 X110.588 Y131.82 E1.48341
G1 X110.946 Y131.727 E1.50186
G1 X111.321 Y131.671 E1.52078
G1 X111.7 Y131.694 E1.53972
G1 X111.989 Y131.743 E1.55435
G1 X112.354 Y131.846 E1.57327
G1 X112.639 Y131.99 E1.5892
G1 X112.925 Y132.168 E1.60601
G1 X113.224 Y132.401 E1.62492
G1 X113.487 Y132.721 E1.64558
G1 X113.679 Y133.019 E1.66327
G1 X113.85 Y133.357 E1.68217
G1 X113.944 Y133.712 E1.70049
G1 X113.993 Y134.021 E1.7161
G1 X114.012 Y134.4 E1.73503
G1 X113.962 Y134.737 E1.75203
G1 X113.886 Y135.043 E1.76776
G1 X113.756 Y135.399 E1.78666
G1 X113.662 Y135.568 E1.79631
G1 X113.391 Y135.998 E1.82167
G1 X111.272 Y139.634 E2.03163
G1 X111.227 Y139.708 E2.03595
G1 X110.588 Y140.692 E2.09448
G1 X109.528 Y142.509 E2.19943
G1 X109.482 Y142.583 E2.20378
G1 X109.191 Y143.031 E2.23043
G1 X108.656 Y143.948 E2.2834
G1 X109.037 Y144.393 E2.31263
G1 X109.136 Y144.519 E2.32062
G1 X109.518 Y145.055 E2.35346
G1 X109.608 Y145.195 E2.36176
G1 X109.94 Y145.766 E2.39471
G1 X110.017 Y145.914 E2.40304
G1 X110.294 Y146.512 E2.43592
G1 X110.357 Y146.666 E2.44422
G1 X110.584 Y147.305 E2.47805
G1 X110.632 Y147.462 E2.48624
G1 X110.65 Y147.534 E2.48994
G1 X111.056 Y147.534 E2.5102
G1 X111.099 Y147.535 E2.51234
G1 X112.614 Y147.573 E2.58795
G1 X113.722 Y147.574 E2.64323
G1 X113.766 Y147.575 E2.64542
G1 X115.865 Y147.629 E2.75018
G1 X118.539 Y147.641 E2.88359
G1 X118.577 Y147.642 E2.88548
G1 X119.937 Y147.677 E2.95336
G1 X119.973 Y147.678 E2.95515
G1 X120.524 Y147.703 E2.98267
G1 X121.035 Y147.802 E3.00864
G1 X121.35 Y147.912 E3.02528
G1 X121.693 Y148.074 E3.04421
G1 X122.042 Y148.35 E3.06641
G1 X122.301 Y148.614 E3.08486
G1 X122.536 Y148.911 E3.10375
G1 X122.704 Y149.249 E3.12259
G1 X122.806 Y149.524 E3.13722
G1 X122.899 Y149.891 E3.15611
G1 X122.917 Y150.209 E3.172
G1 X122.906 Y150.546 E3.18882
G1 X122.854 Y150.921 E3.20771
G1 X122.709 Y151.308 E3.22833
G1 X122.549 Y151.62 E3.24582
G1 X122.341 Y151.937 E3.26473
G1 X122.076 Y152.201 E3.2834
G1 X121.83 Y152.399 E3.29915
G1 X121.511 Y152.604 E3.31807
G1 X121.203 Y152.726 E3.3346
G1 X120.9 Y152.814 E3.35034
G1 X120.527 Y152.88 E3.36924
G1 X120.328 Y152.884 E3.37917
G1 X119.814 Y152.864 E3.40483
G1 X115.613 Y152.848 E3.61442
G1 X115.524 Y152.845 E3.61886
G1 X114.362 Y152.783 E3.67692
G1 X112.252 Y152.774 E3.78219
G1 X112.162 Y152.771 E3.78668
G1 X111.629 Y152.742 E3.81331
G1 X110.57 Y152.737 E3.86614
G1 X110.377 Y153.288 E3.89527
G1 X110.315 Y153.442 E3.90355
G1 X110.041 Y154.041 E3.93642
G1 X109.965 Y154.187 E3.94463
G1 X109.637 Y154.759 E3.97752
G1 X109.547 Y154.901 E3.98591
G1 X109.167 Y155.44 E4.01881
G1 X109.07 Y155.566 E4.02675
G1 X108.633 Y156.082 E4.06048
G1 X108.515 Y156.208 E4.06909
G1 X108.462 Y156.26 E4.0728
G1 X108.663 Y156.608 E4.09285
G1 X108.685 Y156.647 E4.09508
G1 X109.408 Y157.976 E4.17056
G1 X109.962 Y158.938 E4.22595
G1 X109.984 Y158.977 E4.22818
G1 X110.997 Y160.841 E4.33402
G1 X112.313 Y163.144 E4.46635
G1 X112.332 Y163.177 E4.46825
G1 X112.982 Y164.373 E4.53616
G1 X112.999 Y164.407 E4.53806
G1 X113.252 Y164.897 E4.56557
G1 X113.422 Y165.392 E4.59169
G1 X113.483 Y165.718 E4.60823
G1 X113.513 Y166.096 E4.62715
G1 X113.466 Y166.46 E4.64546
G1 X113.397 Y166.754 E4.66053
G1 X113.272 Y167.112 E4.67944
G1 X113.115 Y167.382 E4.69503
G1 X112.927 Y167.648 E4.71128
G1 X112.677 Y167.933 E4.73019
G1 X112.365 Y168.163 E4.74953
G1 X112.074 Y168.333 E4.76634
G1 X111.728 Y168.489 E4.78528
G1 X111.389 Y168.565 E4.80261
G1 X111.084 Y168.603 E4.81795
G1 X110.705 Y168.61 E4.83686
G1 X110.395 Y168.556 E4.85256
G1 X110.089 Y168.474 E4.86836
G1 X109.735 Y168.338 E4.88728
G1 X109.433 Y168.143 E4.90522
G1 X109.187 Y167.947 E4.92091
G1 X108.917 Y167.681 E4.93982
G1 X108.744 Y167.427 E4.95515
G1 X108.498 Y166.993 E4.98004
G1 X108.497 Y166.994 E4.98011
G1 X106.34 Y163.211 E5.19737
G1 X106.3 Y163.136 E5.20161
G1 X105.767 Y162.09 E5.26018
G1 X104.724 Y160.264 E5.36509
G1 X104.684 Y160.189 E5.36933
G1 X104.437 Y159.705 E5.39644
G1 X103.914 Y158.79 E5.44902
G1 X103.334 Y158.898 E5.47846
G1 X103.174 Y158.92 E5.48651
G1 X102.518 Y158.982 E5.51939
G1 X102.357 Y158.99 E5.52743
G1 X101.699 Y158.993 E5.56026
G1 X101.532 Y158.986 E5.5686
G1 X100.876 Y158.928 E5.60145
G1 X100.714 Y158.906 E5.60961
G1 X100.046 Y158.785 E5.64348
G1 X99.878 Y158.746 E5.65208
G1 X99.811 Y158.727 E5.65556
G1 X99.611 Y159.073 E5.67549
G1 X99.586 Y159.115 E5.67793
G1 X98.798 Y160.399 E5.75309
G1 X98.244 Y161.361 E5.80848
G1 X98.218 Y161.404 E5.81098
G1 X97.121 Y163.193 E5.91568
G1 X95.774 Y165.503 E6.04909
G1 X95.754 Y165.536 E6.05102
G1 X95.043 Y166.697 E6.11894
G1 X95.023 Y166.73 E6.12086
G1 X94.725 Y167.194 E6.14837
G1 X94.387 Y167.583 E6.17408
G1 X94.136 Y167.8 E6.19064
G1 X93.825 Y168.016 E6.20953
G1 X93.412 Y168.18 E6.2317
G1 X93.054 Y168.273 E6.25015
G1 X92.679 Y168.329 E6.26907
G1 X92.3 Y168.306 E6.28801
G1 X92.011 Y168.257 E6.30263
G1 X91.646 Y168.154 E6.32156
G1 X91.361 Y168.01 E6.33749
G1 X91.075 Y167.832 E6.35429
G1 X90.776 Y167.599 E6.3732
G1 X90.511 Y167.277 E6.39401
G1 X90.319 Y166.978 E6.41174
G1 X90.149 Y166.639 E6.43066
G1 X90.056 Y166.287 E6.44882
G1 X90.007 Y165.978 E6.46443
G1 X89.988 Y165.599 E6.48336
G1 X90.038 Y165.261 E6.50041
G1 X90.114 Y164.956 E6.51609
G1 X90.244 Y164.6 E6.535
G1 X90.338 Y164.432 E6.5446
G1 X90.609 Y164.002 E6.56996
G1 X92.728 Y160.366 E6.77992
G1 X92.773 Y160.292 E6.78424
G1 X93.412 Y159.308 E6.84278
G1 X94.472 Y157.491 E6.94772
G1 X94.518 Y157.417 E6.95207
G1 X94.809 Y156.969 E6.97872
G1 X95.344 Y156.052 E7.03169
G1 X94.962 Y155.606 E7.06099
G1 X94.862 Y155.478 E7.06909
G1 X94.48 Y154.941 E7.10197
G1 X94.391 Y154.803 E7.11016
G1 X94.059 Y154.232 E7.14311
G1 X93.982 Y154.083 E7.15148
G1 X93.706 Y153.487 E7.18425
G1 X93.643 Y153.334 E7.1925
G1 X93.416 Y152.695 E7.22634
G1 X93.368 Y152.538 E7.23453
G1 X93.35 Y152.466 E7.23823
G1 X92.944 Y152.466 E7.25848
G1 X92.901 Y152.465 E7.26063
G1 X91.386 Y152.427 E7.33624
G1 X90.278 Y152.426 E7.39152
G1 X90.234 Y152.425 E7.39371
G1 X88.135 Y152.371 E7.49847
G1 X85.461 Y152.359 E7.63187
G1 X85.423 Y152.358 E7.63377
G1 X84.063 Y152.323 E7.70164
G1 X84.027 Y152.322 E7.70344
G1 X83.476 Y152.297 E7.73096
G1 X82.965 Y152.198 E7.75693
G1 X82.65 Y152.088 E7.77357
G1 X82.307 Y151.926 E7.7925
G1 X81.958 Y151.65 E7.81469
G1 X81.699 Y151.386 E7.83315
G1 X81.464 Y151.089 E7.85204
G1 X81.296 Y150.751 E7.87087
G1 X81.194 Y150.476 E7.8855
G1 X81.101 Y150.109 E7.90439
G1 X81.083 Y149.791 E7.92028
G1 X81.094 Y149.454 E7.93711
G1 X81.146 Y149.079 E7.95599
G1 X81.291 Y148.692 E7.97661
G1 X81.451 Y148.38 E7.99411
G1 X81.659 Y148.063 E8.01302
G1 X81.924 Y147.799 E8.03168
G1 X82.17 Y147.601 E8.04744
G1 X82.489 Y147.396 E8.06636
G1 X82.797 Y147.274 E8.08288
G1 X83.1 Y147.186 E8.09862
G1 X83.473 Y147.12 E8.11752
G1 X83.672 Y147.116 E8.12745
G1 X84.186 Y147.136 E8.15312
G1 X88.387 Y147.152 E8.36271
G1 X88.476 Y147.155 E8.36715
G1 X89.638 Y147.217 E8.4252
G1 X91.748 Y147.226 E8.53047
G1 X91.838 Y147.229 E8.53497
G1 X92.371 Y147.258 E8.5616
G1 X93.43 Y147.263 E8.61443
G1 X93.623 Y146.712 E8.64356
G1 X93.685 Y146.558 E8.65184
G1 X93.959 Y145.959 E8.6847
G1 X94.035 Y145.813 E8.69291
G1 X94.363 Y145.241 E8.72581
G1 X94.453 Y145.099 E8.7342
G1 X94.833 Y144.56 E8.7671
G1 X94.93 Y144.434 E8.77503
G1 X95.367 Y143.918 E8.80877
G1 X95.485 Y143.792 E8.81738
G1 X95.538 Y143.74 E8.82108
G1 X95.337 Y143.392 E8.84113
G1 X95.315 Y143.353 E8.84337
G1 X94.592 Y142.024 E8.91885
G1 X94.038 Y141.062 E8.97423
G1 X94.016 Y141.023 E8.97647
G1 X92.995 Y139.144 E9.08316
G1 X91.687 Y136.856 E9.21464
G1 X91.668 Y136.822 E9.21658
G1 X90.802 Y135.228 E9.30709
G1 X90.651 Y134.856 E9.32712
G1 X90.554 Y134.511 E9.345
G1 X90.491 Y134.138 E9.36387
G1 X90.501 Y133.798 E9.38084
G1 X90.538 Y133.506 E9.39552
G1 X90.625 Y133.137 E9.41444
G1 X90.751 Y132.856 E9.4298
G1 X90.898 Y132.592 E9.44488
G1 X91.117 Y132.282 E9.46381
G1 X91.355 Y132.055 E9.48022
G1 X91.612 Y131.852 E9.49656
G0 F12000 X91.86 Y132.166
G1 F2700 X92.145 Y131.992 E9.51322
G1 X92.379 Y131.909 E9.52561
G1 X92.709 Y131.824 E9.54261
G1 X93.04 Y131.78 E9.55927
G1 X93.302 Y131.801 E9.57238
G1 X93.613 Y131.856 E9.58814
G1 X93.932 Y131.953 E9.60477
G1 X94.111 Y132.048 E9.61488
G1 X94.38 Y132.216 E9.6307
G1 X94.64 Y132.425 E9.64735
G1 X94.799 Y132.62 E9.6599
G1 X94.996 Y132.912 E9.67747
G1 X95.081 Y133.057 E9.68586
G1 X95.32 Y133.523 E9.71199
G1 X97.31 Y136.983 E9.91112
G1 X97.343 Y137.045 E9.91463
G1 X97.878 Y138.095 E9.97342
G1 X98.929 Y139.935 E10.07914
G1 X98.96 Y139.992 E10.08237
G1 X99.212 Y140.485 E10.11
G1 X99.887 Y141.668 E10.17795
G1 X99.96 Y141.647 E10.18174
G1 X100.089 Y141.617 E10.18834
G1 X100.739 Y141.496 E10.22133
G1 X100.863 Y141.478 E10.22758
G1 X101.519 Y141.416 E10.26046
G1 X101.645 Y141.41 E10.26675
G1 X102.303 Y141.407 E10.29958
G1 X102.432 Y141.412 E10.30602
G1 X103.088 Y141.47 E10.33887
G1 X103.215 Y141.487 E10.34527
G1 X103.883 Y141.608 E10.37913
G1 X104.014 Y141.639 E10.38585
G1 X104.38 Y141.742 E10.40482
G1 X104.735 Y141.127 E10.44025
G1 X104.755 Y141.094 E10.44217
G1 X105.553 Y139.794 E10.51827
G1 X106.103 Y138.838 E10.5733
G1 X106.123 Y138.805 E10.57522
G1 X107.241 Y136.982 E10.68192
G1 X108.572 Y134.699 E10.81376
G1 X108.587 Y134.673 E10.81526
G1 X109.298 Y133.512 E10.88318
G1 X109.314 Y133.486 E10.8847
G1 X109.612 Y133.022 E10.91221
G1 X109.874 Y132.72 E10.93216
G1 X110.125 Y132.503 E10.94871
G1 X110.402 Y132.316 E10.96539
G1 X110.689 Y132.207 E10.9807
G1 X111.047 Y132.114 E10.99916
G1 X111.378 Y132.069 E11.01582
G1 X111.633 Y132.089 E11.02858
G1 X111.922 Y132.138 E11.04321
G1 X112.242 Y132.232 E11.05985
G1 X112.428 Y132.329 E11.07031
G1 X112.714 Y132.507 E11.08712
G1 X112.974 Y132.717 E11.10379
G1 X113.151 Y132.938 E11.11792
G1 X113.343 Y133.236 E11.1356
G1 X113.489 Y133.536 E11.15225
G1 X113.549 Y133.775 E11.16454
G1 X113.598 Y134.084 E11.18015
G1 X113.61 Y134.418 E11.19683
G1 X113.574 Y134.64 E11.20805
G1 X113.498 Y134.946 E11.22378
G1 X113.324 Y135.355 E11.24595
G1 X113.053 Y135.786 E11.27135
G1 X110.927 Y139.433 E11.48196
G1 X110.891 Y139.49 E11.48532
G1 X110.245 Y140.485 E11.54451
G1 X109.182 Y142.307 E11.64975
G1 X109.147 Y142.365 E11.65313
G1 X108.845 Y142.83 E11.68079
G1 X108.16 Y144.004 E11.7486
G1 X108.214 Y144.056 E11.75234
G1 X108.304 Y144.152 E11.75891
G1 X108.733 Y144.653 E11.79181
G1 X108.81 Y144.751 E11.79803
G1 X109.192 Y145.287 E11.83087
G1 X109.262 Y145.396 E11.83733
G1 X109.594 Y145.967 E11.87028
G1 X109.654 Y146.083 E11.8768
G1 X109.931 Y146.681 E11.90968
G1 X109.98 Y146.8 E11.9161
G1 X110.207 Y147.439 E11.94993
G1 X110.244 Y147.561 E11.95629
G1 X110.339 Y147.933 E11.97545
G1 X111.055 Y147.934 E12.01117
G1 X111.089 Y147.934 E12.01286
G1 X112.644 Y147.973 E12.09047
G1 X113.721 Y147.974 E12.1442
G1 X113.756 Y147.974 E12.14595
G1 X115.893 Y148.029 E12.2526
G1 X118.537 Y148.041 E12.38451
G1 X118.567 Y148.041 E12.386
G1 X119.927 Y148.076 E12.45388
G1 X119.954 Y148.077 E12.45523
G1 X120.505 Y148.102 E12.48274
G1 X120.904 Y148.179 E12.50302
G1 X121.219 Y148.289 E12.51966
G1 X121.519 Y148.436 E12.53633
G1 X121.756 Y148.631 E12.55164
G1 X122.015 Y148.895 E12.57009
G1 X122.219 Y149.159 E12.58674
G1 X122.329 Y149.388 E12.59941
G1 X122.431 Y149.663 E12.61405
G1 X122.509 Y149.988 E12.63072
G1 X122.517 Y150.196 E12.64111
G1 X122.506 Y150.533 E12.65793
G1 X122.456 Y150.863 E12.67458
G1 X122.353 Y151.126 E12.68867
G1 X122.193 Y151.438 E12.70616
G1 X122.006 Y151.715 E12.72284
G1 X121.825 Y151.89 E12.7354
G1 X121.579 Y152.088 E12.75115
G1 X121.295 Y152.265 E12.76785
G1 X121.091 Y152.341 E12.77871
G1 X120.788 Y152.429 E12.79445
G1 X120.343 Y152.484 E12.81682
G1 X119.83 Y152.464 E12.84243
G1 X115.615 Y152.448 E13.05272
G1 X115.545 Y152.446 E13.05622
G1 X114.365 Y152.383 E13.11517
G1 X112.254 Y152.374 E13.22049
G1 X112.184 Y152.372 E13.22398
G1 X111.633 Y152.342 E13.25151
G1 X110.272 Y152.336 E13.31942
G1 X110.253 Y152.413 E13.32337
G1 X110.217 Y152.532 E13.32957
G1 X109.999 Y153.155 E13.3625
G1 X109.951 Y153.275 E13.36895
G1 X109.677 Y153.874 E13.40181
G1 X109.618 Y153.988 E13.40822
G1 X109.29 Y154.56 E13.44111
G1 X109.22 Y154.671 E13.44766
G1 X108.84 Y155.21 E13.48056
G1 X108.764 Y155.308 E13.48675
G1 X108.327 Y155.824 E13.52049
G1 X108.236 Y155.922 E13.52716
G1 X107.961 Y156.19 E13.54632
G1 X108.317 Y156.808 E13.5819
G1 X108.334 Y156.838 E13.58362
G1 X109.066 Y158.183 E13.66001
G1 X109.615 Y159.137 E13.71493
G1 X109.632 Y159.168 E13.71669
G1 X110.638 Y161.02 E13.82184
G1 X110.639 Y161.02 E13.82189
G1 X111.966 Y163.342 E13.95532
G1 X111.98 Y163.368 E13.95679
G1 X112.63 Y164.564 E14.0247
G1 X112.644 Y164.591 E14.02622
G1 X112.897 Y165.081 E14.05373
G1 X113.029 Y165.466 E14.07404
G1 X113.09 Y165.792 E14.09058
G1 X113.112 Y166.125 E14.10723
G1 X113.077 Y166.369 E14.11953
G1 X113.008 Y166.663 E14.1346
G1 X112.893 Y166.977 E14.15128
G1 X112.788 Y167.151 E14.16142
G1 X112.6 Y167.417 E14.17767
G1 X112.376 Y167.665 E14.19434
G1 X112.163 Y167.818 E14.20743
G1 X111.872 Y167.988 E14.22424
G1 X111.566 Y168.121 E14.24089
G1 X111.339 Y168.168 E14.25245
G1 X111.034 Y168.206 E14.26779
G1 X110.7 Y168.208 E14.28445
G1 X110.499 Y168.169 E14.29466
G1 X110.193 Y168.087 E14.31047
G1 X109.883 Y167.963 E14.32713
G1 X109.683 Y167.83 E14.33911
G1 X109.437 Y167.634 E14.3548
G1 X109.202 Y167.396 E14.37149
G1 X109.091 Y167.23 E14.38145
G1 X108.843 Y166.793 E14.40652
G1 X108.844 Y166.793 E14.40657
G1 X106.688 Y163.012 E14.62372
G1 X106.657 Y162.955 E14.62695
G1 X106.122 Y161.905 E14.68575
G1 X105.071 Y160.065 E14.79146
G1 X105.04 Y160.008 E14.7947
G1 X104.787 Y159.513 E14.82244
G1 X104.113 Y158.332 E14.89028
G1 X104.04 Y158.353 E14.89407
G1 X103.911 Y158.383 E14.90067
G1 X103.261 Y158.504 E14.93366
G1 X103.137 Y158.522 E14.93991
G1 X102.481 Y158.584 E14.97278
G1 X102.355 Y158.59 E14.97908
G1 X101.697 Y158.593 E15.01191
