;FLAVOR:Marlin
;TIME:3921
;Filament used: 1.66555m
;Layer height: 0.12
;MINX:81.152
;MINY:127.126
;MINZ:0.24
;MAXX:218.848
;MAXY:220.875
;MAXZ:1.46
;Generated with Cura_SteamEngine 4.4.1
M140 S80
M105
M190 S80
M104 S230
M105
M109 S230
M82 ;absolute extrusion mode
G28 ;Home
G1 Z15.0 F6000 ;Move the platform down 15mm
;Prime the extruder
G92 E0
G1 F200 E3
G92 E0
G92 E0
G92 E0
G1 F1500 E-6.5
;LAYER_COUNT:7
;LAYER:0
M107
G1 F600 Z0.74
G0 F3600 X190.892 Y129.514 Z0.74
;TYPE:SKIRT
G1 F600 Z0.24
G1 F1500 E0
G1 X191.306 Y128.926 E0.0287
G1 X191.387 Y128.82 E0.03403
G1 X191.589 Y128.574 E0.04673
G1 X191.895 Y128.28 E0.06367
G1 X192.358 Y127.93 E0.08683
G1 X192.604 Y127.773 E0.09848
G1 X193.054 Y127.536 E0.11878
G1 X193.43 Y127.39 E0.13488
G1 X194.057 Y127.223 E0.16078
G1 X194.297 Y127.176 E0.17054
G1 X194.657 Y127.131 E0.18502
G1 X195.057 Y127.126 E0.20098
G1 X195.573 Y127.177 E0.22168
G1 X195.787 Y127.211 E0.23033
G1 X196.326 Y127.331 E0.25237
G1 X196.695 Y127.456 E0.26791
G1 X197.323 Y127.749 E0.29557
G1 X197.574 Y127.858 E0.3065
G1 X197.897 Y128.04 E0.32129
G1 X198.372 Y128.377 E0.34454
G1 X198.979 Y128.787 E0.37377
G1 X199.074 Y128.856 E0.37846
G1 X199.543 Y129.219 E0.40213
G1 X199.579 Y129.248 E0.40397
G1 X200.01 Y129.6 E0.42619
G1 X200.418 Y129.852 E0.44532
G1 X200.496 Y129.903 E0.44904
G1 X200.963 Y130.226 E0.47171
G1 X201.227 Y130.449 E0.4855
G1 X201.625 Y130.857 E0.50825
G1 X201.842 Y131.126 E0.52204
G1 X202.081 Y131.49 E0.53942
G1 X202.201 Y131.704 E0.54922
G1 X202.405 Y132.133 E0.56818
G1 X202.63 Y132.537 E0.58663
G1 X202.753 Y132.809 E0.59855
G1 X203.009 Y133.529 E0.62905
G1 X203.015 Y133.545 E0.62973
G1 X203.195 Y134.066 E0.65173
G1 X203.347 Y134.453 E0.66832
G1 X203.415 Y134.577 E0.67397
G1 X203.673 Y134.924 E0.69122
G1 X203.809 Y135.138 E0.70134
G1 X204.174 Y135.809 E0.73183
G1 X204.271 Y136.018 E0.74103
G1 X204.485 Y136.57 E0.76466
G1 X204.559 Y136.807 E0.77457
G1 X204.651 Y137.196 E0.79052
G1 X204.814 Y137.637 E0.80929
G1 X204.822 Y137.659 E0.81022
G1 X204.988 Y138.127 E0.83004
G1 X205.216 Y138.576 E0.85014
G1 X205.433 Y138.942 E0.86712
G1 X205.641 Y139.224 E0.88111
G1 X205.915 Y139.538 E0.89774
G1 X206.192 Y139.814 E0.91335
G1 X206.52 Y140.066 E0.92985
G1 X206.548 Y140.088 E0.93128
G1 X207.093 Y140.524 E0.95913
G1 X207.165 Y140.584 E0.96287
G1 X207.64 Y141.006 E0.98823
G1 X207.722 Y141.084 E0.99275
G1 X208.213 Y141.579 E1.02058
G1 X208.241 Y141.609 E1.02221
G1 X208.587 Y141.974 E1.04229
G1 X208.702 Y142.107 E1.04931
G1 X209.069 Y142.579 E1.07317
G1 X209.129 Y142.661 E1.07722
G1 X209.439 Y143.11 E1.099
G1 X209.472 Y143.159 E1.10136
G1 X209.757 Y143.602 E1.12238
G1 X209.89 Y143.849 E1.13358
G1 X210.121 Y144.372 E1.1564
G1 X210.146 Y144.433 E1.15903
G1 X210.379 Y145.018 E1.18416
G1 X210.471 Y145.326 E1.19699
G1 X210.598 Y145.951 E1.22245
G1 X210.626 Y146.135 E1.22988
G1 X210.704 Y146.938 E1.26208
G1 X210.788 Y147.641 E1.29033
G1 X210.794 Y147.693 E1.29242
G1 X210.846 Y148.27 E1.31555
G1 X210.851 Y148.354 E1.3189
G1 X210.883 Y149.096 E1.34855
G1 X210.885 Y149.19 E1.3523
G1 X210.88 Y149.787 E1.37613
G1 X210.944 Y150.521 E1.40553
G1 X211.04 Y151.214 E1.43346
G1 X211.169 Y151.978 E1.46438
G1 X211.174 Y152.01 E1.46567
G1 X211.208 Y152.236 E1.4748
G1 X211.944 Y152.364 E1.50461
G1 X212.215 Y152.433 E1.51577
G1 X212.666 Y152.587 E1.53479
G1 X212.895 Y152.651 E1.54428
G1 X213.219 Y152.777 E1.55816
G1 X213.845 Y153.093 E1.58615
G1 X214.004 Y153.184 E1.59346
G1 X214.684 Y153.619 E1.62568
G1 X214.821 Y153.715 E1.63235
G1 X215.361 Y154.136 E1.65968
G1 X215.527 Y154.283 E1.66853
G1 X216.028 Y154.784 E1.69681
G1 X216.093 Y154.853 E1.70059
G1 X216.452 Y155.252 E1.72202
G1 X216.498 Y155.305 E1.72482
G1 X216.84 Y155.716 E1.74616
G1 X216.923 Y155.824 E1.75159
G1 X217.24 Y156.27 E1.77343
G1 X217.346 Y156.439 E1.7814
G1 X217.564 Y156.832 E1.79933
G1 X217.765 Y157.152 E1.81442
G1 X217.918 Y157.456 E1.828
G1 X218.148 Y158.048 E1.85335
G1 X218.197 Y158.192 E1.85942
G1 X218.433 Y158.995 E1.89282
G1 X218.444 Y159.036 E1.89452
G1 X218.599 Y159.613 E1.91836
G1 X218.64 Y159.805 E1.9262
G1 X218.746 Y160.49 E1.95386
G1 X218.76 Y160.611 E1.95873
G1 X218.805 Y161.134 E1.97968
G1 X218.809 Y161.19 E1.98192
G1 X218.846 Y161.867 E2.00898
G1 X218.848 Y162.021 E2.01513
G1 X218.828 Y162.66 E2.04064
G1 X218.812 Y162.853 E2.04837
G1 X218.725 Y163.477 E2.07352
G1 X218.694 Y163.641 E2.08018
G1 X218.543 Y164.281 E2.10642
G1 X218.466 Y164.527 E2.11671
G1 X218.32 Y164.898 E2.13263
G1 X218.215 Y165.328 E2.15029
G1 X218.148 Y165.754 E2.1675
G1 X218.069 Y166.072 E2.18058
G1 X217.859 Y166.671 E2.20592
G1 X217.825 Y166.758 E2.20964
G1 X217.613 Y167.275 E2.23195
G1 X217.523 Y167.464 E2.2403
G1 X217.197 Y168.053 E2.26717
G1 X217.089 Y168.224 E2.27524
G1 X216.653 Y168.837 E2.30526
G1 X216.567 Y168.948 E2.31087
G1 X216.216 Y169.368 E2.33272
G1 X216.152 Y169.441 E2.33659
G1 X215.796 Y169.823 E2.35743
G1 X215.713 Y169.907 E2.36214
G1 X215.288 Y170.307 E2.38544
G1 X215.133 Y170.437 E2.39351
G1 X214.731 Y170.738 E2.41356
G1 X214.643 Y170.799 E2.41783
G1 X214.152 Y171.123 E2.44131
G1 X214.055 Y171.183 E2.44586
G1 X213.536 Y171.48 E2.46973
G1 X213.469 Y171.517 E2.47278
G1 X212.808 Y171.859 E2.50249
G1 X212.672 Y171.922 E2.50847
G1 X212.116 Y172.153 E2.5325
G1 X211.922 Y172.221 E2.5407
G1 X211.341 Y172.388 E2.56483
G1 X211.245 Y172.413 E2.56879
G1 X210.668 Y172.545 E2.59242
G1 X210.247 Y172.59 E2.60931
G1 X209.735 Y172.584 E2.62975
G1 X209.479 Y172.593 E2.63997
G1 X209.075 Y172.684 E2.6565
G1 X209.033 Y172.693 E2.65822
G1 X208.436 Y172.812 E2.68251
G1 X208.164 Y172.845 E2.69345
G1 X207.49 Y172.875 E2.72038
G1 X207.316 Y172.875 E2.72732
G1 X206.554 Y172.835 E2.75778
G1 X206.32 Y172.807 E2.76718
G1 X205.646 Y172.682 E2.79454
G1 X205.516 Y172.653 E2.79986
G1 X204.953 Y172.505 E2.82309
G1 X204.76 Y172.442 E2.83119
G1 X204.201 Y172.225 E2.85513
G1 X204.137 Y172.199 E2.85788
G1 X203.703 Y172.011 E2.87676
G1 X203.488 Y171.9 E2.88642
G1 X203.047 Y171.634 E2.90697
G1 X202.884 Y171.524 E2.91482
G1 X201.847 Y170.732 E2.9669
G1 X201.481 Y170.482 E2.98459
G1 X201.446 Y170.458 E2.98629
G1 X201.051 Y170.174 E3.0057
G1 X200.431 Y169.756 E3.03555
G1 X200.322 Y169.792 E3.04013
G1 X199.807 Y169.891 E3.06106
G1 X199.749 Y169.901 E3.06341
G1 X199.409 Y169.955 E3.07715
G1 X199.132 Y169.977 E3.08824
G1 X198.458 Y169.979 E3.11514
G1 X198.42 Y169.979 E3.11666
G1 X197.712 Y169.966 E3.14492
G1 X197.63 Y169.962 E3.1482
G1 X196.754 Y169.906 E3.18323
G1 X196.65 Y169.897 E3.1874
G1 X195.948 Y169.811 E3.21563
G1 X195.895 Y169.803 E3.21777
G1 X195.124 Y169.685 E3.2489
G1 X195.038 Y169.67 E3.25238
G1 X194.225 Y169.505 E3.28549
G1 X194.207 Y169.501 E3.28623
G1 X193.622 Y169.376 E3.3101
G1 X193.598 Y169.371 E3.31108
G1 X193.028 Y169.241 E3.33441
G1 X192.959 Y169.224 E3.33725
G1 X192.634 Y169.136 E3.35069
G1 X192.493 Y169.126 E3.35633
G1 X192.308 Y169.154 E3.3638
G1 X192.066 Y169.225 E3.37386
G1 X191.89 Y169.379 E3.3832
G1 X191.454 Y169.767 E3.40649
G1 X191.396 Y169.817 E3.40955
G1 X190.893 Y170.228 E3.43547
G1 X190.795 Y170.302 E3.44038
G1 X190.269 Y170.675 E3.46611
G1 X190.17 Y170.741 E3.47086
G1 X189.507 Y171.148 E3.50191
G1 X189.396 Y171.211 E3.50701
G1 X188.698 Y171.574 E3.53841
G1 X188.577 Y171.631 E3.54374
G1 X187.911 Y171.917 E3.57267
G1 X187.8 Y171.96 E3.57742
G1 X187.154 Y172.188 E3.60477
G1 X187.015 Y172.231 E3.61057
G1 X186.481 Y172.372 E3.63262
G1 X186.322 Y172.407 E3.63912
G1 X185.703 Y172.512 E3.66417
G1 X185.495 Y172.535 E3.67253
G1 X184.855 Y172.568 E3.6981
G1 X184.762 Y172.57 E3.70182
G1 X184.029 Y172.57 E3.73107
G1 X183.877 Y172.564 E3.73714
G1 X183.336 Y172.518 E3.75881
G1 X183.279 Y172.512 E3.7611
G1 X182.749 Y172.45 E3.7824
G1 X182.598 Y172.426 E3.7885
G1 X181.897 Y172.283 E3.81706
G1 X181.72 Y172.237 E3.82436
G1 X180.987 Y172.008 E3.85501
G1 X180.832 Y171.952 E3.86158
G1 X180.328 Y171.742 E3.88338
G1 X180.061 Y171.603 E3.89539
G1 X179.613 Y171.321 E3.91652
G1 X179.431 Y171.19 E3.92547
G1 X179.029 Y170.86 E3.94623
G1 X178.703 Y170.655 E3.9616
G1 X178.13 Y170.418 E3.98634
G1 X177.989 Y170.352 E3.99256
G1 X177.296 Y169.992 E4.02373
G1 X177.161 Y169.915 E4.02993
G1 X176.72 Y169.635 E4.05078
G1 X176.504 Y169.474 E4.06153
G1 X175.854 Y168.909 E4.09591
G1 X175.726 Y168.786 E4.10299
G1 X175.336 Y168.373 E4.12566
G1 X175.245 Y168.268 E4.13121
G1 X174.9 Y167.841 E4.15312
G1 X174.768 Y167.655 E4.16222
G1 X174.501 Y167.222 E4.18252
G1 X174.418 Y167.072 E4.18937
G1 X174.078 Y166.381 E4.2201
G1 X173.991 Y166.173 E4.2291
G1 X173.809 Y165.645 E4.25139
G1 X173.798 Y165.611 E4.25282
G1 X173.643 Y165.131 E4.27295
G1 X173.615 Y165.034 E4.27698
G1 X173.424 Y164.305 E4.30706
G1 X173.389 Y164.14 E4.31379
G1 X173.216 Y163.084 E4.3565
G1 X173.198 Y162.937 E4.36241
G1 X173.157 Y162.425 E4.38291
G1 X173.152 Y162.213 E4.39137
G1 X173.18 Y161.475 E4.42085
G1 X173.258 Y161.017 E4.43939
G1 X173.403 Y160.541 E4.45925
G1 X173.494 Y160.204 E4.47319
G1 X173.562 Y159.601 E4.49741
G1 X173.585 Y159.456 E4.50327
G1 X173.689 Y158.925 E4.52486
G1 X173.718 Y158.797 E4.5301
G1 X173.873 Y158.229 E4.5536
G1 X173.935 Y158.045 E4.56135
G1 X174.148 Y157.503 E4.58459
G1 X174.219 Y157.345 E4.5915
G1 X174.396 Y156.997 E4.60709
G1 X174.512 Y156.799 E4.61625
G1 X174.805 Y156.369 E4.63701
G1 X174.841 Y156.319 E4.63947
G1 X175.143 Y155.907 E4.65986
G1 X175.208 Y155.824 E4.66407
G1 X175.532 Y155.432 E4.68437
G1 X175.572 Y155.385 E4.68683
G1 X175.941 Y154.969 E4.70902
G1 X176.053 Y154.854 E4.71543
G1 X176.565 Y154.371 E4.74352
G1 X176.796 Y154.186 E4.75534
G1 X177.254 Y153.878 E4.77737
G1 X177.283 Y153.859 E4.77875
G1 X177.801 Y153.525 E4.80335
G1 X177.96 Y153.433 E4.81068
G1 X178.493 Y153.162 E4.83455
G1 X178.641 Y153.096 E4.84101
G1 X179.134 Y152.899 E4.8622
G1 X179.154 Y152.522 E4.87727
G1 X179.206 Y152.178 E4.89116
G1 X179.273 Y151.911 E4.90214
G1 X179.391 Y151.582 E4.91609
G1 X179.498 Y151.355 E4.92611
G1 X179.695 Y151.031 E4.94124
G1 X179.96 Y150.751 E4.95663
G1 X180.229 Y150.523 E4.97071
G1 X180.227 Y150.496 E4.97179
G1 X180.224 Y150.428 E4.9745
G1 X180.209 Y149.899 E4.99562
G1 X180.208 Y149.825 E4.99858
G1 X180.215 Y149.266 E5.02089
G1 X180.224 Y149.111 E5.02709
G1 X180.295 Y148.398 E5.05569
G1 X180.303 Y148.329 E5.05846
G1 X180.409 Y147.564 E5.08928
G1 X180.444 Y147.381 E5.09672
G1 X180.66 Y146.504 E5.13277
G1 X180.724 Y146.297 E5.14142
G1 X180.907 Y145.813 E5.16207
G1 X180.935 Y145.744 E5.16504
G1 X181.246 Y145.015 E5.19667
G1 X181.274 Y144.954 E5.19935
G1 X181.607 Y144.247 E5.23054
G1 X181.715 Y144.049 E5.23954
G1 X182.103 Y143.438 E5.26843
G1 X182.281 Y143.203 E5.2802
G1 X182.687 Y142.749 E5.30451
G1 X182.829 Y142.607 E5.31252
G1 X183.237 Y142.242 E5.33437
G1 X183.309 Y142.182 E5.33811
G1 X184.348 Y141.346 E5.39134
G1 X184.541 Y141.21 E5.40076
G1 X185.043 Y140.905 E5.42421
G1 X185.326 Y140.765 E5.43681
G1 X185.514 Y140.692 E5.44486
G1 X185.759 Y140.626 E5.45498
G1 X185.872 Y140.411 E5.46468
G1 X185.928 Y140.332 E5.46854
G1 X185.938 Y140.283 E5.47054
G1 X185.949 Y139.754 E5.49166
G1 X185.95 Y139.726 E5.49278
G1 X185.976 Y138.996 E5.52193
G1 X185.991 Y138.819 E5.52902
G1 X186.063 Y138.287 E5.55045
G1 X186.087 Y138.152 E5.55592
G1 X186.204 Y137.605 E5.57825
G1 X186.278 Y137.35 E5.58884
G1 X186.402 Y137.019 E5.60295
G1 X186.514 Y136.776 E5.61363
G1 X186.76 Y136.333 E5.63385
G1 X186.854 Y136.183 E5.64092
G1 X187.119 Y135.8 E5.65951
G1 X187.51 Y135.391 E5.68209
G1 X187.943 Y135.062 E5.7038
G1 X187.999 Y135.009 E5.70687
G1 X188.027 Y134.886 E5.71191
G1 X188.071 Y134.728 E5.71845
G1 X188.243 Y134.208 E5.74031
G1 X188.267 Y134.14 E5.74319
G1 X188.527 Y133.448 E5.7727
G1 X188.547 Y133.397 E5.77488
G1 X188.866 Y132.62 E5.80841
G1 X189.015 Y132.333 E5.82131
G1 X189.334 Y131.835 E5.84492
G1 X189.546 Y131.565 E5.85862
G1 X189.901 Y131.192 E5.87917
G1 X190.007 Y131.09 E5.88504
G1 X190.056 Y130.974 E5.89007
G1 X190.134 Y130.813 E5.89721
G1 X190.428 Y130.277 E5.92161
G1 X190.465 Y130.213 E5.92456
G1 X190.823 Y129.62 E5.95221
G1 X190.892 Y129.514 E5.95725
G0 F3600 X191.219 Y129.744
G1 F1500 X191.633 Y129.156 E5.98595
G1 X191.696 Y129.074 E5.99008
G1 X191.898 Y128.828 E6.00279
G1 X192.136 Y128.599 E6.01597
G1 X192.599 Y128.249 E6.03913
G1 X192.791 Y128.127 E6.04821
G1 X193.241 Y127.89 E6.06851
G1 X193.533 Y127.776 E6.08102
G1 X194.16 Y127.609 E6.10692
G1 X194.346 Y127.573 E6.11448
G1 X194.706 Y127.528 E6.12896
G1 X195.018 Y127.524 E6.14142
G1 X195.534 Y127.575 E6.16211
G1 X195.7 Y127.601 E6.16882
G1 X196.239 Y127.721 E6.19086
G1 X196.526 Y127.819 E6.20296
G1 X197.127 Y128.099 E6.22942
G1 X197.414 Y128.224 E6.24192
G1 X197.665 Y128.366 E6.25343
G1 X198.151 Y128.711 E6.27722
G1 X198.755 Y129.119 E6.30631
G1 X198.829 Y129.172 E6.30994
G1 X199.298 Y129.535 E6.33361
G1 X199.326 Y129.558 E6.33506
G1 X199.774 Y129.924 E6.35815
G1 X200.208 Y130.192 E6.3785
G1 X200.268 Y130.232 E6.38138
G1 X200.735 Y130.555 E6.40405
G1 X200.941 Y130.728 E6.41478
G1 X201.339 Y131.136 E6.43753
G1 X201.507 Y131.346 E6.44826
G1 X201.746 Y131.71 E6.46564
G1 X201.84 Y131.876 E6.47326
G1 X202.052 Y132.32 E6.4929
G1 X202.28 Y132.731 E6.51165
G1 X202.376 Y132.943 E6.52094
G1 X202.632 Y133.663 E6.55144
G1 X202.637 Y133.676 E6.552
G1 X202.819 Y134.203 E6.57425
G1 X202.985 Y134.624 E6.59231
G1 X203.078 Y134.794 E6.60005
G1 X203.352 Y135.163 E6.61839
G1 X203.458 Y135.329 E6.62625
G1 X203.823 Y136 E6.65674
G1 X203.898 Y136.163 E6.6639
G1 X204.112 Y136.715 E6.68753
G1 X204.169 Y136.899 E6.69522
G1 X204.264 Y137.303 E6.71178
G1 X204.439 Y137.775 E6.73187
G1 X204.445 Y137.792 E6.73259
G1 X204.621 Y138.288 E6.7536
G1 X204.863 Y138.765 E6.77495
G1 X205.102 Y139.167 E6.79361
G1 X205.329 Y139.475 E6.80888
G1 X205.62 Y139.809 E6.82656
G1 X205.927 Y140.115 E6.84386
G1 X206.276 Y140.383 E6.86143
G1 X206.299 Y140.401 E6.86259
G1 X206.844 Y140.837 E6.89045
G1 X206.899 Y140.883 E6.89331
G1 X207.374 Y141.305 E6.91867
G1 X207.438 Y141.366 E6.9222
G1 X207.929 Y141.861 E6.95003
G1 X207.951 Y141.884 E6.9513
G1 X208.297 Y142.249 E6.97137
G1 X208.386 Y142.353 E6.97683
G1 X208.753 Y142.825 E7.0007
G1 X208.8 Y142.889 E7.00386
G1 X209.11 Y143.338 E7.02564
G1 X209.135 Y143.376 E7.02746
G1 X209.42 Y143.819 E7.04848
G1 X209.524 Y144.01 E7.05716
G1 X209.755 Y144.533 E7.07998
G1 X209.775 Y144.581 E7.08206
G1 X210.008 Y145.166 E7.10719
G1 X210.079 Y145.405 E7.11714
G1 X210.206 Y146.03 E7.14259
G1 X210.227 Y146.174 E7.1484
G1 X210.302 Y146.945 E7.17932
G1 X210.391 Y147.688 E7.20919
G1 X210.395 Y147.729 E7.21083
G1 X210.447 Y148.306 E7.23395
G1 X210.452 Y148.372 E7.2366
G1 X210.484 Y149.114 E7.26624
G1 X210.485 Y149.186 E7.26911
G1 X210.48 Y149.798 E7.29354
G1 X210.547 Y150.568 E7.32439
G1 X210.649 Y151.304 E7.35404
G1 X210.774 Y152.045 E7.38404
G1 X210.778 Y152.069 E7.38501
G1 X210.858 Y152.601 E7.40648
G1 X210.927 Y152.604 E7.40924
G1 X211.105 Y152.624 E7.41638
G1 X211.875 Y152.758 E7.44758
G1 X212.086 Y152.812 E7.45627
G1 X212.539 Y152.966 E7.47537
G1 X212.787 Y153.036 E7.48565
G1 X213.039 Y153.134 E7.49645
G1 X213.665 Y153.45 E7.52443
G1 X213.788 Y153.521 E7.5301
G1 X214.468 Y153.956 E7.56232
G1 X214.575 Y154.031 E7.56753
G1 X215.115 Y154.452 E7.59486
G1 X215.244 Y154.566 E7.60173
G1 X215.745 Y155.067 E7.63001
G1 X215.796 Y155.121 E7.63298
G1 X216.155 Y155.52 E7.6544
G1 X216.19 Y155.561 E7.65655
G1 X216.532 Y155.972 E7.67789
G1 X216.597 Y156.056 E7.68213
G1 X216.914 Y156.502 E7.70397
G1 X216.997 Y156.633 E7.71016
G1 X217.225 Y157.044 E7.72892
G1 X217.426 Y157.364 E7.744
G1 X217.545 Y157.601 E7.75459
G1 X217.775 Y158.193 E7.77993
G1 X217.813 Y158.305 E7.78465
G1 X218.049 Y159.108 E7.81806
G1 X218.058 Y159.14 E7.81939
G1 X218.213 Y159.717 E7.84323
