;FLAVOR:Marlin
;TIME:3010
;Filament used: 1.09843m
;Layer height: 0.16
;MINX:113.903
;MINY:113.9
;MINZ:0.2
;MAXX:186.102
;MAXY:186.1
;MAXZ:13.48
;Generated with Cura_SteamEngine 4.4.1
M104 S230
M105
M109 S230
M82 ;absolute extrusion mode
G28 ;Home
G1 Z15.0 F6000 ;Move the platform down 15mm
;Prime the extruder
G92 E0
G1 F200 E3
G92 E0
G92 E0
G92 E0
;LAYER_COUNT:84
;LAYER:0
M107
M204 S3000
M205 X15 Y15
G0 F3600 X124.149 Y124.802 Z0.2
M204 S2000
M205 X7 Y7
;TYPE:SKIRT
G1 F2400 X124.646 Y124.309 E0.03919
G1 X124.749 Y124.209 E0.04722
G1 X125.122 Y123.855 E0.07601
G1 X125.221 Y123.764 E0.08353
G1 X125.59 Y123.428 E0.11147
G1 X125.709 Y123.322 E0.12039
G1 X127.083 Y122.131 E0.22218
G1 X127.261 Y121.982 E0.23517
G1 X128.044 Y121.351 E0.29146
G1 X128.188 Y121.239 E0.30167
G1 X128.564 Y120.953 E0.32812
G1 X128.665 Y120.877 E0.33519
G1 X129.077 Y120.576 E0.36375
G1 X129.197 Y120.491 E0.37199
G1 X129.635 Y120.186 E0.40186
G1 X129.772 Y120.093 E0.41113
G1 X130.511 Y119.606 E0.46067
G1 X130.656 Y119.513 E0.47031
G1 X130.923 Y119.347 E0.48791
G1 X131.022 Y119.286 E0.49442
G1 X131.516 Y118.991 E0.52663
G1 X131.62 Y118.93 E0.53338
G1 X132.125 Y118.641 E0.56595
G1 X132.235 Y118.58 E0.57299
G1 X132.683 Y118.335 E0.60157
G1 X132.824 Y118.26 E0.61051
G1 X133.346 Y117.991 E0.64338
G1 X133.459 Y117.934 E0.65047
G1 X134.459 Y117.443 E0.71283
G1 X134.544 Y117.402 E0.71811
G1 X135.214 Y117.085 E0.7596
G1 X135.425 Y116.99 E0.77256
G1 X136.678 Y116.451 E0.84891
G1 X136.917 Y116.354 E0.86335
G1 X137.469 Y116.142 E0.89645
G1 X137.595 Y116.095 E0.90397
G1 X138.125 Y115.904 E0.93551
G1 X138.285 Y115.849 E0.94498
G1 X139.124 Y115.571 E0.99446
G1 X139.292 Y115.518 E1.00432
G1 X139.564 Y115.436 E1.02022
G1 X139.682 Y115.401 E1.02711
G1 X140.351 Y115.213 E1.06601
G1 X140.479 Y115.179 E1.07342
G1 X140.95 Y115.057 E1.10066
G1 X141.067 Y115.028 E1.1074
G1 X141.539 Y114.915 E1.13457
G1 X141.701 Y114.878 E1.14387
G1 X142.435 Y114.722 E1.18588
G1 X142.562 Y114.696 E1.19314
G1 X144.017 Y114.417 E1.27607
G1 X144.269 Y114.374 E1.29038
G1 X145.525 Y114.184 E1.36148
G1 X145.697 Y114.16 E1.3712
G1 X146.06 Y114.115 E1.39168
G1 X146.183 Y114.101 E1.39861
G1 X146.613 Y114.056 E1.42281
G1 X146.728 Y114.045 E1.42928
G1 X147.293 Y113.996 E1.46102
G1 X147.481 Y113.983 E1.47157
G1 X148.384 Y113.931 E1.5222
G1 X148.541 Y113.924 E1.531
G1 X148.9 Y113.912 E1.55111
G1 X149.039 Y113.908 E1.55889
G1 X149.705 Y113.9 E1.59617
G1 X149.826 Y113.9 E1.60295
G1 X150.129 Y113.902 E1.61991
G1 X150.273 Y113.905 E1.62797
G1 X151.14 Y113.93 E1.67652
G1 X151.303 Y113.936 E1.68565
G1 X151.729 Y113.959 E1.70953
G1 X151.845 Y113.967 E1.71604
G1 X153.444 Y114.082 E1.80578
G1 X153.689 Y114.104 E1.81955
G1 X154.78 Y114.224 E1.88099
G1 X154.971 Y114.248 E1.89176
G1 X155.535 Y114.327 E1.92364
G1 X155.632 Y114.341 E1.92913
G1 X155.96 Y114.392 E1.94771
G1 X156.1 Y114.416 E1.95566
G1 X156.78 Y114.537 E1.99432
G1 X156.958 Y114.571 E2.00447
G1 X157.789 Y114.743 E2.05197
G1 X157.958 Y114.78 E2.06165
G1 X158.222 Y114.842 E2.07683
G1 X158.374 Y114.88 E2.0856
G1 X159.384 Y115.143 E2.14403
G1 X159.608 Y115.205 E2.15704
G1 X160.364 Y115.431 E2.20121
G1 X160.514 Y115.478 E2.21
G1 X161.113 Y115.673 E2.24527
G1 X161.232 Y115.713 E2.25229
G1 X162.621 Y116.195 E2.33459
G1 X162.857 Y116.282 E2.34867
G1 X163.949 Y116.709 E2.41431
G1 X164.117 Y116.778 E2.42447
G1 X164.509 Y116.944 E2.4483
G1 X164.613 Y116.989 E2.45465
G1 X165.151 Y117.228 E2.4876
G1 X165.281 Y117.287 E2.49559
G1 X165.608 Y117.441 E2.51582
G1 X165.748 Y117.509 E2.52454
G1 X166.673 Y117.972 E2.58244
G1 X166.841 Y118.059 E2.59303
G1 X167.055 Y118.174 E2.60663
G1 X167.156 Y118.23 E2.61309
G1 X167.8 Y118.591 E2.65442
G1 X167.929 Y118.665 E2.66274
G1 X168.193 Y118.821 E2.67991
G1 X168.303 Y118.888 E2.68712
G1 X169.07 Y119.362 E2.73759
G1 X169.18 Y119.431 E2.74486
G1 X169.423 Y119.588 E2.76105
G1 X169.559 Y119.679 E2.77021
G1 X170.604 Y120.392 E2.84103
G1 X170.646 Y120.42 E2.84385
G1 X171.374 Y120.925 E2.89345
G1 X171.531 Y121.038 E2.90428
G1 X172.013 Y121.394 E2.93782
G1 X172.142 Y121.491 E2.94685
G1 X172.547 Y121.806 E2.97557
G1 X172.655 Y121.893 E2.98334
G1 X173.178 Y122.318 E3.02106
G1 X173.268 Y122.392 E3.02758
G1 X173.497 Y122.585 E3.04435
G1 X173.619 Y122.69 E3.05336
G1 X174.295 Y123.289 E3.10392
G1 X174.421 Y123.404 E3.11346
G1 X174.755 Y123.716 E3.13905
G1 X174.857 Y123.814 E3.14697
G1 X175.309 Y124.255 E3.18232
G1 X175.405 Y124.35 E3.18988
G1 X175.697 Y124.647 E3.21319
G1 X175.791 Y124.745 E3.22079
G1 X176.269 Y125.252 E3.2598
G1 X176.357 Y125.347 E3.26705
G1 X176.665 Y125.687 E3.29273
G1 X176.797 Y125.837 E3.30391
G1 X177.116 Y126.212 E3.33147
G1 X177.907 Y127.125 E3.39909
G1 X178.072 Y127.324 E3.41356
G1 X178.716 Y128.13 E3.47131
G1 X178.836 Y128.285 E3.48228
G1 X179.092 Y128.626 E3.50615
G1 X179.147 Y128.7 E3.51131
G1 X179.488 Y129.168 E3.54373
G1 X179.578 Y129.295 E3.55244
G1 X179.898 Y129.757 E3.5839
G1 X179.981 Y129.88 E3.5922
G1 X180.345 Y130.432 E3.62922
G1 X180.432 Y130.566 E3.63816
G1 X180.705 Y131.003 E3.667
G1 X180.789 Y131.142 E3.67609
G1 X181.112 Y131.689 E3.71165
G1 X181.166 Y131.782 E3.71767
G1 X181.407 Y132.206 E3.74497
G1 X181.475 Y132.328 E3.75279
G1 X181.723 Y132.787 E3.78199
G1 X181.794 Y132.923 E3.79058
G1 X182.094 Y133.511 E3.82753
G1 X182.175 Y133.675 E3.83777
G1 X182.265 Y133.865 E3.84954
G1 X182.858 Y135.085 E3.92547
G1 X182.973 Y135.335 E3.94088
G1 X183.417 Y136.356 E4.0032
G1 X183.471 Y136.484 E4.01098
G1 X183.607 Y136.816 E4.03106
G1 X183.66 Y136.951 E4.03918
G1 X183.883 Y137.532 E4.07401
G1 X183.932 Y137.662 E4.08179
G1 X184.088 Y138.096 E4.10761
G1 X184.138 Y138.242 E4.11624
G1 X184.412 Y139.065 E4.1648
G1 X184.466 Y139.234 E4.17473
G1 X184.575 Y139.594 E4.19578
G1 X184.611 Y139.716 E4.20291
G1 X184.776 Y140.302 E4.23698
G1 X184.814 Y140.443 E4.24516
G1 X184.959 Y141.006 E4.2777
G1 X184.989 Y141.127 E4.28468
G1 X185.086 Y141.536 E4.30821
G1 X185.116 Y141.672 E4.316
G1 X185.28 Y142.436 E4.35975
G1 X185.308 Y142.575 E4.36768
G1 X185.594 Y144.065 E4.45261
G1 X185.64 Y144.333 E4.46783
G1 X185.819 Y145.535 E4.53586
G1 X185.842 Y145.703 E4.54535
G1 X185.876 Y145.981 E4.56103
G1 X185.887 Y146.079 E4.56655
G1 X185.957 Y146.734 E4.60342
G1 X185.971 Y146.879 E4.61157
G1 X186.007 Y147.306 E4.63556
G1 X186.019 Y147.469 E4.64471
G1 X186.069 Y148.315 E4.69215
G1 X186.077 Y148.485 E4.70168
G1 X186.09 Y148.882 E4.72391
G1 X186.093 Y149.018 E4.73153
G1 X186.102 Y149.782 E4.7743
G1 X186.1 Y150.012 E4.78717
G1 X186.076 Y151.029 E4.84411
G1 X186.068 Y151.233 E4.85554
G1 X186.038 Y151.779 E4.88615
G1 X186.032 Y151.885 E4.89209
G1 X185.918 Y153.482 E4.98172
G1 X185.894 Y153.74 E4.99622
G1 X185.777 Y154.788 E5.05525
G1 X185.755 Y154.962 E5.06507
G1 X185.682 Y155.487 E5.09474
G1 X185.664 Y155.61 E5.1017
G1 X185.596 Y156.039 E5.12601
G1 X185.575 Y156.165 E5.13316
G1 X185.469 Y156.758 E5.16688
G1 X185.437 Y156.924 E5.17634
G1 X185.278 Y157.697 E5.22052
G1 X185.241 Y157.864 E5.2301
G1 X185.143 Y158.284 E5.25424
G1 X185.11 Y158.419 E5.26202
G1 X184.952 Y159.036 E5.29767
G1 X184.926 Y159.136 E5.30345
G1 X184.819 Y159.528 E5.3262
G1 X184.778 Y159.67 E5.33447
G1 X184.603 Y160.258 E5.36881
G1 X184.555 Y160.412 E5.37784
G1 X184.247 Y161.36 E5.43364
G1 X184.187 Y161.537 E5.4441
G1 X183.714 Y162.862 E5.52285
G1 X183.641 Y163.056 E5.53446
G1 X183.239 Y164.078 E5.59593
G1 X183.142 Y164.312 E5.61011
G1 X182.782 Y165.132 E5.66024
G1 X182.709 Y165.291 E5.67003
G1 X182.544 Y165.641 E5.69169
G1 X182.476 Y165.781 E5.70041
G1 X182.052 Y166.627 E5.75338
G1 X181.975 Y166.777 E5.76282
G1 X181.818 Y167.071 E5.78147
G1 X181.751 Y167.193 E5.78926
G1 X181.442 Y167.743 E5.82458
G1 X181.376 Y167.857 E5.83195
G1 X181.154 Y168.234 E5.85644
G1 X181.085 Y168.349 E5.86395
G1 X180.666 Y169.028 E5.90861
G1 X180.586 Y169.154 E5.91696
G1 X180.39 Y169.456 E5.93712
G1 X180.301 Y169.589 E5.94608
G1 X179.934 Y170.125 E5.98244
G1 X179.349 Y170.992 E6.04099
G1 X179.205 Y171.197 E6.05501
G1 X178.665 Y171.934 E6.10615
G1 X178.555 Y172.08 E6.11638
G1 X178.172 Y172.573 E6.15133
G1 X178.084 Y172.683 E6.15922
G1 X177.66 Y173.205 E6.19686
G1 X177.498 Y173.397 E6.21092
G1 X176.68 Y174.328 E6.28029
G1 X176.536 Y174.487 E6.2923
G1 X176.291 Y174.748 E6.31234
G1 X176.208 Y174.834 E6.31903
G1 X175.759 Y175.295 E6.35505
G1 X175.658 Y175.397 E6.36309
G1 X175.376 Y175.674 E6.38522
G1 X175.278 Y175.768 E6.39282
G1 X174.709 Y176.304 E6.43657
G1 X174.612 Y176.394 E6.44398
G1 X174.319 Y176.659 E6.4661
G1 X174.184 Y176.777 E6.47613
G1 X173.724 Y177.171 E6.51004
G1 X172.893 Y177.893 E6.57166
G1 X172.684 Y178.067 E6.58688
G1 X171.917 Y178.679 E6.64181
G1 X171.787 Y178.78 E6.65102
G1 X171.375 Y179.092 E6.67995
G1 X171.271 Y179.169 E6.68719
G1 X170.818 Y179.498 E6.71853
G1 X170.71 Y179.575 E6.72596
G1 X170.332 Y179.838 E6.75174
G1 X170.192 Y179.933 E6.76121
G1 X169.491 Y180.394 E6.80817
G1 X169.363 Y180.476 E6.81668
G1 X168.966 Y180.724 E6.84288
G1 X168.836 Y180.803 E6.8514
G1 X168.367 Y181.081 E6.88192
G1 X168.256 Y181.145 E6.88909
G1 X167.788 Y181.41 E6.91919
G1 X167.676 Y181.472 E6.92636
G1 X167.147 Y181.758 E6.96002
G1 X166.998 Y181.836 E6.96944
G1 X166.539 Y182.069 E6.99825
G1 X166.404 Y182.136 E7.00669
G1 X166.074 Y182.294 E7.02717
G1 X165.014 Y182.81 E7.09316
G1 X164.768 Y182.924 E7.10834
G1 X163.607 Y183.431 E7.17925
G1 X163.472 Y183.488 E7.18746
G1 X163.233 Y183.586 E7.20192
G1 X163.099 Y183.639 E7.20998
G1 X162.472 Y183.88 E7.24758
G1 X162.342 Y183.929 E7.25536
G1 X161.956 Y184.068 E7.27832
G1 X161.808 Y184.119 E7.28709
G1 X160.856 Y184.436 E7.34325
G1 X160.677 Y184.493 E7.35377
G1 X160.438 Y184.565 E7.36774
G1 X160.321 Y184.599 E7.37456
G1 X159.652 Y184.787 E7.41346
G1 X159.521 Y184.822 E7.42105
G1 X159.057 Y184.942 E7.44788
G1 X158.947 Y184.969 E7.45422
G1 X158.468 Y185.084 E7.48179
G1 X158.302 Y185.122 E7.49133
G1 X157.568 Y185.278 E7.53333
G1 X157.445 Y185.303 E7.54036
G1 X155.974 Y185.586 E7.62421
G1 X155.709 Y185.631 E7.63925
G1 X154.468 Y185.817 E7.7095
G1 X154.307 Y185.839 E7.71859
G1 X153.945 Y185.884 E7.73901
G1 X153.821 Y185.899 E7.74601
G1 X153.392 Y185.944 E7.77015
G1 X153.275 Y185.955 E7.77673
G1 X152.709 Y186.004 E7.80853
G1 X152.522 Y186.017 E7.81902
G1 X151.62 Y186.069 E7.8696
G1 X151.463 Y186.076 E7.8784
G1 X151.103 Y186.088 E7.89856
G1 X150.964 Y186.092 E7.90634
G1 X150.299 Y186.1 E7.94357
G1 X150.178 Y186.1 E7.95034
G1 X149.875 Y186.098 E7.9673
G1 X149.733 Y186.095 E7.97525
G1 X148.855 Y186.07 E8.02442
G1 X148.688 Y186.063 E8.03378
G1 X148.282 Y186.041 E8.05654
G1 X148.116 Y186.03 E8.06585
G1 X147.976 Y186.019 E8.07371
G1 X146.604 Y185.922 E8.1507
G1 X146.36 Y185.9 E8.16442
G1 X145.246 Y185.779 E8.22714
G1 X145.021 Y185.751 E8.23983
G1 X144.153 Y185.626 E8.28892
G1 X143.939 Y185.591 E8.30106
G1 X143.221 Y185.463 E8.34189
G1 X143.045 Y185.429 E8.35192
G1 X142.214 Y185.257 E8.39942
G1 X142.045 Y185.22 E8.40911
G1 X141.781 Y185.158 E8.42429
G1 X141.629 Y185.12 E8.43306
G1 X140.619 Y184.857 E8.49148
G1 X140.395 Y184.795 E8.50449
G1 X139.639 Y184.569 E8.54866
G1 X139.495 Y184.524 E8.5571
G1 X138.894 Y184.329 E8.59247
G1 X138.77 Y184.287 E8.5998
G1 X137.392 Y183.809 E8.68145
G1 X137.175 Y183.73 E8.69437
G1 X136.129 Y183.325 E8.75716
G1 X135.959 Y183.256 E8.76743
G1 X135.54 Y183.08 E8.79287
G1 X135.424 Y183.03 E8.79994
G1 X134.968 Y182.828 E8.82786
G1 X134.852 Y182.775 E8.835
G1 X134.492 Y182.607 E8.85724
G1 X134.32 Y182.524 E8.86793
G1 X133.304 Y182.013 E8.93159
G1 X133.089 Y181.899 E8.94521
G1 X132.47 Y181.558 E8.98477
G1 X132.33 Y181.479 E8.99377
G1 X131.792 Y181.165 E9.02864
G1 X131.68 Y181.098 E9.03594
G1 X131.12 Y180.756 E9.07267
G1 X130.998 Y180.68 E9.08072
G1 X130.691 Y180.483 E9.10114
G1 X130.548 Y180.388 E9.11075
G1 X129.765 Y179.856 E9.16374
G1 X129.097 Y179.409 E9.20873
G1 X128.97 Y179.322 E9.21735
G1 X128.791 Y179.196 E9.2296
G1 X128.674 Y179.112 E9.23766
G1 X128.015 Y178.626 E9.2835
G1 X127.903 Y178.541 E9.29137
G1 X127.531 Y178.254 E9.31767
G1 X127.415 Y178.164 E9.32589
G1 X126.899 Y177.747 E9.36302
G1 X126.792 Y177.658 E9.37081
G1 X126.516 Y177.425 E9.39103
G1 X126.396 Y177.321 E9.39992
G1 X125.723 Y176.724 E9.45028
G1 X125.602 Y176.614 E9.45943
G1 X125.289 Y176.322 E9.48339
G1 X125.199 Y176.237 E9.49032
G1 X124.843 Y175.892 E9.51807
G1 X124.749 Y175.798 E9.52552
G1 X124.333 Y175.378 E9.55861
G1 X124.242 Y175.285 E9.56589
G1 X123.888 Y174.913 E9.59463
G1 X123.797 Y174.815 E9.60212
G1 X123.429 Y174.412 E9.63267
G1 X123.314 Y174.283 E9.64234
G1 X122.098 Y172.878 E9.74636
G1 X121.941 Y172.69 E9.76007
G1 X121.266 Y171.848 E9.82047
G1 X121.145 Y171.691 E9.83157
G1 X121.011 Y171.513 E9.84404
G1 X120.955 Y171.438 E9.84928
G1 X120.505 Y170.822 E9.89198
G1 X120.413 Y170.692 E9.9009
G1 X120.189 Y170.369 E9.9229
G1 X120.103 Y170.243 E9.93144
G1 X119.652 Y169.559 E9.9773
G1 X119.568 Y169.428 E9.98601
G1 X119.289 Y168.982 E10.01546
G1 X119.208 Y168.848 E10.02423
G1 X119.083 Y168.637 E10.03795
G1 X119.037 Y168.559 E10.04302
G1 X118.59 Y167.78 E10.0933
G1 X118.522 Y167.659 E10.10107
G1 X118.325 Y167.298 E10.12409
G1 X118.255 Y167.166 E10.13245
G1 X118.017 Y166.705 E10.16149
G1 X117.937 Y166.545 E10.17151
G1 X117.512 Y165.663 E10.22631
G1 X117.513 Y165.663 E10.22637
G1 X117.145 Y164.912 E10.27318
G1 X117.027 Y164.658 E10.28886
G1 X116.573 Y163.62 E10.35228
G1 X116.48 Y163.397 E10.3658
G1 X116.161 Y162.587 E10.41453
G1 X116.094 Y162.41 E10.42513
G1 X115.931 Y161.958 E10.45202
G1 X115.876 Y161.797 E10.46155
G1 X115.616 Y161.012 E10.50784
G1 X115.568 Y160.863 E10.5166
G1 X115.426 Y160.397 E10.54387
G1 X115.393 Y160.285 E10.5504
G1 X115.306 Y159.98 E10.56816
G1 X115.27 Y159.846 E10.57593
G1 X115.047 Y158.996 E10.62512
G1 X115.017 Y158.878 E10.63193
G1 X114.937 Y158.548 E10.65094
G1 X114.908 Y158.422 E10.65818
G1 X114.79 Y157.889 E10.68873
G1 X114.754 Y157.715 E10.69868
G1 X114.411 Y155.936 E10.8001
G1 X114.366 Y155.678 E10.81476
G1 X114.175 Y154.417 E10.88615
G1 X114.142 Y154.16 E10.90065
G1 X114.051 Y153.339 E10.94689
G1 X114.035 Y153.178 E10.95595
G1 X114.004 Y152.816 E10.97629
G1 X113.991 Y152.644 E10.98594
G1 X113.935 Y151.696 E11.0391
G1 X113.928 Y151.538 E11.04795
G1 X113.912 Y151.077 E11.07377
G1 X113.909 Y150.945 E11.08117
G1 X113.904 Y150.594 E11.10081
G1 X113.903 Y150.481 E11.10714
G1 X113.905 Y149.838 E11.14313
G1 X113.908 Y149.65 E11.15366
G1 X113.939 Y148.684 E11.20776
G1 X113.952 Y148.436 E11.22166
G1 X114.091 Y146.46 E11.33254
G1 X114.115 Y146.2 E11.34716
G1 X114.221 Y145.243 E11.40106
G1 X114.241 Y145.081 E11.4102
G1 X114.315 Y144.538 E11.44087
G1 X114.332 Y144.416 E11.44777
G1 X114.384 Y144.082 E11.46669
G1 X114.406 Y143.953 E11.47401
G1 X114.509 Y143.369 E11.50721
G1 X114.545 Y143.18 E11.51798
G1 X114.749 Y142.195 E11.57429
G1 X114.787 Y142.022 E11.5842
G1 X114.853 Y141.742 E11.6003
G1 X114.879 Y141.636 E11.60641
G1 X114.989 Y141.202 E11.63148
G1 X115.015 Y141.103 E11.6372
G1 X115.188 Y140.463 E11.67432
G1 X115.231 Y140.313 E11.68305
G1 X115.438 Y139.614 E11.72386
G1 X115.521 Y139.354 E11.73914
G1 X116.183 Y137.421 E11.85351
G1 X116.269 Y137.184 E11.86762
G1 X116.676 Y136.131 E11.93081
G1 X116.746 Y135.957 E11.94131
G1 X116.922 Y135.538 E11.96675
G1 X116.97 Y135.427 E11.97352
G1 X117.161 Y134.995 E11.99996
G1 X117.223 Y134.859 E12.00833
G1 X117.433 Y134.412 E12.03597
G1 X117.502 Y134.269 E12.04486
G1 X117.93 Y133.413 E12.09843
G1 X118.01 Y133.258 E12.1082
G1 X118.183 Y132.934 E12.12876
G1 X118.235 Y132.839 E12.13482
G1 X118.43 Y132.488 E12.1573
G1 X118.501 Y132.364 E12.16529
G1 X118.805 Y131.844 E12.19901
G1 X118.877 Y131.723 E12.20689
G1 X119.342 Y130.966 E12.25662
G1 X119.427 Y130.831 E12.26555
