;FLAVOR:Marlin
;TIME:4242
;Filament used: 6.69663m
;Layer height: 0.2
;MINX:51.487
;MINY:128.66
;MINZ:0.3
;MAXX:248.524
;MAXY:171.307
;MAXZ:15.4
;Generated with Cura_SteamEngine 4.4.1
M140 S80
M105
M190 S80
M104 S230
M105
M109 S230
M82 ;absolute extrusion mode
G28 ;Home
G1 Z15.0 F6000 ;Move the platform down 15mm
;Prime the extruder
G92 E0
G1 F200 E3
G92 E0
G92 E0
G92 E0
G1 F1500 E-2
;LAYER_COUNT:74
;LAYER:0
M107
G1 F600 Z0.8
G0 F12000 X57.423 Y129.566 Z0.8
;TYPE:SKIRT
G1 F600 Z0.3
G1 F1500 E0
G1 F2700 X57.545 Y129.513 E0.00664
G1 X57.999 Y129.327 E0.03111
G1 X58.173 Y129.261 E0.0404
G1 X58.374 Y129.192 E0.051
G1 X58.526 Y129.144 E0.05895
G1 X59.018 Y129.002 E0.0845
G1 X59.18 Y128.96 E0.09285
G1 X59.395 Y128.91 E0.10386
G1 X59.548 Y128.879 E0.11165
G1 X60.032 Y128.791 E0.13619
G1 X60.226 Y128.761 E0.14599
G1 X60.453 Y128.734 E0.15739
G1 X60.6 Y128.72 E0.16476
G1 X61.07 Y128.686 E0.18827
G1 X61.25 Y128.678 E0.19726
G1 X62.068 Y128.665 E0.23807
G1 X62.119 Y128.665 E0.24062
G1 X240.814 Y128.66 E9.15575
G1 X241.964 Y128.66 E9.21312
G1 X242.662 Y128.67 E9.24795
G1 X242.935 Y128.686 E9.26159
G1 X243.444 Y128.737 E9.28711
G1 X244.053 Y128.858 E9.31809
G1 X244.601 Y129.024 E9.34666
G1 X245.21 Y129.28 E9.37962
G1 X245.681 Y129.538 E9.40641
G1 X246.107 Y129.818 E9.43184
G1 X246.313 Y129.978 E9.44485
G1 X246.522 Y130.155 E9.45852
G1 X246.76 Y130.375 E9.47469
G1 X247.141 Y130.796 E9.50302
G1 X247.45 Y131.205 E9.52859
G1 X247.775 Y131.735 E9.55961
G1 X248.036 Y132.272 E9.58939
G1 X248.274 Y132.942 E9.62487
G1 X248.405 Y133.502 E9.65356
G1 X248.488 Y134.164 E9.68685
G1 X248.509 Y135.169 E9.737
G1 X248.51 Y135.233 E9.74019
G1 X248.524 Y150.521 E10.50291
G1 X248.524 Y150.564 E10.50506
G1 X248.516 Y151.204 E10.53699
G1 X248.507 Y151.4 E10.54678
G1 X248.473 Y151.86 E10.56979
G1 X248.396 Y152.36 E10.59503
G1 X248.22 Y152.891 E10.62294
G1 X247.997 Y153.408 E10.65103
G1 X247.986 Y153.434 E10.65244
G1 X246.868 Y155.965 E10.79048
G1 X245.811 Y158.548 E10.92972
G1 X244.864 Y161.079 E11.06454
G1 X243.968 Y163.685 E11.20202
G1 X243.165 Y166.256 E11.3364
G1 X242.645 Y168.124 E11.43314
G1 X242.636 Y168.157 E11.43485
G1 X242.392 Y168.999 E11.47858
G1 X242.213 Y169.472 E11.50381
G1 X241.962 Y169.911 E11.52904
G1 X241.645 Y170.304 E11.55423
G1 X241.27 Y170.644 E11.57949
G1 X240.846 Y170.919 E11.6047
G1 X240.385 Y171.125 E11.62989
G1 X239.896 Y171.255 E11.65514
G1 X239.393 Y171.307 E11.68036
G1 X239.03 Y171.295 E11.69848
G1 X238.055 Y171.207 E11.74732
G1 X237.953 Y171.196 E11.75244
G1 X232.401 Y170.514 E12.03151
G1 X69.883 Y150.56 E20.20046
G1 X69.837 Y150.554 E20.20277
G1 X69.175 Y150.463 E20.23611
G1 X68.911 Y150.416 E20.24949
G1 X67.602 Y150.123 E20.31641
G1 X64.9 Y149.555 E20.45416
G1 X62.197 Y149.065 E20.59121
G1 X60.615 Y148.827 E20.67102
G1 X60.572 Y148.821 E20.67319
G1 X59.885 Y148.708 E20.70793
G1 X59.793 Y148.691 E20.71259
G1 X59.577 Y148.649 E20.72357
G1 X59.425 Y148.616 E20.73133
G1 X58.916 Y148.491 E20.75748
G1 X58.641 Y148.41 E20.77178
G1 X57.982 Y148.184 E20.80654
G1 X57.798 Y148.114 E20.81636
G1 X57.602 Y148.033 E20.82694
G1 X57.437 Y147.96 E20.83594
G1 X56.969 Y147.735 E20.86185
G1 X56.813 Y147.655 E20.8706
G1 X56.624 Y147.551 E20.88136
G1 X56.488 Y147.471 E20.88923
G1 X56.071 Y147.214 E20.91367
G1 X55.907 Y147.106 E20.92347
G1 X55.697 Y146.958 E20.93628
G1 X55.582 Y146.873 E20.94342
G1 X55.207 Y146.583 E20.96707
G1 X55.079 Y146.478 E20.97533
G1 X54.922 Y146.343 E20.98566
G1 X54.796 Y146.23 E20.9941
G1 X54.408 Y145.859 E21.02089
G1 X54.21 Y145.651 E21.03521
G1 X53.742 Y145.115 E21.07071
G1 X53.6 Y144.94 E21.08196
G1 X53.479 Y144.78 E21.09196
G1 X53.388 Y144.654 E21.09972
G1 X53.091 Y144.219 E21.126
G1 X52.984 Y144.052 E21.13589
G1 X52.881 Y143.879 E21.14594
G1 X52.812 Y143.755 E21.15302
G1 X52.564 Y143.293 E21.17918
G1 X52.481 Y143.129 E21.18835
G1 X52.395 Y142.944 E21.19852
G1 X52.338 Y142.812 E21.2057
G1 X52.141 Y142.333 E21.23154
G1 X52.063 Y142.124 E21.24267
G1 X51.99 Y141.904 E21.25423
G1 X51.954 Y141.787 E21.26034
G1 X51.818 Y141.318 E21.2847
G1 X51.774 Y141.151 E21.29332
G1 X51.728 Y140.953 E21.30346
G1 X51.697 Y140.805 E21.311
G1 X51.609 Y140.324 E21.3354
G1 X51.58 Y140.135 E21.34494
G1 X51.551 Y139.897 E21.3569
G1 X51.537 Y139.748 E21.36437
G1 X51.5 Y139.252 E21.38918
G1 X51.491 Y139.067 E21.39842
G1 X51.487 Y138.826 E21.41045
G1 X51.488 Y138.682 E21.41763
G1 X51.502 Y138.191 E21.44214
G1 X51.516 Y137.97 E21.45318
G1 X51.542 Y137.705 E21.46647
G1 X51.557 Y137.582 E21.47265
G1 X51.619 Y137.13 E21.49541
G1 X51.647 Y136.957 E21.50415
G1 X51.689 Y136.74 E21.51518
G1 X51.723 Y136.587 E21.523
G1 X51.842 Y136.101 E21.54796
G1 X51.899 Y135.897 E21.55853
G1 X51.973 Y135.663 E21.57078
G1 X52.012 Y135.546 E21.57693
G1 X52.174 Y135.095 E21.60084
G1 X52.249 Y134.907 E21.61093
G1 X52.342 Y134.692 E21.62262
G1 X52.399 Y134.567 E21.62948
G1 X52.601 Y134.15 E21.65259
G1 X52.686 Y133.988 E21.66172
G1 X52.808 Y133.769 E21.67423
G1 X52.883 Y133.64 E21.68167
G1 X53.129 Y133.243 E21.70497
G1 X53.224 Y133.099 E21.71358
G1 X53.369 Y132.891 E21.72623
G1 X53.464 Y132.762 E21.73422
G1 X53.756 Y132.385 E21.75801
G1 X53.867 Y132.249 E21.76677
G1 X54.009 Y132.085 E21.77759
G1 X54.116 Y131.968 E21.7855
G1 X54.469 Y131.599 E21.81098
G1 X54.605 Y131.465 E21.8205
G1 X54.771 Y131.311 E21.8318
G1 X54.878 Y131.216 E21.83894
G1 X55.245 Y130.905 E21.86294
G1 X55.405 Y130.778 E21.87313
G1 X55.639 Y130.604 E21.88768
G1 X55.755 Y130.522 E21.89477
G1 X56.12 Y130.275 E21.91675
G1 X56.256 Y130.188 E21.92481
G1 X56.441 Y130.076 E21.9356
G1 X56.585 Y129.993 E21.94389
G1 X57.049 Y129.744 E21.97016
G1 X57.227 Y129.656 E21.98007
G1 X57.423 Y129.566 E21.99083
G1 F1500 E19.99083
G1 F600 Z0.8
;MESH:BagClip_125_more_closed.stl
G0 F12000 X62.596 Y135.781 Z0.8
;TYPE:WALL-INNER
G1 F600 Z0.3
G1 F1500 E21.99083
G1 F2700 X63.005 Y135.953 E22.01296
G1 X63.377 Y136.177 E22.03463
G1 X63.724 Y136.458 E22.0569
G1 X64.017 Y136.772 E22.07833
G1 X64.273 Y137.138 E22.10061
G1 X64.471 Y137.526 E22.12235
G1 X64.615 Y137.942 E22.14431
G1 X64.699 Y138.375 E22.16631
G1 X64.722 Y138.811 E22.1881
G1 X64.685 Y139.249 E22.21003
G1 X64.587 Y139.678 E22.23198
G1 X64.433 Y140.082 E22.25355
G1 X64.212 Y140.478 E22.27618
G1 X63.956 Y140.821 E22.29753
G1 X63.648 Y141.129 E22.31926
G1 X63.293 Y141.397 E22.34145
G1 X62.912 Y141.609 E22.3632
G1 X62.498 Y141.769 E22.38535
G1 X62.066 Y141.869 E22.40747
G1 X61.644 Y141.906 E22.4286
G1 X61.189 Y141.884 E22.45133
G1 X60.76 Y141.802 E22.47312
G1 X60.348 Y141.66 E22.49486
G1 X59.96 Y141.462 E22.51659
G1 X59.589 Y141.204 E22.53914
G1 X59.277 Y140.913 E22.56042
G1 X58.998 Y140.568 E22.58256
G1 X58.773 Y140.192 E22.60442
G1 X58.597 Y139.78 E22.62677
G1 X58.485 Y139.363 E22.64832
G1 X58.431 Y138.929 E22.67013
G1 X58.438 Y138.488 E22.69214
G1 X58.507 Y138.048 E22.71436
G1 X58.634 Y137.634 E22.73596
G1 X58.818 Y137.237 E22.75779
G1 X59.059 Y136.866 E22.77987
G1 X59.346 Y136.535 E22.80172
G1 X59.677 Y136.248 E22.82358
G1 X60.05 Y136.005 E22.84579
G1 X60.445 Y135.821 E22.86753
G1 X60.859 Y135.694 E22.88913
G1 X61.301 Y135.624 E22.91146
G1 X61.736 Y135.615 E22.93317
G1 X62.18 Y135.67 E22.95549
G1 X62.596 Y135.781 E22.97697
G0 F12000 X62.729 Y135.403
;TYPE:WALL-OUTER
G1 F2700 X63.186 Y135.595 E23.0017
G1 X63.608 Y135.849 E23.02627
G1 X63.995 Y136.162 E23.0511
G1 X64.328 Y136.52 E23.0755
G1 X64.617 Y136.932 E23.1006
G1 X64.841 Y137.371 E23.12519
G1 X65.003 Y137.84 E23.14995
G1 X65.096 Y138.321 E23.17439
G1 X65.123 Y138.824 E23.19952
G1 X65.082 Y139.31 E23.22385
G1 X64.971 Y139.793 E23.24858
G1 X64.795 Y140.255 E23.27324
G1 X64.554 Y140.688 E23.29796
G1 X64.255 Y141.088 E23.32288
G1 X63.914 Y141.429 E23.34694
G1 X63.509 Y141.735 E23.37226
G1 X63.082 Y141.972 E23.39663
G1 X62.616 Y142.153 E23.42157
G1 X62.134 Y142.264 E23.44625
G1 X61.645 Y142.307 E23.47074
G1 X61.144 Y142.283 E23.49576
G1 X60.659 Y142.19 E23.5204
G1 X60.191 Y142.029 E23.54509
G1 X59.752 Y141.805 E23.56968
G1 X59.339 Y141.517 E23.5948
G1 X58.981 Y141.184 E23.61919
G1 X58.672 Y140.802 E23.6437
G1 X58.414 Y140.371 E23.66876
G1 X58.219 Y139.915 E23.69351
G1 X58.091 Y139.436 E23.71824
G1 X58.031 Y138.951 E23.74262
G1 X58.038 Y138.455 E23.76737
G1 X58.116 Y137.96 E23.79237
G1 X58.261 Y137.487 E23.81705
G1 X58.466 Y137.045 E23.84136
G1 X58.74 Y136.624 E23.86642
G1 X59.063 Y136.252 E23.891
G1 X59.435 Y135.929 E23.91558
G1 X59.854 Y135.656 E23.94053
G1 X60.301 Y135.447 E23.96515
G1 X60.771 Y135.303 E23.98967
G1 X61.267 Y135.225 E24.01472
G1 X61.756 Y135.214 E24.03912
G1 X62.255 Y135.276 E24.06421
G1 X62.729 Y135.403 E24.08869
G0 F12000 X62.913 Y135.48
G0 X62.468 Y136.15
;TYPE:SKIN
G1 F2700 X62.826 Y136.3 E24.10806
G1 X63.153 Y136.497 E24.1271
G1 X63.461 Y136.745 E24.14683
G1 X63.707 Y137.01 E24.16487
G1 X63.942 Y137.346 E24.18533
G1 X64.11 Y137.675 E24.20376
G1 X64.238 Y138.044 E24.22324
G1 X64.31 Y138.419 E24.24229
G1 X64.331 Y138.813 E24.26198
G1 X64.299 Y139.186 E24.28066
G1 X64.213 Y139.566 E24.30009
G1 X64.08 Y139.912 E24.31859
G1 X63.88 Y140.271 E24.33909
G1 X63.659 Y140.568 E24.35756
G1 X63.401 Y140.826 E24.37576
G1 X63.075 Y141.072 E24.39614
G1 X62.749 Y141.253 E24.41474
G1 X62.381 Y141.396 E24.43444
G1 X62.001 Y141.484 E24.4539
G1 X61.644 Y141.516 E24.47178
G1 X61.231 Y141.495 E24.49241
G1 X60.863 Y141.425 E24.5111
G1 X60.5 Y141.3 E24.53025
G1 X60.158 Y141.124 E24.54944
G1 X59.833 Y140.898 E24.56919
G1 X59.569 Y140.654 E24.58713
G1 X59.32 Y140.346 E24.60689
G1 X59.122 Y140.014 E24.62617
G1 X58.964 Y139.643 E24.64629
G1 X58.869 Y139.293 E24.66438
G1 X58.821 Y138.907 E24.68379
G1 X58.828 Y138.526 E24.7028
G1 X58.889 Y138.134 E24.72259
G1 X59.002 Y137.766 E24.7418
G1 X59.157 Y137.432 E24.76017
G1 X59.373 Y137.1 E24.77993
G1 X59.623 Y136.812 E24.79896
G1 X59.911 Y136.562 E24.81798
G1 X60.247 Y136.342 E24.83802
G1 X60.577 Y136.189 E24.85617
G1 X60.945 Y136.076 E24.87537
G1 X61.34 Y136.014 E24.89532
G1 X61.717 Y136.005 E24.91413
G1 X62.11 Y136.054 E24.93389
G1 X62.468 Y136.15 E24.95238
G0 F12000 X62.143 Y136.248
G1 F2700 X64.082 Y138.187 E25.08919
G0 F12000 X64.15 Y138.82
G1 F2700 X61.519 Y136.19 E25.27479
G0 F12000 X61.011 Y136.247
G1 F2700 X64.084 Y139.32 E25.4916
G0 F12000 X63.949 Y139.751
G1 F2700 X60.582 Y136.383 E25.7292
G0 F12000 X60.212 Y136.579
G1 F2700 X63.756 Y140.123 E25.97925
G0 F12000 X63.519 Y140.452
G1 F2700 X59.887 Y136.82 E26.2355
G0 F12000 X59.606 Y137.105
G1 F2700 X63.229 Y140.728 E26.49113
G0 F12000 X62.898 Y140.963
G1 F2700 X59.37 Y137.434 E26.74008
G0 F12000 X59.179 Y137.809
G1 F2700 X62.518 Y141.148 E26.97567
G0 F12000 X62.082 Y141.278
G1 F2700 X59.052 Y138.248 E27.18945
G0 F12000 X59.003 Y138.764
G1 F2700 X61.568 Y141.33 E27.37046
G0 F12000 X60.925 Y141.252
G1 F2700 X59.087 Y139.415 E27.5001
G1 X59.017 Y139.345
G1 F1500 E25.5001
G0 F12000 X63.941 Y140.808
G0 X65.472 Y142.294
G0 X65.597 Y142.137
;TYPE:WALL-INNER
G1 F1500 E27.5001
G1 F2700 X66.027 Y141.543 E27.53669
G1 X66.371 Y140.897 E27.5732
G1 X66.622 Y140.208 E27.60979
G1 X66.775 Y139.492 E27.64631
G1 X66.826 Y138.763 E27.68277
G1 X66.777 Y138.033 E27.71928
G1 X66.624 Y137.316 E27.75585
G1 X66.374 Y136.626 E27.79247
G1 X66.03 Y135.98 E27.82898
G1 X65.6 Y135.386 E27.86556
G1 X65.09 Y134.859 E27.90215
G1 X64.513 Y134.409 E27.93866
G1 X63.879 Y134.042 E27.97521
G1 X63.201 Y133.767 E28.01171
G1 X62.489 Y133.589 E28.04832
G1 X61.762 Y133.513 E28.08479
G1 X61.03 Y133.536 E28.12133
G1 X60.308 Y133.663 E28.1579
G1 X59.611 Y133.888 E28.19444
G1 X58.952 Y134.21 E28.23104
G1 X58.344 Y134.619 E28.26759
G1 X57.799 Y135.111 E28.30422
G1 X57.329 Y135.671 E28.3407
G1 X56.94 Y136.293 E28.3773
G1 X56.642 Y136.96 E28.41375
G1 X56.44 Y137.664 E28.45029
G1 X56.337 Y138.389 E28.48682
G1 X56.335 Y139.117 E28.52314
G1 X56.437 Y139.843 E28.55972
G1 X56.636 Y140.546 E28.59617
G1 X56.934 Y141.217 E28.6328
G1 X57.321 Y141.839 E28.66934
G1 X57.791 Y142.401 E28.7059
G1 X58.334 Y142.892 E28.74242
G1 X58.942 Y143.303 E28.77903
G1 X59.606 Y143.628 E28.81591
G1 X60.303 Y143.855 E28.85249
G1 X61.025 Y143.982 E28.88906
G1 X61.757 Y144.008 E28.9256
G1 X62.485 Y143.932 E28.96212
G1 X63.197 Y143.755 E28.99872
G1 X63.876 Y143.48 E29.03527
G1 X64.51 Y143.114 E29.07179
G1 X65.087 Y142.663 E29.10833
G1 X65.597 Y142.137 E29.14488
G0 F12000 X65.673 Y142.201
G0 X67.82 Y139.187
G0 X67.859 Y137.982
G0 X234.155 Y133.44
G0 X234.225 Y133.51
G1 F2700 X234.225 Y135.748 E29.25654
G1 X240.975 Y135.759 E29.5933
G1 X240.975 Y138.01 E29.7056
G1 X67.886 Y138.01 E38.34104
G1 X67.859 Y139.189 E38.39988
G1 X67.78 Y139.849 E38.43304
G1 X67.632 Y140.494 E38.46606
G1 X67.42 Y141.112 E38.49865
G1 X67.143 Y141.705 E38.53131
G1 X66.801 Y142.277 E38.56456
G1 X66.406 Y142.802 E38.59733
G1 X65.96 Y143.282 E38.63002
G1 X65.457 Y143.72 E38.6633
G1 X64.922 Y144.096 E38.69592
G1 X64.344 Y144.416 E38.72888
G1 X63.729 Y144.679 E38.76225
G1 X63.106 Y144.87 E38.79476
G1 X62.461 Y144.997 E38.82756
G1 X61.811 Y145.055 E38.86012
G1 X61.148 Y145.044 E38.8932
G1 X60.491 Y144.965 E38.92621
G1 X59.841 Y144.816 E38.95948
G1 X59.224 Y144.603 E38.99205
G1 X58.631 Y144.328 E39.02466
G1 X58.066 Y143.99 E39.05751
G1 X57.531 Y143.588 E39.09089
G1 X57.053 Y143.144 E39.12344
G1 X56.616 Y142.645 E39.15653
G1 X56.24 Y142.109 E39.1892
G1 X55.92 Y141.53 E39.2222
G1 X55.657 Y140.916 E39.25553
G1 X55.466 Y140.293 E39.28804
G1 X55.339 Y139.648 E39.32083
G1 X55.281 Y138.998 E39.35339
G1 X55.291 Y138.325 E39.38697
G1 X55.372 Y137.664 E39.42019
G1 X55.519 Y137.021 E39.4531
G1 X55.732 Y136.402 E39.48576
G1 X56.01 Y135.807 E39.51853
G1 X56.35 Y135.242 E39.55142
G1 X56.747 Y134.713 E39.58442
G1 X57.194 Y134.233 E39.61714
G1 X57.694 Y133.797 E39.65024
G1 X58.235 Y133.42 E39.68314
G1 X58.817 Y133.097 E39.71635
G1 X59.412 Y132.844 E39.7486
G1 X60.048 Y132.65 E39.78178
G1 X60.704 Y132.521 E39.81513
G1 X61.349 Y132.465 E39.84743
G1 X240.814 Y132.46 E48.80098
G1 X242.592 Y132.46 E48.88968
G1 X243.064 Y132.509 E48.91336
G1 X243.474 Y132.642 E48.93486
G1 X243.853 Y132.859 E48.95665
G1 X244.182 Y133.157 E48.9788
G1 X244.439 Y133.509 E49.00054
G1 X244.619 Y133.912 E49.02256
G1 X244.709 Y134.338 E49.04428
G1 X244.725 Y151.173 E49.88418
G1 X244.699 Y151.501 E49.9006
G1 X244.616 Y151.688 E49.91081
G1 X244.471 Y151.838 E49.92122
G1 X244.278 Y151.933 E49.93195
G1 X244.077 Y151.96 E49.94207
G1 X243.621 Y151.96 E49.96482
G1 X243.226 Y151.906 E49.98471
G1 X242.884 Y151.757 E50.00332
G1 X242.566 Y151.503 E50.02362
G1 X239.475 Y148.412 E50.24171
G1 X239.475 Y147.997 E50.26241
G1 X243.675 Y147.983 E50.47195
G1 X243.675 Y134.952 E51.12207
G1 X243.611 Y134.394 E51.15009
G1 X243.276 Y133.882 E51.18062
G1 X242.791 Y133.578 E51.20918
G1 X242.29 Y133.51 E51.2344
G1 X234.225 Y133.51 E51.63676
G0 F12000 X234.625 Y133.91
;TYPE:WALL-OUTER
G1 F2700 X234.625 Y135.349 E51.70856
G1 X241.375 Y135.36 E52.04532
G1 X241.375 Y138.41 E52.19748
G1 X68.277 Y138.41 E60.83338
G1 X68.259 Y139.215 E60.87355
G1 X68.174 Y139.919 E60.90893
G1 X68.018 Y140.601 E60.94383
G1 X67.792 Y141.26 E60.97859
G1 X67.496 Y141.893 E61.01345
G1 X67.131 Y142.503 E61.04891
G1 X66.711 Y143.063 E61.08384
G1 X66.239 Y143.57 E61.1184
G1 X65.709 Y144.031 E61.15344
G1 X65.131 Y144.437 E61.18868
G1 X64.521 Y144.775 E61.22347
G1 X63.872 Y145.053 E61.2587
G1 X63.204 Y145.258 E61.29356
G1 X62.517 Y145.393 E61.32849
G1 X61.821 Y145.455 E61.36335
G1 X61.122 Y145.444 E61.39823
G1 X60.419 Y145.359 E61.43355
G1 X59.736 Y145.202 E61.46852
G1 X59.072 Y144.974 E61.50354
G1 X58.447 Y144.684 E61.53792
G1 X57.834 Y144.317 E61.57356
G1 X57.28 Y143.9 E61.60816
G1 X56.766 Y143.423 E61.64314
G1 X56.301 Y142.891 E61.67839
G1 X55.899 Y142.318 E61.71331
G1 X55.56 Y141.707 E61.74817
G1 X55.283 Y141.059 E61.78333
G1 X55.078 Y140.391 E61.81819
G1 X54.943 Y139.704 E61.85312
G1 X54.881 Y139.008 E61.88798
G1 X54.891 Y138.298 E61.92341
G1 X54.977 Y137.597 E61.95865
G1 X55.133 Y136.914 E61.9936
G1 X55.36 Y136.254 E62.02842
G1 X55.659 Y135.614 E62.06366
G1 X56.017 Y135.019 E62.0983
G1 X56.443 Y134.452 E62.13369
G1 X56.915 Y133.945 E62.16825
G1 X57.444 Y133.484 E62.20325
G1 X58.024 Y133.079 E62.23855
G1 X58.637 Y132.739 E62.27352
G1 X59.282 Y132.465 E62.30848
G1 X59.951 Y132.261 E62.34337
G1 X60.639 Y132.126 E62.37835
