;FLAVOR:Marlin
;TIME:4978
;Filament used: 8.21999m
;Layer height: 0.2
;MINX:109.698
;MINY:111.8
;MINZ:0.3
;MAXX:190.301
;MAXY:188.2
;MAXZ:48.7
;Generated with Cura_SteamEngine 4.4.1
M140 S80
M105
M190 S80
M104 S230
M105
M109 S230
M82 ;absolute extrusion mode
G28 ;Home
G1 Z15.0 F6000 ;Move the platform down 15mm
;Prime the extruder
G92 E0
G1 F200 E3
G92 E0
G92 E0
G92 E0
G1 F1500 E-2
;LAYER_COUNT:243
;LAYER:0
M107
G1 F600 Z0.8
G0 F12000 X117.436 Y112.701 Z0.8
;TYPE:SKIRT
G1 F600 Z0.3
G1 F1500 E0
G1 F2700 X117.827 Y112.38 E0.02524
G1 X118.264 Y112.126 E0.05046
G1 X118.735 Y111.943 E0.07567
G1 X119.23 Y111.837 E0.10092
G1 X119.562 Y111.81 E0.11754
G1 X119.881 Y111.801 E0.13346
G1 X119.971 Y111.8 E0.13795
G1 X183.359 Y111.8 E3.30039
G1 X184.057 Y111.81 E3.33522
G1 X184.56 Y111.857 E3.36042
G1 X185.05 Y111.983 E3.38566
G1 X185.514 Y112.185 E3.41091
G1 X185.94 Y112.457 E3.43613
G1 X186.318 Y112.792 E3.46133
G1 X186.638 Y113.183 E3.48653
G1 X186.893 Y113.62 E3.51178
G1 X187.076 Y114.091 E3.53699
G1 X187.183 Y114.585 E3.5622
G1 X187.21 Y114.919 E3.57892
G1 X187.219 Y115.234 E3.59464
G1 X187.22 Y115.325 E3.59918
G1 X187.22 Y160.992 E5.87752
G1 X187.223 Y184.249 E7.03781
G1 X187.223 Y184.288 E7.03976
G1 X187.214 Y185.029 E7.07673
G1 X187.168 Y185.532 E7.10193
G1 X187.043 Y186.022 E7.12716
G1 X186.843 Y186.486 E7.15237
G1 X186.572 Y186.913 E7.1776
G1 X186.237 Y187.292 E7.20284
G1 X185.846 Y187.613 E7.22807
G1 X185.41 Y187.869 E7.2533
G1 X184.939 Y188.053 E7.27853
G1 X184.445 Y188.161 E7.30375
G1 X184.103 Y188.189 E7.32087
G1 X183.779 Y188.198 E7.33704
G1 X183.69 Y188.199 E7.34149
G1 X120.35 Y188.2 E10.50153
G1 X120.309 Y188.2 E10.50358
G1 X119.611 Y188.191 E10.5384
G1 X119.107 Y188.144 E10.56366
G1 X118.617 Y188.019 E10.58889
G1 X118.153 Y187.818 E10.61411
G1 X117.727 Y187.547 E10.6393
G1 X117.348 Y187.212 E10.66454
G1 X117.027 Y186.821 E10.68978
G1 X116.772 Y186.385 E10.71498
G1 X116.588 Y185.914 E10.7402
G1 X116.481 Y185.42 E10.76542
G1 X116.453 Y185.077 E10.78259
G1 X116.444 Y184.744 E10.79921
G1 X116.443 Y184.658 E10.8035
G1 X116.442 Y115.674 E14.24513
G1 X116.442 Y115.626 E14.24752
G1 X116.452 Y114.961 E14.2807
G1 X116.5 Y114.458 E14.30591
G1 X116.626 Y113.968 E14.33115
G1 X116.828 Y113.504 E14.3564
G1 X117.1 Y113.078 E14.38162
G1 X117.436 Y112.701 E14.40681
G1 F1500 E12.40681
;MESH:Universal_Phone_Stand.STL
G0 F12000 X120.256 Y114.335
G0 X120.256 Y115.614
G0 X183.32 Y160.98
G0 X183.42 Y160.98
;TYPE:WALL-INNER
G1 F1500 E14.40681
G1 F2700 X183.423 Y184.2 E15.56526
G1 X183.423 Y184.4 E15.57524
G1 X183.223 Y184.4 E15.5817
G1 X120.243 Y184.4 E18.72379
G1 X120.242 Y115.8 E22.14625
G1 X120.242 Y115.6 E22.15623
G1 X120.442 Y115.6 E22.16269
G1 X183.42 Y115.6 E25.30468
G1 X183.42 Y160.98 E27.56869
G0 F12000 X183.82 Y160.98
;TYPE:WALL-OUTER
G1 F2700 X183.823 Y184.6 E28.7471
G1 X183.823 Y184.8 E28.75708
G1 X183.623 Y184.8 E28.76354
G1 X119.843 Y184.8 E31.94554
G1 X119.842 Y115.4 E35.40792
G1 X119.842 Y115.2 E35.4179
G1 X120.042 Y115.2 E35.42436
G1 X183.82 Y115.2 E38.60625
G1 X183.82 Y160.98 E40.89023
G0 F12000 X183.82 Y161.18
G0 X183.03 Y160.98
;TYPE:SKIN
G1 F2700 X183.033 Y184.01 E42.0392
G1 X120.633 Y184.01 E45.15235
G1 X120.632 Y115.99 E48.54588
G1 X183.03 Y115.99 E51.65893
G1 X183.03 Y160.98 E53.90349
G0 F12000 X182.849 Y116.664
G1 F2700 X182.355 Y116.17 E53.93834
G0 F12000 X181.79 Y116.17
G1 F2700 X182.849 Y117.229 E54.01306
G0 F12000 X182.849 Y117.795
G1 F2700 X181.224 Y116.17 E54.12771
G0 F12000 X180.658 Y116.17
G1 F2700 X182.849 Y118.361 E54.2823
G0 F12000 X182.849 Y118.926
G1 F2700 X180.093 Y116.17 E54.47675
G0 F12000 X179.527 Y116.17
G1 F2700 X182.849 Y119.492 E54.71113
G0 F12000 X182.849 Y120.058
G1 F2700 X178.961 Y116.17 E54.98545
G0 F12000 X178.395 Y116.17
G1 F2700 X182.849 Y120.623 E55.29967
G0 F12000 X182.849 Y121.189
G1 F2700 X177.83 Y116.17 E55.65379
G0 F12000 X177.264 Y116.17
G1 F2700 X182.849 Y121.755 E56.04784
G0 F12000 X182.849 Y122.32
G1 F2700 X176.698 Y116.17 E56.48179
G0 F12000 X176.133 Y116.17
G1 F2700 X182.849 Y122.886 E56.95564
G0 F12000 X182.849 Y123.452
G1 F2700 X175.567 Y116.17 E57.46943
G0 F12000 X175.001 Y116.17
G1 F2700 X182.849 Y124.018 E58.02315
G0 F12000 X182.849 Y124.583
G1 F2700 X174.436 Y116.17 E58.61673
G0 F12000 X173.87 Y116.17
G1 F2700 X182.849 Y125.149 E59.25025
G0 F12000 X182.849 Y125.715
G1 F2700 X173.304 Y116.17 E59.9237
G0 F12000 X172.739 Y116.17
G1 F2700 X182.849 Y126.28 E60.63701
G0 F12000 X182.849 Y126.846
G1 F2700 X172.173 Y116.17 E61.39026
G0 F12000 X171.607 Y116.17
G1 F2700 X182.849 Y127.412 E62.18345
G0 F12000 X182.849 Y127.977
G1 F2700 X171.042 Y116.17 E63.01649
G0 F12000 X170.476 Y116.17
G1 F2700 X182.849 Y128.543 E63.88948
G0 F12000 X182.849 Y129.109
G1 F2700 X169.91 Y116.17 E64.80239
G0 F12000 X169.345 Y116.17
G1 F2700 X182.849 Y129.674 E65.75517
G0 F12000 X182.849 Y130.24
G1 F2700 X168.779 Y116.17 E66.74789
G0 F12000 X168.213 Y116.17
G1 F2700 X182.849 Y130.806 E67.78054
G0 F12000 X182.849 Y131.371
G1 F2700 X167.647 Y116.17 E68.85308
G0 F12000 X167.082 Y116.17
G1 F2700 X182.849 Y131.937 E69.96553
G0 F12000 X182.849 Y132.503
G1 F2700 X166.516 Y116.17 E71.11791
G0 F12000 X165.95 Y116.17
G1 F2700 X182.849 Y133.069 E72.31023
G0 F12000 X182.849 Y133.634
G1 F2700 X165.385 Y116.17 E73.54241
G0 F12000 X164.819 Y116.17
G1 F2700 X182.849 Y134.2 E74.81452
G0 F12000 X182.849 Y134.766
G1 F2700 X164.253 Y116.17 E76.12657
G0 F12000 X163.688 Y116.17
G1 F2700 X182.849 Y135.331 E77.47848
G0 F12000 X182.849 Y135.897
G1 F2700 X163.122 Y116.17 E78.87033
G0 F12000 X162.556 Y116.17
G1 F2700 X182.849 Y136.463 E80.30211
G0 F12000 X182.849 Y137.028
G1 F2700 X161.991 Y116.17 E81.77375
G0 F12000 X161.425 Y116.17
G1 F2700 X182.849 Y137.594 E83.28533
G0 F12000 X182.849 Y138.16
G1 F2700 X160.859 Y116.17 E84.83684
G0 F12000 X160.294 Y116.17
G1 F2700 X182.849 Y138.725 E86.42822
G0 F12000 X182.849 Y139.291
G1 F2700 X159.728 Y116.17 E88.05953
G0 F12000 X159.162 Y116.17
G1 F2700 X182.849 Y139.857 E89.73078
G0 F12000 X182.849 Y140.422
G1 F2700 X158.596 Y116.17 E91.44192
G0 F12000 X158.031 Y116.17
G1 F2700 X182.849 Y140.988 E93.19297
G0 F12000 X182.849 Y141.554
G1 F2700 X157.465 Y116.17 E94.98395
G0 F12000 X156.899 Y116.17
G1 F2700 X182.849 Y142.119 E96.81482
G0 F12000 X182.849 Y142.685
G1 F2700 X156.334 Y116.17 E98.6856
G0 F12000 X155.768 Y116.17
G1 F2700 X182.849 Y143.251 E100.59631
G0 F12000 X182.849 Y143.817
G1 F2700 X155.202 Y116.17 E102.54696
G0 F12000 X154.637 Y116.17
G1 F2700 X182.849 Y144.382 E104.53747
G0 F12000 X182.849 Y144.948
G1 F2700 X154.071 Y116.17 E106.56791
G0 F12000 X153.505 Y116.17
G1 F2700 X182.849 Y145.514 E108.63829
G0 F12000 X182.849 Y146.079
G1 F2700 X152.94 Y116.17 E110.74853
G0 F12000 X152.374 Y116.17
G1 F2700 X182.849 Y146.645 E112.8987
G0 F12000 X182.849 Y147.211
G1 F2700 X151.808 Y116.17 E115.08881
G0 F12000 X151.243 Y116.17
G1 F2700 X182.849 Y147.776 E117.31879
G0 F12000 X182.849 Y148.342
G1 F2700 X150.677 Y116.17 E119.5887
G0 F12000 X150.111 Y116.17
G1 F2700 X182.849 Y148.908 E121.89854
G0 F12000 X182.849 Y149.473
G1 F2700 X149.546 Y116.17 E124.24825
G0 F12000 X148.98 Y116.17
G1 F2700 X182.849 Y150.039 E126.63789
G0 F12000 X182.849 Y150.605
G1 F2700 X148.414 Y116.17 E129.06746
G0 F12000 X147.848 Y116.17
G1 F2700 X182.849 Y151.17 E131.53694
G0 F12000 X182.849 Y151.736
G1 F2700 X147.283 Y116.17 E134.04631
G0 F12000 X146.717 Y116.17
G1 F2700 X182.849 Y152.302 E136.59562
G0 F12000 X182.849 Y152.868
G1 F2700 X146.151 Y116.17 E139.18486
G0 F12000 X145.586 Y116.17
G1 F2700 X182.849 Y153.433 E141.81396
G0 F12000 X182.849 Y153.999
G1 F2700 X145.02 Y116.17 E144.48301
G0 F12000 X144.454 Y116.17
G1 F2700 X182.849 Y154.565 E147.19198
G0 F12000 X182.849 Y155.13
G1 F2700 X143.889 Y116.17 E149.94082
G0 F12000 X143.323 Y116.17
G1 F2700 X182.849 Y155.696 E152.72959
G0 F12000 X182.849 Y156.262
G1 F2700 X142.757 Y116.17 E155.5583
G0 F12000 X142.192 Y116.17
G1 F2700 X182.849 Y156.827 E158.42687
G0 F12000 X182.849 Y157.393
G1 F2700 X141.626 Y116.17 E161.33537
G0 F12000 X141.06 Y116.17
G1 F2700 X182.849 Y157.959 E164.28381
G0 F12000 X182.849 Y158.524
G1 F2700 X140.495 Y116.17 E167.27212
G0 F12000 X139.929 Y116.17
G1 F2700 X182.849 Y159.09 E170.30036
G0 F12000 X182.849 Y159.656
G1 F2700 X139.363 Y116.17 E173.36853
G0 F12000 X138.797 Y116.17
G1 F2700 X182.849 Y160.221 E176.4766
G0 F12000 X182.849 Y160.787
G1 F2700 X138.232 Y116.17 E179.62457
G0 F12000 X137.666 Y116.17
G1 F2700 X182.85 Y161.353 E182.81251
G0 F12000 X182.85 Y161.919
G1 F2700 X137.1 Y116.17 E186.04038
G0 F12000 X136.535 Y116.17
G1 F2700 X182.85 Y162.485 E189.30816
G0 F12000 X182.85 Y163.051
G1 F2700 X135.969 Y116.17 E192.61586
G0 F12000 X135.403 Y116.17
G1 F2700 X182.85 Y163.616 E195.96347
G0 F12000 X182.85 Y164.182
G1 F2700 X134.838 Y116.17 E199.35098
G0 F12000 X134.272 Y116.17
G1 F2700 X182.85 Y164.748 E202.77842
G0 F12000 X182.85 Y165.314
G1 F2700 X133.706 Y116.17 E206.24579
G0 F12000 X133.141 Y116.17
G1 F2700 X182.85 Y165.88 E209.75307
G0 F12000 X182.85 Y166.445
G1 F2700 X132.575 Y116.17 E213.30024
G0 F12000 X132.009 Y116.17
G1 F2700 X182.85 Y167.011 E216.88735
G0 F12000 X182.85 Y167.577
G1 F2700 X131.444 Y116.17 E220.51435
G0 F12000 X130.878 Y116.17
G1 F2700 X182.85 Y168.142 E224.18126
G0 F12000 X182.851 Y168.709
G1 F2700 X130.312 Y116.17 E227.88817
G0 F12000 X129.747 Y116.17
G1 F2700 X182.851 Y169.274 E231.63494
G0 F12000 X182.851 Y169.84
G1 F2700 X129.181 Y116.17 E235.42165
G0 F12000 X128.615 Y116.17
G1 F2700 X182.851 Y170.406 E239.24829
G0 F12000 X182.851 Y170.972
G1 F2700 X128.049 Y116.17 E243.11487
G0 F12000 X127.484 Y116.17
G1 F2700 X182.851 Y171.537 E247.02131
G0 F12000 X182.851 Y172.103
G1 F2700 X126.918 Y116.17 E250.96769
G0 F12000 X126.352 Y116.17
G1 F2700 X182.852 Y172.669 E254.95403
G0 F12000 X182.852 Y173.235
G1 F2700 X125.787 Y116.17 E258.98027
G0 F12000 X125.221 Y116.17
G1 F2700 X182.852 Y173.801 E263.04645
G0 F12000 X182.852 Y174.366
G1 F2700 X124.655 Y116.17 E267.15253
G0 F12000 X124.09 Y116.17
G1 F2700 X182.852 Y174.932 E271.29851
G0 F12000 X182.852 Y175.498
G1 F2700 X123.524 Y116.17 E275.48442
G0 F12000 X122.958 Y116.17
G1 F2700 X182.852 Y176.063 E279.71023
G0 F12000 X182.852 Y176.63
G1 F2700 X122.393 Y116.17 E283.97597
G0 F12000 X121.827 Y116.17
G1 F2700 X182.852 Y177.196 E288.28165
G0 F12000 X182.852 Y177.761
G1 F2700 X121.261 Y116.17 E292.62723
G0 F12000 X120.811 Y116.285
G1 F2700 X182.852 Y178.327 E297.00459
G0 F12000 X182.852 Y178.893
G1 F2700 X120.811 Y116.851 E301.38195
G0 F12000 X120.811 Y117.417
G1 F2700 X182.852 Y179.458 E305.75928
G0 F12000 X182.853 Y180.025
G1 F2700 X120.811 Y117.982 E310.13672
G0 F12000 X120.811 Y118.548
G1 F2700 X182.853 Y180.59 E314.51411
G0 F12000 X182.853 Y181.156
G1 F2700 X120.811 Y119.114 E318.89151
G0 F12000 X120.811 Y119.679
G1 F2700 X182.853 Y181.722 E323.26895
G0 F12000 X182.853 Y182.287
G1 F2700 X120.811 Y120.245 E327.64634
G0 F12000 X120.811 Y120.811
G1 F2700 X182.853 Y182.853 E332.02374
G0 F12000 X182.853 Y183.419
G1 F2700 X120.811 Y121.377 E336.40114
G0 F12000 X120.811 Y121.942
G1 F2700 X182.698 Y183.829 E340.7676
G0 F12000 X182.132 Y183.829
G1 F2700 X120.811 Y122.508 E345.09413
G0 F12000 X120.811 Y123.074
G1 F2700 X181.566 Y183.829 E349.38072
G0 F12000 X181 Y183.829
G1 F2700 X120.811 Y123.639 E353.62742
G0 F12000 X120.811 Y124.205
G1 F2700 X180.435 Y183.829 E357.83421
G0 F12000 X179.869 Y183.829
G1 F2700 X120.811 Y124.771 E362.00107
G0 F12000 X120.811 Y125.336
G1 F2700 X179.303 Y183.829 E366.12804
G0 F12000 X178.738 Y183.829
G1 F2700 X120.811 Y125.902 E370.2151
G0 F12000 X120.811 Y126.468
G1 F2700 X178.172 Y183.829 E374.26223
G0 F12000 X177.606 Y183.829
G1 F2700 X120.811 Y127.033 E378.26946
G0 F12000 X120.811 Y127.599
G1 F2700 X177.041 Y183.829 E382.23679
G0 F12000 X176.475 Y183.829
G1 F2700 X120.811 Y128.165 E386.16418
G0 F12000 X120.811 Y128.73
G1 F2700 X175.909 Y183.829 E390.05168
G0 F12000 X175.344 Y183.829
G1 F2700 X120.811 Y129.296 E393.89928
G0 F12000 X120.811 Y129.862
G1 F2700 X174.778 Y183.829 E397.70694
G0 F12000 X174.212 Y183.829
G1 F2700 X120.811 Y130.427 E401.4747
G0 F12000 X120.811 Y130.993
G1 F2700 X173.647 Y183.829 E405.20257
G0 F12000 X173.081 Y183.829
G1 F2700 X120.811 Y131.559 E408.8905
G0 F12000 X120.811 Y132.125
G1 F2700 X172.515 Y183.829 E412.5385
G0 F12000 X171.949 Y183.829
G1 F2700 X120.811 Y132.69 E416.14659
G0 F12000 X120.811 Y133.256
G1 F2700 X171.384 Y183.829 E419.71479
G0 F12000 X170.818 Y183.829
G1 F2700 X120.811 Y133.822 E423.24306
G0 F12000 X120.811 Y134.387
G1 F2700 X170.252 Y183.829 E426.73142
G0 F12000 X169.687 Y183.829
G1 F2700 X120.811 Y134.953 E430.17989
G0 F12000 X120.811 Y135.519
G1 F2700 X169.121 Y183.829 E433.58842
G0 F12000 X168.555 Y183.829
G1 F2700 X120.811 Y136.084 E436.95705
G0 F12000 X120.811 Y136.65
G1 F2700 X167.99 Y183.829 E440.28578
G0 F12000 X167.424 Y183.829
G1 F2700 X120.811 Y137.216 E443.57458
G0 F12000 X120.811 Y137.781
G1 F2700 X166.858 Y183.829 E446.82348
G0 F12000 X166.293 Y183.829
G1 F2700 X120.811 Y138.347 E450.03248
G0 F12000 X120.812 Y138.913
G1 F2700 X165.727 Y183.829 E453.20151
G0 F12000 X165.161 Y183.829
G1 F2700 X120.812 Y139.479 E456.33061
G0 F12000 X120.812 Y140.045
G1 F2700 X164.596 Y183.829 E459.41981
G0 F12000 X164.03 Y183.829
G1 F2700 X120.812 Y140.611 E462.46907
G0 F12000 X120.812 Y141.176
G1 F2700 X163.464 Y183.829 E465.47844
G0 F12000 X162.899 Y183.829
G1 F2700 X120.812 Y141.742 E468.4479
G0 F12000 X120.812 Y142.308
G1 F2700 X162.333 Y183.829 E471.37743
G0 F12000 X161.767 Y183.829
G1 F2700 X120.812 Y142.873 E474.26706
G0 F12000 X120.812 Y143.439
G1 F2700 X161.201 Y183.829 E477.11676
G0 F12000 X160.636 Y183.829
G1 F2700 X120.812 Y144.005 E479.92656
G0 F12000 X120.812 Y144.57
G1 F2700 X160.07 Y183.829 E482.69646
G0 F12000 X159.504 Y183.829
G1 F2700 X120.812 Y145.136 E485.42642
G0 F12000 X120.812 Y145.702
G1 F2700 X158.939 Y183.829 E488.11649
G0 F12000 X158.373 Y183.829
G1 F2700 X120.812 Y146.267 E490.76666
G0 F12000 X120.812 Y146.833
G1 F2700 X157.807 Y183.829 E493.37689
G0 F12000 X157.242 Y183.829
G1 F2700 X120.812 Y147.399 E495.94722
G0 F12000 X120.812 Y147.964
G1 F2700 X156.676 Y183.829 E498.47766
G0 F12000 X156.11 Y183.829
G1 F2700 X120.812 Y148.53 E500.96816
G0 F12000 X120.812 Y149.096
G1 F2700 X155.545 Y183.829 E503.41876
G0 F12000 X154.979 Y183.829
G1 F2700 X120.812 Y149.661 E505.82946
G0 F12000 X120.812 Y150.227
G1 F2700 X154.413 Y183.829 E508.20023
G0 F12000 X153.848 Y183.829
G1 F2700 X120.812 Y150.793 E510.53109
G0 F12000 X120.812 Y151.359
G1 F2700 X153.282 Y183.829 E512.82203
G0 F12000 X152.716 Y183.829
G1 F2700 X120.812 Y151.924 E515.07306
G0 F12000 X120.812 Y152.49
G1 F2700 X152.15 Y183.829 E517.28416
G0 F12000 X151.585 Y183.829
G1 F2700 X120.812 Y153.056 E519.45536
G0 F12000 X120.812 Y153.621
G1 F2700 X151.019 Y183.829 E521.58667
G0 F12000 X150.453 Y183.829
G1 F2700 X120.812 Y154.187 E523.67803
G0 F12000 X120.812 Y154.753
G1 F2700 X149.888 Y183.829 E525.7295
G0 F12000 X149.322 Y183.829
G1 F2700 X120.812 Y155.318 E527.74107
G0 F12000 X120.812 Y155.884
G1 F2700 X148.756 Y183.829 E529.71271
G0 F12000 X148.191 Y183.829
G1 F2700 X120.812 Y156.45 E531.64444
G0 F12000 X120.812 Y157.015
G1 F2700 X147.625 Y183.829 E533.53628
G0 F12000 X147.059 Y183.829
G1 F2700 X120.812 Y157.581 E535.38818
G0 F12000 X120.812 Y158.147
G1 F2700 X146.494 Y183.829 E537.20019
G0 F12000 X145.928 Y183.829
G1 F2700 X120.812 Y158.712 E538.97229
G0 F12000 X120.812 Y159.278
G1 F2700 X145.362 Y183.829 E540.70446
G0 F12000 X144.797 Y183.829
G1 F2700 X120.812 Y159.844 E542.39673
G0 F12000 X120.812 Y160.41
G1 F2700 X144.231 Y183.829 E544.04907
G0 F12000 X143.665 Y183.829
G1 F2700 X120.812 Y160.975 E545.66151
G0 F12000 X120.812 Y161.542
G1 F2700 X143.1 Y183.829 E547.23401
G0 F12000 X142.534 Y183.829
G1 F2700 X120.812 Y162.107 E548.76662
G0 F12000 X120.812 Y162.673
G1 F2700 X141.968 Y183.829 E550.25929
G0 F12000 X141.402 Y183.829
G1 F2700 X120.812 Y163.239 E551.71202
G0 F12000 X120.812 Y163.804
G1 F2700 X140.837 Y183.829 E553.1249
G0 F12000 X140.271 Y183.829
G1 F2700 X120.812 Y164.37 E554.49783
G0 F12000 X120.812 Y164.936
G1 F2700 X139.705 Y183.829 E555.83084
G0 F12000 X139.14 Y183.829
