;FLAVOR:Marlin
;TIME:2759
;Filament used: 1.30465m
;Layer height: 0.12
;MINX:75.336
;MINY:128.816
;MINZ:0.24
;MAXX:224.663
;MAXY:171.19
;MAXZ:9.96
;Generated with Cura_SteamEngine 4.4.1
M140 S80
M105
M190 S80
M104 S230
M105
M109 S230
M82 ;absolute extrusion mode
G28 ;Home
G1 Z15.0 F6000 ;Move the platform down 15mm
;Prime the extruder
G92 E0
G1 F200 E3
G92 E0
G92 E0
G92 E0
G1 F1500 E-6.5
;LAYER_COUNT:82
;LAYER:0
M107
G1 F600 Z0.74
G0 F3600 X91.709 Y131.449 Z0.74
;TYPE:SKIRT
G1 F600 Z0.24
G1 F1500 E0
G1 X92.099 Y131.182 E0.01886
G1 X92.232 Y131.099 E0.02512
G1 X93.039 Y130.644 E0.0621
G1 X93.168 Y130.578 E0.06788
G1 X94.055 Y130.168 E0.10688
G1 X94.235 Y130.096 E0.11462
G1 X95.213 Y129.766 E0.15582
G1 X95.378 Y129.719 E0.16266
G1 X96.535 Y129.448 E0.21009
G1 X96.734 Y129.413 E0.21816
G1 X100.192 Y129.005 E0.35713
G1 X100.347 Y128.994 E0.36333
G1 X106.044 Y128.817 E0.59082
G1 X106.115 Y128.816 E0.59365
G1 X113.647 Y128.88 E0.89428
G1 X113.722 Y128.882 E0.89728
G1 X118.073 Y129.1 E1.07115
G1 X118.166 Y129.107 E1.07488
G1 X122.271 Y129.527 E1.23957
G1 X122.382 Y129.542 E1.24404
G1 X126.194 Y130.173 E1.39826
G1 X126.318 Y130.198 E1.40331
G1 X129.733 Y131.013 E1.54343
G1 X129.833 Y131.04 E1.54757
G1 X130.319 Y131.186 E1.56782
G1 X130.418 Y131.219 E1.57199
G1 X132.157 Y131.854 E1.64588
G1 X132.335 Y131.93 E1.6536
G1 X133.583 Y132.544 E1.70911
G1 X133.68 Y132.596 E1.71351
G1 X134.758 Y133.211 E1.76304
G1 X134.871 Y133.281 E1.76835
G1 X135.808 Y133.912 E1.81343
G1 X135.924 Y133.997 E1.81917
G1 X136.734 Y134.642 E1.8605
G1 X136.851 Y134.744 E1.86669
G1 X137.542 Y135.399 E1.9047
G1 X137.64 Y135.498 E1.91025
G1 X138.062 Y135.965 E1.93538
G1 X138.169 Y136.097 E1.94216
G1 X138.692 Y136.799 E1.9771
G1 X138.793 Y136.948 E1.98428
G1 X139.412 Y137.98 E2.03231
G1 X139.489 Y138.123 E2.03879
G1 X140.101 Y139.39 E2.09495
G1 X140.167 Y139.546 E2.10171
G1 X141.71 Y143.697 E2.27847
G1 X141.746 Y143.802 E2.2829
G1 X143.804 Y150.59 E2.566
G1 X143.823 Y150.659 E2.56885
G1 X144.814 Y154.471 E2.72606
G1 X145.101 Y155.466 E2.76739
G1 X145.304 Y156.046 E2.79191
G1 X145.462 Y156.399 E2.80735
G1 X145.631 Y156.697 E2.82102
G1 X145.833 Y156.963 E2.83435
G1 X146.022 Y157.162 E2.84531
G1 X146.302 Y157.385 E2.85959
G1 X146.568 Y157.552 E2.87213
G1 X146.931 Y157.726 E2.8882
G1 X147.27 Y157.848 E2.90258
G1 X147.958 Y158.025 E2.93093
G1 X148.751 Y158.135 E2.96288
G1 X149.753 Y158.172 E3.0029
G1 X150.918 Y158.159 E3.0494
G1 X151.793 Y158.067 E3.08452
G1 X152.434 Y157.933 E3.11066
G1 X153.005 Y157.748 E3.13461
G1 X153.38 Y157.576 E3.15108
G1 X153.628 Y157.43 E3.16256
G1 X153.952 Y157.182 E3.17885
G1 X154.142 Y156.994 E3.18952
G1 X154.338 Y156.739 E3.20235
G1 X154.649 Y156.153 E3.22883
G1 X154.806 Y155.75 E3.24609
G1 X155.122 Y154.689 E3.29028
G1 X156.178 Y150.656 E3.45667
G1 X156.196 Y150.59 E3.4594
G1 X158.254 Y143.803 E3.74247
G1 X158.287 Y143.706 E3.74655
G1 X159.721 Y139.787 E3.91311
G1 X159.779 Y139.647 E3.91916
G1 X160.276 Y138.578 E3.96621
G1 X160.335 Y138.462 E3.97141
G1 X160.963 Y137.333 E4.02297
G1 X161.057 Y137.181 E4.0301
G1 X161.625 Y136.363 E4.06985
G1 X161.716 Y136.244 E4.07583
G1 X162.119 Y135.756 E4.10109
G1 X162.233 Y135.63 E4.10787
G1 X162.849 Y135.013 E4.14267
G1 X162.96 Y134.911 E4.14869
G1 X163.726 Y134.263 E4.18873
G1 X163.845 Y134.171 E4.19473
G1 X164.749 Y133.527 E4.23903
G1 X164.854 Y133.457 E4.24407
G1 X165.824 Y132.864 E4.28945
G1 X165.953 Y132.793 E4.29532
G1 X167.65 Y131.938 E4.37117
G1 X167.837 Y131.856 E4.37932
G1 X169.177 Y131.362 E4.43632
G1 X169.238 Y131.341 E4.43889
G1 X170.017 Y131.085 E4.47162
G1 X170.158 Y131.045 E4.47747
G1 X173.679 Y130.198 E4.62201
G1 X173.806 Y130.172 E4.62718
G1 X177.618 Y129.542 E4.78139
G1 X177.729 Y129.527 E4.78586
G1 X181.834 Y129.107 E4.95056
G1 X181.927 Y129.1 E4.95428
G1 X186.277 Y128.882 E5.12811
G1 X186.352 Y128.88 E5.13111
G1 X193.884 Y128.816 E5.43174
G1 X193.955 Y128.817 E5.43457
G1 X199.653 Y128.994 E5.6621
G1 X199.796 Y129.004 E5.66782
G1 X203.038 Y129.364 E5.79801
G1 X203.223 Y129.394 E5.80549
G1 X204.204 Y129.608 E5.84557
G1 X204.334 Y129.642 E5.85093
G1 X205.368 Y129.95 E5.89399
G1 X205.54 Y130.011 E5.90128
G1 X206.428 Y130.377 E5.93961
G1 X206.603 Y130.461 E5.94736
G1 X207.568 Y130.987 E5.99122
G1 X207.645 Y131.031 E5.99476
G1 X208.035 Y131.269 E6.013
G1 X208.158 Y131.351 E6.0189
G1 X208.968 Y131.942 E6.05892
G1 X209.04 Y131.997 E6.06253
G1 X209.576 Y132.431 E6.09006
G1 X209.698 Y132.54 E6.09659
G1 X210.391 Y133.214 E6.13517
G1 X210.508 Y133.339 E6.14201
G1 X211.168 Y134.116 E6.1827
G1 X211.282 Y134.265 E6.19018
G1 X211.867 Y135.12 E6.23153
G1 X211.949 Y135.253 E6.23777
G1 X212.458 Y136.157 E6.27918
G1 X212.528 Y136.294 E6.28532
G1 X213.307 Y138.004 E6.36031
G1 X213.344 Y138.09 E6.36405
G1 X214.599 Y141.275 E6.50068
G1 X214.616 Y141.322 E6.50268
G1 X215.394 Y143.468 E6.59378
G1 X215.416 Y143.532 E6.59649
G1 X217.591 Y150.327 E6.88124
G1 X217.851 Y151.086 E6.91326
G1 X218.132 Y151.771 E6.94282
G1 X218.249 Y151.998 E6.95301
G1 X218.457 Y152.008 E6.96132
G1 X221.309 Y151.835 E7.07536
G1 X221.402 Y151.832 E7.07907
G1 X222.184 Y151.825 E7.11028
G1 X222.351 Y151.831 E7.11695
G1 X222.589 Y151.851 E7.12649
G1 X222.961 Y151.923 E7.14161
G1 X223.414 Y152.133 E7.16154
G1 X223.62 Y152.266 E7.17132
G1 X223.915 Y152.504 E7.18645
G1 X224.154 Y152.798 E7.20158
G1 X224.376 Y153.287 E7.22301
G1 X224.439 Y153.509 E7.23222
G1 X224.507 Y154.004 E7.25216
G1 X224.503 Y155.673 E7.31878
G1 X224.503 Y155.683 E7.31917
G1 X224.491 Y157.163 E7.37825
G1 X224.557 Y160.391 E7.50711
G1 X224.661 Y161.834 E7.56485
G1 X224.663 Y162.063 E7.57399
G1 X224.645 Y162.385 E7.58686
G1 X224.584 Y162.759 E7.60199
G1 X224.447 Y163.112 E7.6171
G1 X224.238 Y163.429 E7.63226
G1 X223.845 Y163.784 E7.65339
G1 X223.645 Y163.917 E7.66298
G1 X223.309 Y164.092 E7.6781
G1 X223.088 Y164.163 E7.68736
G1 X218.281 Y165.374 E7.88522
G1 X212.666 Y167.011 E8.11865
G1 X212.597 Y167.03 E8.12151
G1 X211.287 Y167.356 E8.17539
G1 X211.221 Y167.371 E8.17809
G1 X202.877 Y169.119 E8.51835
G1 X202.834 Y169.127 E8.52009
G1 X198.572 Y169.913 E8.69307
G1 X198.488 Y169.927 E8.69647
G1 X193.551 Y170.597 E8.89532
G1 X193.44 Y170.608 E8.89977
G1 X185.507 Y171.185 E9.21723
G1 X185.376 Y171.19 E9.22246
G1 X183.105 Y171.19 E9.3131
G1 X181.546 Y171.184 E9.37533
G1 X181.504 Y171.183 E9.377
G1 X176.644 Y171.052 E9.57105
G1 X176.467 Y171.039 E9.57813
G1 X171.752 Y170.442 E9.76782
G1 X171.631 Y170.422 E9.77271
G1 X167.023 Y169.518 E9.96013
G1 X166.924 Y169.496 E9.96418
G1 X164.353 Y168.839 E10.07009
G1 X164.231 Y168.803 E10.07517
G1 X159.457 Y167.217 E10.27595
G1 X156.694 Y166.371 E10.39128
G1 X154.252 Y165.845 E10.49098
G1 X152.558 Y165.61 E10.55924
G1 X151.277 Y165.507 E10.61053
G1 X150.747 Y165.503 E10.63169
G1 X150.014 Y165.509 E10.66094
G1 X149.988 Y165.509 E10.66198
G1 X149.282 Y165.504 E10.69016
G1 X147.983 Y165.551 E10.74204
G1 X146.115 Y165.793 E10.81722
G1 X143.687 Y166.288 E10.91612
G1 X143.31 Y166.37 E10.93152
G1 X140.543 Y167.217 E11.04701
G1 X135.769 Y168.803 E11.24779
G1 X135.646 Y168.839 E11.25291
G1 X133.532 Y169.378 E11.33998
G1 X133.443 Y169.398 E11.34362
G1 X128.378 Y170.42 E11.54985
G1 X128.248 Y170.442 E11.55512
G1 X123.534 Y171.039 E11.74476
G1 X123.356 Y171.052 E11.75189
G1 X118.495 Y171.183 E11.94597
G1 X118.453 Y171.184 E11.94765
G1 X116.895 Y171.189 E12.00983
G1 X116.89 Y171.189 E12.01003
G1 X114.626 Y171.19 E12.10039
G1 X114.496 Y171.185 E12.10558
G1 X109.964 Y170.859 E12.28693
G1 X109.961 Y170.859 E12.28705
G1 X106.559 Y170.608 E12.4232
G1 X106.449 Y170.597 E12.42762
G1 X101.512 Y169.927 E12.62647
G1 X101.427 Y169.913 E12.62991
G1 X97.166 Y169.126 E12.80285
G1 X97.127 Y169.118 E12.80444
G1 X89.065 Y167.442 E13.13309
G1 X88.997 Y167.427 E13.13587
G1 X87.685 Y167.101 E13.18983
G1 X87.618 Y167.083 E13.19259
G1 X81.737 Y165.38 E13.43696
G1 X77.197 Y164.239 E13.6238
G1 X77.08 Y164.205 E13.62866
G1 X76.68 Y164.075 E13.64545
G1 X76.334 Y163.92 E13.66058
G1 X76.028 Y163.697 E13.67569
G1 X75.796 Y163.443 E13.68942
G1 X75.706 Y163.323 E13.69541
G1 X75.512 Y162.998 E13.71051
G1 X75.39 Y162.639 E13.72565
G1 X75.347 Y162.314 E13.73873
G1 X75.336 Y162.037 E13.7498
G1 X75.339 Y161.84 E13.75766
G1 X75.442 Y160.375 E13.81628
G1 X75.509 Y157.162 E13.94454
G1 X75.491 Y154.012 E14.07027
G1 X75.529 Y153.635 E14.08539
G1 X75.581 Y153.441 E14.09341
G1 X75.664 Y153.188 E14.10403
G1 X75.819 Y152.842 E14.11917
G1 X76.043 Y152.537 E14.13427
G1 X76.327 Y152.285 E14.14942
G1 X76.606 Y152.121 E14.16234
G1 X76.871 Y151.996 E14.17403
G1 X77.229 Y151.871 E14.18917
G1 X77.615 Y151.824 E14.20469
G1 X78.131 Y151.817 E14.22529
G1 X78.244 Y151.819 E14.2298
G1 X79.57 Y151.885 E14.28279
G1 X79.605 Y151.887 E14.28418
G1 X81.026 Y151.985 E14.34103
G1 X81.486 Y152.008 E14.35942
G1 X81.746 Y151.999 E14.3698
G1 X81.81 Y151.893 E14.37474
G1 X82.046 Y151.353 E14.39826
G1 X82.348 Y150.503 E14.43427
G1 X84.414 Y143.999 E14.70664
G1 X84.437 Y143.931 E14.7095
G1 X85.215 Y141.784 E14.80065
G1 X85.227 Y141.751 E14.80205
G1 X86.5 Y138.44 E14.94363
G1 X86.537 Y138.352 E14.94744
G1 X87.228 Y136.806 E15.01502
G1 X87.27 Y136.718 E15.01892
G1 X87.826 Y135.635 E15.0675
G1 X87.908 Y135.491 E15.07412
G1 X88.465 Y134.615 E15.11555
G1 X88.568 Y134.47 E15.12265
G1 X89.196 Y133.67 E15.16324
G1 X89.322 Y133.526 E15.17088
G1 X90.052 Y132.776 E15.21265
G1 X90.145 Y132.687 E15.21779
G1 X90.637 Y132.249 E15.24408
G1 X90.764 Y132.145 E15.25063
G1 X91.656 Y131.486 E15.2949
G1 X91.709 Y131.449 E15.29748
G0 F3600 X91.935 Y131.779
G1 F1500 X92.325 Y131.512 E15.31634
G1 X92.428 Y131.447 E15.3212
G1 X93.235 Y130.992 E15.35818
G1 X93.336 Y130.941 E15.36269
G1 X94.223 Y130.531 E15.40169
G1 X94.362 Y130.475 E15.40767
G1 X95.34 Y130.145 E15.44887
G1 X95.469 Y130.109 E15.45422
G1 X96.626 Y129.838 E15.50164
G1 X96.781 Y129.811 E15.50792
G1 X100.239 Y129.403 E15.6469
G1 X100.36 Y129.394 E15.65174
G1 X106.057 Y129.217 E15.87923
G1 X106.112 Y129.216 E15.88143
G1 X113.644 Y129.28 E16.18205
G1 X113.702 Y129.282 E16.18437
G1 X118.053 Y129.5 E16.35825
G1 X118.125 Y129.505 E16.36113
G1 X122.23 Y129.925 E16.52582
G1 X122.317 Y129.937 E16.52933
G1 X126.129 Y130.568 E16.68354
G1 X126.225 Y130.587 E16.68745
G1 X129.64 Y131.402 E16.82758
G1 X129.718 Y131.423 E16.8308
G1 X130.204 Y131.569 E16.85105
G1 X130.281 Y131.595 E16.8543
G1 X132.02 Y132.23 E16.92819
G1 X132.158 Y132.289 E16.93418
G1 X133.406 Y132.903 E16.98969
G1 X133.482 Y132.943 E16.99312
G1 X134.56 Y133.558 E17.04265
G1 X134.648 Y133.613 E17.04679
G1 X135.585 Y134.244 E17.09188
G1 X135.675 Y134.31 E17.09634
G1 X136.485 Y134.955 E17.13766
G1 X136.576 Y135.034 E17.14247
G1 X137.267 Y135.689 E17.18047
G1 X137.343 Y135.766 E17.18479
G1 X137.765 Y136.233 E17.20991
G1 X137.849 Y136.336 E17.21522
G1 X138.372 Y137.038 E17.25016
G1 X138.45 Y137.154 E17.25574
G1 X139.069 Y138.186 E17.30377
G1 X139.129 Y138.297 E17.3088
G1 X139.741 Y139.564 E17.36496
G1 X139.792 Y139.685 E17.3702
G1 X141.335 Y143.836 E17.54695
G1 X141.363 Y143.918 E17.55041
G1 X143.421 Y150.706 E17.83351
G1 X143.436 Y150.76 E17.83575
G1 X144.422 Y154.555 E17.99225
G1 X144.719 Y155.582 E18.03491
G1 X144.934 Y156.197 E18.06092
G1 X145.106 Y156.581 E18.07771
G1 X145.296 Y156.917 E18.09312
G1 X145.531 Y157.227 E18.10864
G1 X145.751 Y157.458 E18.12137
G1 X146.07 Y157.712 E18.13765
G1 X146.379 Y157.905 E18.15219
G1 X146.77 Y158.093 E18.16951
G1 X147.154 Y158.231 E18.18579
G1 X147.881 Y158.418 E18.21575
G1 X148.721 Y158.535 E18.2496
G1 X149.742 Y158.573 E18.29038
G1 X150.943 Y158.559 E18.33832
G1 X151.858 Y158.463 E18.37504
G1 X152.536 Y158.321 E18.40269
G1 X153.151 Y158.121 E18.4285
G1 X153.559 Y157.934 E18.44641
G1 X153.855 Y157.761 E18.4601
G1 X154.216 Y157.484 E18.47826
G1 X154.443 Y157.26 E18.49098
G1 X154.673 Y156.96 E18.50607
G1 X155.013 Y156.319 E18.53503
G1 X155.185 Y155.881 E18.55381
G1 X155.514 Y154.773 E18.59994
G1 X156.565 Y150.757 E18.76563
G1 X156.579 Y150.706 E18.76774
G1 X158.637 Y143.919 E19.0508
G1 X158.662 Y143.844 E19.05396
G1 X160.096 Y139.925 E19.22052
G1 X160.141 Y139.816 E19.22522
G1 X160.638 Y138.747 E19.27228
G1 X160.685 Y138.656 E19.27636
G1 X161.313 Y137.527 E19.32793
G1 X161.386 Y137.409 E19.33346
G1 X161.954 Y136.591 E19.37321
G1 X162.025 Y136.499 E19.37785
G1 X162.428 Y136.011 E19.40311
G1 X162.516 Y135.913 E19.40837
G1 X163.132 Y135.296 E19.44316
G1 X163.219 Y135.216 E19.44788
G1 X163.985 Y134.568 E19.48793
G1 X164.077 Y134.497 E19.49257
G1 X164.981 Y133.853 E19.53687
G1 X165.063 Y133.799 E19.54078
G1 X166.033 Y133.206 E19.58616
G1 X166.133 Y133.15 E19.59073
G1 X167.83 Y132.295 E19.66658
G1 X167.976 Y132.231 E19.67294
G1 X169.316 Y131.737 E19.72994
G1 X169.363 Y131.721 E19.73192
G1 X170.142 Y131.465 E19.76465
G1 X170.252 Y131.434 E19.76921
G1 X173.773 Y130.587 E19.91375
G1 X173.872 Y130.567 E19.91778
G1 X177.684 Y129.937 E20.07199
G1 X177.77 Y129.925 E20.07546
G1 X181.875 Y129.505 E20.24015
G1 X181.947 Y129.5 E20.24303
G1 X186.297 Y129.282 E20.41687
G1 X186.355 Y129.28 E20.41918
G1 X193.887 Y129.216 E20.71981
G1 X193.942 Y129.217 E20.72201
G1 X199.64 Y129.394 E20.94954
G1 X199.752 Y129.402 E20.95402
G1 X202.994 Y129.762 E21.08421
G1 X203.137 Y129.785 E21.08999
G1 X204.118 Y129.999 E21.13006
G1 X204.22 Y130.025 E21.13427
G1 X205.254 Y130.333 E21.17733
G1 X205.387 Y130.381 E21.18297
G1 X206.275 Y130.747 E21.2213
G1 X206.412 Y130.812 E21.22736
G1 X207.377 Y131.338 E21.27122
G1 X207.436 Y131.372 E21.27394
G1 X207.826 Y131.61 E21.29218
G1 X207.922 Y131.674 E21.29678
G1 X208.732 Y132.265 E21.3368
G1 X208.788 Y132.308 E21.33962
G1 X209.324 Y132.742 E21.36714
G1 X209.419 Y132.826 E21.37221
G1 X210.112 Y133.5 E21.41079
G1 X210.203 Y133.598 E21.41613
G1 X210.863 Y134.375 E21.45682
G1 X210.951 Y134.49 E21.4626
G1 X211.536 Y135.345 E21.50394
G1 X211.601 Y135.449 E21.50884
G1 X212.11 Y136.353 E21.55025
G1 X212.164 Y136.46 E21.55503
G1 X212.943 Y138.17 E21.63003
G1 X212.972 Y138.237 E21.63294
G1 X214.227 Y141.422 E21.76957
G1 X214.24 Y141.458 E21.7711
G1 X215.018 Y143.604 E21.86221
G1 X215.035 Y143.654 E21.86432
G1 X217.213 Y150.456 E22.14938
G1 X217.48 Y151.236 E22.18228
G1 X217.768 Y151.938 E22.21257
G1 X217.922 Y152.235 E22.22592
G1 X218.026 Y152.36 E22.23241
G1 X218.148 Y152.394 E22.23746
G1 X218.461 Y152.409 E22.24997
G1 X221.333 Y152.235 E22.36481
G1 X221.405 Y152.232 E22.36768
G1 X222.187 Y152.225 E22.3989
G1 X222.317 Y152.23 E22.40409
G1 X222.555 Y152.25 E22.41362
G1 X222.882 Y152.317 E22.42694
G1 X223.197 Y152.469 E22.4409
G1 X223.403 Y152.602 E22.45069
G1 X223.66 Y152.815 E22.46401
G1 X223.86 Y153.083 E22.47736
G1 X223.991 Y153.396 E22.4909
G1 X224.054 Y153.618 E22.50011
G1 X224.107 Y154.003 E22.51562
G1 X224.103 Y155.672 E22.58224
G1 X224.103 Y155.68 E22.58256
G1 X224.091 Y157.171 E22.64207
G1 X224.158 Y160.409 E22.77133
G1 X224.262 Y161.863 E22.82951
G1 X224.264 Y162.041 E22.83662
G1 X224.246 Y162.363 E22.84949
G1 X224.188 Y162.692 E22.86282
G1 X224.053 Y162.998 E22.87617
G1 X223.85 Y163.263 E22.88949
G1 X223.623 Y163.451 E22.90126
G1 X223.423 Y163.584 E22.91084
G1 X222.99 Y163.776 E22.92975
G1 X218.156 Y164.994 E23.12871
G1 X212.554 Y166.627 E23.36161
G1 X212.5 Y166.642 E23.36384
G1 X211.19 Y166.968 E23.41772
G1 X211.139 Y166.979 E23.41981
G1 X202.795 Y168.727 E23.76006
G1 X202.762 Y168.734 E23.76141
G1 X198.5 Y169.52 E23.93438
G1 X198.434 Y169.53 E23.93705
G1 X193.497 Y170.2 E24.1359
G1 X193.411 Y170.209 E24.13935
G1 X185.478 Y170.786 E24.45681
G1 X185.376 Y170.79 E24.46088
G1 X183.107 Y170.79 E24.55145
G1 X181.548 Y170.784 E24.61367
G1 X181.515 Y170.783 E24.61499
G1 X176.655 Y170.652 E24.80903
G1 X176.517 Y170.642 E24.81455
