;FLAVOR:Marlin
;TIME:3315
;Filament used: 1.74341m
;Layer height: 0.12
;MINX:83.15
;MINY:134.193
;MINZ:0.24
;MAXX:216.847
;MAXY:201.811
;MAXZ:5.88
;Generated with Cura_SteamEngine 4.4.1
M140 S80
M105
M190 S80
M104 S230
M105
M109 S230
M82 ;absolute extrusion mode
G28 ;Home
G1 Z15.0 F6000 ;Move the platform down 15mm
;Prime the extruder
G92 E0
G1 F200 E3
G92 E0
G92 E0
G92 E0
G1 F1500 E-6.5
;LAYER_COUNT:48
;LAYER:0
M107
G1 F600 Z0.74
G0 F3600 X84.062 Y153.909 Z0.74
;TYPE:SKIRT
G1 F600 Z0.24
G1 F1500 E0
G1 X84.409 Y153.757 E0.01512
G1 X84.95 Y153.674 E0.03697
G1 X147.23 Y153.673 E2.52269
G1 X177.006 Y153.667 E3.71112
G1 X178.994 Y153.568 E3.79056
G1 X180.894 Y153.272 E3.86731
G1 X182.768 Y152.777 E3.94467
G1 X184.57 Y152.095 E4.02157
G1 X186.307 Y151.223 E4.09914
G1 X187.927 Y150.19 E4.17583
G1 X188.334 Y149.863 E4.19667
G1 X188.341 Y149.857 E4.19703
G1 X189.474 Y148.956 E4.25481
G1 X193.816 Y145.126 E4.48589
G1 X204.439 Y135.762 E5.05109
G1 X204.57 Y135.657 E5.05779
G1 X205.192 Y135.204 E5.0885
G1 X205.404 Y135.071 E5.09849
G1 X205.945 Y134.782 E5.12297
G1 X206.226 Y134.662 E5.13516
G1 X206.952 Y134.421 E5.1657
G1 X207.199 Y134.358 E5.17587
G1 X207.807 Y134.248 E5.20053
G1 X208.107 Y134.219 E5.21256
G1 X210.335 Y134.194 E5.30149
G1 X210.355 Y134.194 E5.30229
G1 X214.051 Y134.193 E5.4498
G1 X214.497 Y134.249 E5.46774
G1 X214.712 Y134.304 E5.4766
G1 X215.067 Y134.436 E5.49172
G1 X215.459 Y134.7 E5.51058
G1 X215.625 Y134.847 E5.51943
G1 X215.881 Y135.127 E5.53457
G1 X216.119 Y135.568 E5.55457
G1 X216.197 Y135.778 E5.56351
G1 X216.291 Y136.145 E5.57864
G1 X216.298 Y136.614 E5.59736
G1 X216.272 Y136.836 E5.60628
G1 X216.188 Y137.206 E5.62142
G1 X215.966 Y137.648 E5.64116
G1 X215.842 Y137.828 E5.64989
G1 X215.551 Y138.157 E5.66742
G1 X197.731 Y153.883 E6.616
G1 X197.663 Y153.94 E6.61954
G1 X195.432 Y155.721 E6.73348
G1 X195.292 Y155.822 E6.74037
G1 X192.899 Y157.382 E6.85438
G1 X192.748 Y157.47 E6.86136
G1 X190.216 Y158.79 E6.97532
G1 X190.057 Y158.863 E6.98231
G1 X187.407 Y159.932 E7.09635
G1 X187.243 Y159.99 E7.1033
G1 X184.504 Y160.797 E7.21726
G1 X184.335 Y160.838 E7.2242
G1 X181.528 Y161.378 E7.33829
G1 X181.354 Y161.402 E7.3453
G1 X178.512 Y161.666 E7.45922
G1 X178.426 Y161.672 E7.46266
G1 X112.27 Y164.606 E10.10569
G1 X85.03 Y165.813 E11.19396
G1 X84.652 Y165.79 E11.20907
G1 X84.287 Y165.688 E11.2242
G1 X83.951 Y165.512 E11.23934
G1 X83.66 Y165.27 E11.25444
G1 X83.425 Y164.972 E11.26959
G1 X83.259 Y164.632 E11.28469
G1 X83.167 Y164.264 E11.29983
G1 X83.15 Y164.015 E11.30979
G1 X83.15 Y155.474 E11.65068
G1 X83.19 Y155.097 E11.66582
G1 X83.308 Y154.737 E11.68094
G1 X83.498 Y154.41 E11.69603
G1 X83.753 Y154.129 E11.71118
G1 X84.062 Y153.909 E11.72631
G0 F3600 X84.143 Y154.33
G1 F1500 X84.437 Y154.171 E11.73965
G1 X84.761 Y154.087 E11.75301
G1 X84.95 Y154.074 E11.76058
G1 X147.23 Y154.073 E14.2463
G1 X177.026 Y154.067 E15.43553
G1 X179.027 Y153.968 E15.51549
G1 X180.972 Y153.664 E15.59406
G1 X182.894 Y153.157 E15.6734
G1 X184.736 Y152.459 E15.75202
G1 X186.501 Y151.574 E15.83082
G1 X188.161 Y150.515 E15.90941
G1 X188.584 Y150.175 E15.93107
G1 X188.59 Y150.17 E15.93138
G1 X189.736 Y149.259 E15.98981
G1 X194.081 Y145.426 E16.22106
G1 X204.704 Y136.062 E16.78626
G1 X204.806 Y135.98 E16.79148
G1 X205.428 Y135.527 E16.82219
G1 X205.592 Y135.424 E16.82992
G1 X206.133 Y135.135 E16.8544
G1 X206.352 Y135.041 E16.86391
G1 X207.078 Y134.8 E16.89445
G1 X207.27 Y134.751 E16.90235
G1 X207.878 Y134.641 E16.92702
G1 X208.111 Y134.619 E16.93636
G1 X210.339 Y134.594 E17.02529
G1 X210.355 Y134.594 E17.02592
G1 X214.051 Y134.593 E17.17344
G1 X214.398 Y134.637 E17.1874
G1 X214.613 Y134.692 E17.19626
G1 X214.924 Y134.812 E17.20956
G1 X215.194 Y135 E17.22269
G1 X215.36 Y135.147 E17.23154
G1 X215.582 Y135.397 E17.24489
G1 X215.744 Y135.708 E17.25888
G1 X215.822 Y135.918 E17.26782
G1 X215.901 Y136.242 E17.28113
G1 X215.9 Y136.568 E17.29415
G1 X215.874 Y136.79 E17.30307
G1 X215.796 Y137.115 E17.31641
G1 X215.637 Y137.421 E17.33017
G1 X215.513 Y137.601 E17.33889
G1 X215.286 Y137.857 E17.35255
G1 X197.466 Y153.583 E18.30113
G1 X197.413 Y153.627 E18.30388
G1 X195.182 Y155.408 E18.41782
G1 X195.074 Y155.487 E18.42316
G1 X192.681 Y157.047 E18.53717
G1 X192.563 Y157.115 E18.54261
G1 X190.031 Y158.435 E18.65657
G1 X189.908 Y158.492 E18.66199
G1 X187.258 Y159.561 E18.77603
G1 X187.13 Y159.606 E18.78145
G1 X184.391 Y160.413 E18.89542
G1 X184.259 Y160.445 E18.90084
G1 X181.452 Y160.985 E19.01492
G1 X181.317 Y161.004 E19.02037
G1 X178.475 Y161.268 E19.13428
G1 X178.408 Y161.273 E19.13697
G1 X112.252 Y164.207 E21.77999
G1 X85.012 Y165.414 E22.86826
G1 X84.679 Y165.389 E22.88159
G1 X84.361 Y165.285 E22.89495
G1 X84.077 Y165.11 E22.90826
G1 X83.843 Y164.872 E22.92158
G1 X83.671 Y164.585 E22.93494
G1 X83.573 Y164.266 E22.94825
G1 X83.55 Y164.015 E22.95831
G1 X83.55 Y155.474 E23.2992
G1 X83.59 Y155.142 E23.31255
G1 X83.707 Y154.83 E23.32585
G1 X83.895 Y154.553 E23.33921
G1 X84.143 Y154.33 E23.35252
G0 F3600 X84.525 Y154.569
G1 F1500 X84.795 Y154.486 E23.3638
G1 X84.95 Y154.474 E23.37
G1 X147.23 Y154.473 E25.85573
G1 X177.025 Y154.467 E27.04491
G1 X179.072 Y154.365 E27.12672
G1 X181.06 Y154.055 E27.20702
G1 X183.012 Y153.54 E27.28759
G1 X184.895 Y152.827 E27.36796
G1 X186.698 Y151.923 E27.44846
G1 X188.393 Y150.841 E27.52872
G1 X188.835 Y150.486 E27.55134
G1 X188.839 Y150.483 E27.55154
G1 X189.988 Y149.57 E27.61012
G1 X194.345 Y145.726 E27.84202
G1 X204.968 Y136.362 E28.40721
G1 X205.041 Y136.304 E28.41093
G1 X205.663 Y135.851 E28.44165
G1 X205.781 Y135.777 E28.44721
G1 X206.322 Y135.488 E28.47169
G1 X206.478 Y135.421 E28.47846
G1 X207.204 Y135.18 E28.50899
G1 X207.341 Y135.145 E28.51464
G1 X207.949 Y135.035 E28.5393
G1 X208.116 Y135.019 E28.54599
G1 X210.344 Y134.994 E28.63492
G1 X210.355 Y134.994 E28.63536
G1 X214.051 Y134.993 E28.78288
G1 X214.299 Y135.024 E28.79285
G1 X214.514 Y135.079 E28.80171
G1 X214.775 Y135.187 E28.81298
G1 X214.929 Y135.299 E28.82058
G1 X215.095 Y135.446 E28.82943
G1 X215.278 Y135.661 E28.8407
G1 X215.369 Y135.847 E28.84897
G1 X215.447 Y136.057 E28.85791
G1 X215.507 Y136.333 E28.86918
G1 X215.503 Y136.521 E28.87669
G1 X215.477 Y136.743 E28.88561
G1 X215.405 Y137.016 E28.89688
G1 X215.308 Y137.194 E28.90497
G1 X215.184 Y137.374 E28.91369
G1 X215.022 Y137.557 E28.92344
G1 X197.202 Y153.283 E29.87203
G1 X197.164 Y153.315 E29.87401
G1 X194.933 Y155.096 E29.98795
G1 X194.855 Y155.152 E29.99178
G1 X192.462 Y156.712 E30.10579
G1 X192.378 Y156.761 E30.10967
G1 X189.846 Y158.081 E30.22364
G1 X189.758 Y158.121 E30.2275
G1 X187.108 Y159.19 E30.34155
G1 X187.017 Y159.222 E30.3454
G1 X184.278 Y160.029 E30.45936
G1 X184.184 Y160.052 E30.46323
G1 X181.377 Y160.592 E30.57731
G1 X181.28 Y160.606 E30.58122
G1 X178.438 Y160.87 E30.69514
G1 X178.39 Y160.873 E30.69706
G1 X112.234 Y163.807 E33.34009
G1 X84.994 Y165.014 E34.42836
G1 X84.714 Y164.987 E34.43959
G1 X84.452 Y164.882 E34.45085
G1 X84.229 Y164.708 E34.46214
G1 X84.064 Y164.479 E34.47341
G1 X83.97 Y164.213 E34.48467
G1 X83.95 Y164.015 E34.49261
G1 X83.95 Y155.474 E34.8335
G1 X83.99 Y155.195 E34.84475
G1 X84.106 Y154.938 E34.856
G1 X84.289 Y154.723 E34.86727
G1 X84.525 Y154.569 E34.87852
G0 F3600 X84.676 Y154.94
G1 F1500 X84.95 Y154.874 E34.88977
G1 X147.23 Y154.873 E37.3755
G1 X177.045 Y154.867 E38.56548
G1 X179.106 Y154.765 E38.64784
G1 X181.146 Y154.446 E38.73025
G1 X183.133 Y153.922 E38.81227
G1 X185.058 Y153.193 E38.89442
G1 X186.891 Y152.273 E38.97628
G1 X188.627 Y151.166 E39.05845
G1 X189.085 Y150.798 E39.0819
G1 X189.088 Y150.796 E39.08205
G1 X190.25 Y149.873 E39.14128
G1 X194.61 Y146.026 E39.37335
G1 X205.233 Y136.662 E39.93854
G1 X205.277 Y136.627 E39.94079
G1 X205.899 Y136.174 E39.9715
G1 X205.969 Y136.13 E39.9748
G1 X206.51 Y135.841 E39.99928
G1 X206.604 Y135.801 E40.00336
G1 X207.33 Y135.56 E40.03389
G1 X207.412 Y135.539 E40.03726
G1 X208.02 Y135.429 E40.06193
G1 X208.12 Y135.419 E40.06594
G1 X210.348 Y135.394 E40.15487
G1 X210.355 Y135.394 E40.15515
G1 X214.051 Y135.393 E40.30266
G1 X214.2 Y135.412 E40.30866
G1 X214.415 Y135.467 E40.31751
G1 X214.664 Y135.599 E40.32876
G1 X214.83 Y135.746 E40.33761
G1 X214.994 Y135.986 E40.34921
G1 X215.072 Y136.196 E40.35815
G1 X215.106 Y136.475 E40.36937
G1 X215.08 Y136.697 E40.37829
G1 X214.978 Y136.967 E40.38981
G1 X214.854 Y137.147 E40.39854
G1 X214.757 Y137.257 E40.40439
G1 X196.937 Y152.983 E41.35297
G1 X196.914 Y153.002 E41.35416
G1 X194.683 Y154.783 E41.4681
G1 X194.637 Y154.817 E41.47038
G1 X192.244 Y156.377 E41.5844
G1 X192.193 Y156.406 E41.58674
G1 X189.661 Y157.726 E41.7007
G1 X189.608 Y157.75 E41.70303
G1 X186.958 Y158.819 E41.81708
G1 X186.904 Y158.839 E41.81937
G1 X184.165 Y159.646 E41.93334
G1 X184.108 Y159.659 E41.93567
G1 X181.301 Y160.199 E42.04976
G1 X181.243 Y160.207 E42.0521
G1 X178.401 Y160.471 E42.16602
G1 X178.373 Y160.473 E42.16714
G1 X112.217 Y163.407 E44.81016
G1 X84.977 Y164.614 E45.89843
G1 X84.76 Y164.584 E45.90718
G1 X84.569 Y164.479 E45.91588
G1 X84.429 Y164.312 E45.92457
G1 X84.35 Y164.015 E45.93684
G1 X84.35 Y155.474 E46.27773
G1 X84.39 Y155.259 E46.28646
G1 X84.503 Y155.073 E46.29515
G1 X84.676 Y154.94 E46.30385
G0 F3600 X84.789 Y155.355
G1 F1500 X84.95 Y155.274 E46.31105
G1 X147.23 Y155.273 E48.79678
G1 X177.045 Y155.267 E49.98676
G1 X179.149 Y155.163 E50.07084
G1 X181.233 Y154.837 E50.15502
G1 X183.25 Y154.305 E50.23828
G1 X185.216 Y153.561 E50.32218
G1 X187.092 Y152.619 E50.40596
G1 X188.866 Y151.488 E50.48993
G1 X189.336 Y151.11 E50.51401
G1 X189.337 Y151.109 E50.51406
G1 X190.512 Y150.175 E50.57397
G1 X194.875 Y146.326 E50.80618
G1 X205.498 Y136.962 E51.37138
G1 X205.512 Y136.95 E51.37211
G1 X206.134 Y136.497 E51.40283
G1 X206.158 Y136.483 E51.40393
G1 X206.699 Y136.194 E51.42842
G1 X206.73 Y136.18 E51.42977
G1 X207.456 Y135.939 E51.4603
G1 X207.483 Y135.932 E51.46142
G1 X208.091 Y135.822 E51.48608
G1 X208.125 Y135.819 E51.48744
G1 X210.353 Y135.794 E51.57637
G1 X210.355 Y135.794 E51.57645
G1 X214.051 Y135.793 E51.72396
G1 X214.101 Y135.799 E51.72597
G1 X214.316 Y135.854 E51.73483
G1 X214.399 Y135.898 E51.73858
G1 X214.565 Y136.045 E51.74743
G1 X214.619 Y136.125 E51.75128
G1 X214.697 Y136.335 E51.76022
G1 X214.709 Y136.428 E51.76397
G1 X214.683 Y136.65 E51.77289
G1 X214.649 Y136.74 E51.77673
G1 X214.525 Y136.92 E51.78545
G1 X214.492 Y136.957 E51.78743
G1 X196.672 Y152.683 E52.73601
G1 X196.665 Y152.689 E52.73638
G1 X194.434 Y154.47 E52.85032
G1 X194.418 Y154.482 E52.85112
G1 X192.025 Y156.042 E52.96513
G1 X192.008 Y156.051 E52.9659
G1 X189.476 Y157.371 E53.07986
G1 X189.459 Y157.379 E53.08061
G1 X186.809 Y158.448 E53.19466
G1 X186.791 Y158.455 E53.19543
G1 X184.052 Y159.262 E53.3094
G1 X184.033 Y159.266 E53.31017
G1 X181.226 Y159.806 E53.42426
G1 X181.206 Y159.809 E53.42507
G1 X178.364 Y160.073 E53.53899
G1 X178.355 Y160.074 E53.53935
G1 X112.199 Y163.008 E56.18237
G1 X84.959 Y164.215 E57.27065
G1 X84.839 Y164.181 E57.27563
G1 X84.762 Y164.083 E57.2806
G1 X84.75 Y164.015 E57.28336
G1 X84.75 Y155.474 E57.62425
G1 X84.789 Y155.355 E57.62924
G1 F1500 E51.12924
G0 F3600 X84.285 Y155.355
G0 X84.298 Y164.695
G0 X85.814 Y170.208
G1 F1500 E57.62924
G1 X87.518 Y170.186 E57.69726
G1 X87.541 Y170.186 E57.69818
G1 X91.412 Y170.187 E57.85268
G1 X91.595 Y170.196 E57.85999
G1 X92.36 Y170.274 E57.89068
G1 X92.594 Y170.314 E57.90016
G1 X93.191 Y170.456 E57.92465
G1 X93.477 Y170.55 E57.93666
G1 X94.182 Y170.849 E57.96723
G1 X94.41 Y170.966 E57.97746
G1 X94.936 Y171.284 E58.00199
G1 X95.097 Y171.393 E58.00975
G1 X95.465 Y171.674 E58.02823
G1 X95.564 Y171.756 E58.03336
G1 X110.509 Y184.949 E58.82901
G1 X112.06 Y186.183 E58.90812
G1 X113.697 Y187.227 E58.98561
G1 X115.418 Y188.091 E59.06247
G1 X117.239 Y188.779 E59.14016
G1 X119.104 Y189.272 E59.21716
G1 X121.003 Y189.568 E59.29387
G1 X122.997 Y189.671 E59.37356
G1 X199.877 Y189.671 E62.442
G1 X215.047 Y189.67 E63.04747
G1 X215.424 Y189.71 E63.0626
G1 X215.784 Y189.828 E63.07772
G1 X216.111 Y190.018 E63.09282
G1 X216.392 Y190.273 E63.10796
G1 X216.612 Y190.582 E63.1231
G1 X216.764 Y190.929 E63.13822
G1 X216.847 Y191.47 E63.16007
G1 X216.847 Y200.013 E63.50104
G1 X216.807 Y200.39 E63.51617
G1 X216.689 Y200.75 E63.53129
G1 X216.499 Y201.077 E63.54638
G1 X216.244 Y201.358 E63.56153
G1 X215.935 Y201.578 E63.57667
G1 X215.588 Y201.73 E63.59179
G1 X215.217 Y201.805 E63.60689
G1 X214.967 Y201.811 E63.61687
G1 X121.571 Y197.68 E67.34816
G1 X121.486 Y197.674 E67.35156
G1 X120.66 Y197.598 E67.38466
G1 X120.651 Y197.598 E67.38502
G1 X118.635 Y197.402 E67.46586
G1 X118.469 Y197.378 E67.47256
G1 X115.662 Y196.838 E67.58665
G1 X115.493 Y196.797 E67.59359
G1 X112.755 Y195.99 E67.70751
G1 X112.591 Y195.932 E67.71446
G1 X109.941 Y194.863 E67.82851
G1 X109.782 Y194.79 E67.83549
G1 X107.25 Y193.47 E67.94946
G1 X107.099 Y193.382 E67.95643
G1 X104.706 Y191.822 E68.07044
G1 X104.57 Y191.724 E68.07713
G1 X102.333 Y189.948 E68.19113
G1 X102.261 Y189.888 E68.19487
G1 X84.445 Y174.167 E69.14321
G1 X84.189 Y173.887 E69.15835
G1 X84.057 Y173.681 E69.16811
G1 X83.917 Y173.425 E69.17976
G1 X83.771 Y173.075 E69.1949
G1 X83.702 Y172.702 E69.21003
G1 X83.7 Y172.447 E69.22021
G1 X83.717 Y172.18 E69.23089
G1 X83.78 Y171.806 E69.24603
G1 X83.921 Y171.454 E69.26116
G1 X84.028 Y171.277 E69.26942
G1 X84.152 Y171.096 E69.27817
G1 X84.398 Y170.807 E69.29332
G1 X84.8 Y170.519 E69.31306
G1 X85 Y170.414 E69.32207
G1 X85.352 Y170.274 E69.33719
G1 X85.814 Y170.208 E69.35582
G0 F3600 X85.819 Y170.608
G1 F1500 X87.523 Y170.586 E69.42384
G1 X87.541 Y170.586 E69.42456
G1 X91.412 Y170.587 E69.57906
G1 X91.554 Y170.594 E69.58473
G1 X92.319 Y170.672 E69.61542
G1 X92.501 Y170.703 E69.62279
G1 X93.098 Y170.845 E69.64728
G1 X93.321 Y170.918 E69.65665
G1 X94.026 Y171.217 E69.68721
G1 X94.203 Y171.308 E69.69515
G1 X94.729 Y171.626 E69.71969
G1 X94.855 Y171.711 E69.72575
G1 X95.223 Y171.992 E69.74423
G1 X95.3 Y172.055 E69.7482
G1 X110.268 Y185.269 E70.5451
G1 X111.832 Y186.513 E70.62486
G1 X113.496 Y187.574 E70.70363
G1 X115.264 Y188.461 E70.78257
G1 X117.101 Y189.156 E70.86096
G1 X119.026 Y189.664 E70.94043
G1 X120.97 Y189.968 E71.01896
G1 X122.976 Y190.071 E71.09913
G1 X199.877 Y190.071 E74.16841
G1 X215.047 Y190.07 E74.77388
G1 X215.379 Y190.11 E74.78723
G1 X215.691 Y190.227 E74.80053
G1 X215.968 Y190.415 E74.81389
G1 X216.191 Y190.663 E74.8272
G1 X216.35 Y190.957 E74.84054
G1 X216.434 Y191.281 E74.8539
G1 X216.447 Y191.47 E74.86146
G1 X216.447 Y200.013 E75.20243
G1 X216.407 Y200.345 E75.21578
G1 X216.29 Y200.657 E75.22907
G1 X216.102 Y200.934 E75.24244
G1 X215.854 Y201.157 E75.25575
G1 X215.56 Y201.316 E75.26909
G1 X215.236 Y201.4 E75.28245
G1 X214.985 Y201.412 E75.29248
G1 X121.589 Y197.281 E79.02376
G1 X121.523 Y197.276 E79.0264
G1 X120.697 Y197.2 E79.05951
G1 X120.69 Y197.199 E79.05979
G1 X118.674 Y197.003 E79.14063
G1 X118.545 Y196.985 E79.14583
G1 X115.738 Y196.445 E79.25992
G1 X115.606 Y196.413 E79.26534
G1 X112.868 Y195.606 E79.37926
G1 X112.74 Y195.561 E79.38468
G1 X110.09 Y194.492 E79.49873
G1 X109.967 Y194.435 E79.50414
G1 X107.435 Y193.115 E79.61811
G1 X107.317 Y193.047 E79.62354
G1 X104.924 Y191.487 E79.73755
G1 X104.818 Y191.41 E79.74278
G1 X102.581 Y189.634 E79.85678
G1 X102.526 Y189.588 E79.85964
G1 X84.71 Y173.867 E80.80798
G1 X84.408 Y173.489 E80.82729
G1 X84.268 Y173.233 E80.83893
G1 X84.144 Y172.923 E80.85226
G1 X84.099 Y172.472 E80.87035
G1 X84.116 Y172.205 E80.88103
G1 X84.177 Y171.877 E80.89434
G1 X84.358 Y171.503 E80.91092
G1 X84.482 Y171.322 E80.91968
G1 X84.702 Y171.071 E80.933
G1 X84.986 Y170.873 E80.94682
G1 X85.186 Y170.768 E80.95584
G1 X85.498 Y170.65 E80.96915
