;FLAVOR:Marlin
;TIME:8987
;Filament used: 9.27662m
;Layer height: 0.16
;MINX:124.882
;MINY:90.695
;MINZ:0.3
;MAXX:175.118
;MAXY:209.326
;MAXZ:20.94
;Generated with Cura_SteamEngine 4.4.1
M140 S60
M105
M190 S60
M104 S230
M105
M109 S230
M82 ;absolute extrusion mode
G28 ;Home
G1 Z15.0 F6000 ;Move the platform down 15mm
;Prime the extruder
G92 E0
G1 F200 E3
G92 E0
G92 E0
G92 E0
G1 F1500 E-6.5
;LAYER_COUNT:130
;LAYER:0
M107
G1 F600 Z0.8
G0 F12000 X127.555 Y96.206 Z0.8
;TYPE:SKIRT
G1 F600 Z0.3
G1 F1500 E0
G1 F1800 X127.736 Y96.007 E0.01342
G1 X130.116 Y93.756 E0.17685
G1 X130.516 Y93.471 E0.20136
G1 X131.821 Y92.785 E0.27491
G1 X132.298 Y91.75 E0.33177
G1 X132.492 Y91.425 E0.35065
G1 X132.749 Y91.147 E0.36954
G1 X133.06 Y90.929 E0.38849
G1 X133.408 Y90.781 E0.40736
G1 X133.933 Y90.703 E0.43383
G1 X166.372 Y90.695 E2.05222
G1 X166.748 Y90.735 E2.07109
G1 X167.109 Y90.853 E2.09004
G1 X167.362 Y90.991 E2.10441
G1 X167.915 Y91.355 E2.13744
G1 X168.249 Y91.639 E2.15932
G1 X170.227 Y93.786 E2.30496
G1 X172.56 Y96.012 E2.46583
G1 X172.805 Y96.301 E2.48474
G1 X172.984 Y96.635 E2.50364
G1 X173.089 Y96.999 E2.52254
G1 X173.116 Y97.377 E2.54145
G1 X173.063 Y97.752 E2.56034
G1 X172.97 Y98.027 E2.57483
G1 X172.801 Y98.419 E2.59612
G1 X173.227 Y98.735 E2.62259
G1 X173.473 Y98.956 E2.63908
G1 X173.846 Y99.358 E2.66644
G1 X174.074 Y99.661 E2.68536
G1 X174.232 Y100.005 E2.70425
G1 X174.3 Y100.269 E2.71785
G1 X174.411 Y100.896 E2.74962
G1 X174.491 Y101.014 E2.75673
G1 X174.727 Y101.42 E2.78016
G1 X174.882 Y101.766 E2.79907
G1 X174.961 Y102.137 E2.818
G1 X174.961 Y102.516 E2.83691
G1 X174.842 Y102.994 E2.86148
G1 X174.206 Y104.582 E2.94682
G1 X174.265 Y104.663 E2.95182
G1 X174.369 Y104.875 E2.9636
G1 X174.981 Y106.354 E3.04346
G1 X175.088 Y106.717 E3.06234
G1 X175.118 Y107.042 E3.07862
G1 X175.118 Y109.527 E3.2026
G1 X175.078 Y109.904 E3.22151
G1 X174.971 Y110.239 E3.23906
G1 X174.359 Y111.66 E3.31625
G1 X174.233 Y111.883 E3.32903
G1 X174.836 Y113.359 E3.40857
G1 X174.942 Y113.723 E3.42749
G1 X174.969 Y114.101 E3.44639
G1 X174.916 Y114.476 E3.46529
G1 X174.72 Y114.955 E3.49111
G1 X174.531 Y115.275 E3.50965
G1 X174.526 Y115.412 E3.51649
G1 X174.469 Y115.799 E3.53601
G1 X174.344 Y116.282 E3.5609
G1 X174.294 Y116.577 E3.57583
G1 X174.192 Y116.942 E3.59473
G1 X174.016 Y117.278 E3.61366
G1 X173.797 Y117.546 E3.63092
G1 X173.596 Y117.749 E3.64518
G1 X173.702 Y117.811 E3.6513
G1 X173.983 Y118.066 E3.67023
G1 X174.203 Y118.375 E3.68916
G1 X174.355 Y118.722 E3.70806
G1 X174.43 Y119.093 E3.72694
G1 X174.426 Y119.472 E3.74585
G1 X174.342 Y119.842 E3.76478
G1 X174.183 Y120.186 E3.78369
G1 X173.956 Y120.489 E3.80258
G1 X173.707 Y120.711 E3.81922
G1 X172.836 Y121.354 E3.87323
G1 X172.837 Y121.506 E3.88081
G1 X172.889 Y121.656 E3.88873
G1 X172.936 Y122.064 E3.90922
G1 X172.934 Y137.627 E4.68567
G1 X172.934 Y137.63 E4.68582
G1 X172.925 Y143.817 E4.99449
G1 X172.885 Y144.193 E5.01335
G1 X172.877 Y144.216 E5.01457
G1 X172.882 Y144.23 E5.01531
G1 X172.928 Y144.636 E5.03569
G1 X172.926 Y154.551 E5.53035
G1 X172.933 Y166.748 E6.13887
G1 X172.893 Y167.125 E6.15778
G1 X172.876 Y167.175 E6.16041
G1 X172.923 Y167.575 E6.18051
G1 X172.922 Y169.671 E6.28508
G1 X172.925 Y177.692 E6.68525
G1 X173.049 Y207.519 E8.17333
G1 X173.011 Y207.896 E8.19224
G1 X172.894 Y208.256 E8.21112
G1 X172.705 Y208.584 E8.23001
G1 X172.451 Y208.866 E8.24894
G1 X172.144 Y209.088 E8.26785
G1 X171.797 Y209.24 E8.28675
G1 X171.249 Y209.326 E8.31442
G1 X129.039 Y209.326 E10.42029
G1 X128.662 Y209.286 E10.4392
G1 X128.302 Y209.168 E10.4581
G1 X127.975 Y208.978 E10.47697
G1 X127.694 Y208.723 E10.4959
G1 X127.474 Y208.414 E10.51482
G1 X127.322 Y208.067 E10.53372
G1 X127.239 Y207.516 E10.56152
G1 X127.364 Y184.773 E11.69619
G1 X127.367 Y167.575 E12.55421
G1 X127.407 Y167.198 E12.57312
G1 X127.412 Y167.184 E12.57386
G1 X127.402 Y167.156 E12.57534
G1 X127.355 Y166.749 E12.59578
G1 X127.353 Y155.972 E13.13345
G1 X127.353 Y155.971 E13.1335
G1 X127.36 Y144.634 E13.69911
G1 X127.4 Y144.257 E13.71802
G1 X127.413 Y144.217 E13.72012
G1 X127.402 Y144.182 E13.72195
G1 X127.364 Y143.818 E13.74021
G1 X127.355 Y137.969 E14.03202
G1 X127.355 Y137.966 E14.03217
G1 X127.351 Y122.066 E14.82542
G1 X127.371 Y121.859 E14.8358
G1 X126.547 Y121.221 E14.88779
G1 X126.274 Y120.959 E14.90666
G1 X126.061 Y120.645 E14.92559
G1 X125.919 Y120.294 E14.94448
G1 X125.849 Y119.798 E14.96948
G1 X125.849 Y119.271 E14.99577
G1 X125.889 Y118.894 E15.01468
G1 X126.007 Y118.534 E15.03358
G1 X126.197 Y118.207 E15.05245
G1 X126.452 Y117.926 E15.07138
G1 X126.514 Y117.882 E15.07517
G1 X126.373 Y117.741 E15.08512
G1 X126.132 Y117.471 E15.10318
G1 X125.911 Y117.163 E15.12209
G1 X125.759 Y116.816 E15.14099
G1 X125.698 Y116.561 E15.15407
G1 X125.599 Y115.954 E15.18476
G1 X125.501 Y115.588 E15.20366
G1 X125.445 Y115.236 E15.22144
G1 X125.279 Y114.953 E15.23781
G1 X125.122 Y114.608 E15.25672
G1 X125.041 Y114.237 E15.27567
G1 X125.039 Y113.858 E15.29457
G1 X125.164 Y113.359 E15.32024
G1 X125.765 Y111.888 E15.39952
G1 X125.73 Y111.839 E15.40252
G1 X125.64 Y111.66 E15.41252
G1 X125.028 Y110.237 E15.4898
G1 X124.916 Y109.875 E15.5087
G1 X124.882 Y109.526 E15.5262
G1 X124.882 Y107.043 E15.65007
G1 X124.922 Y106.666 E15.66899
G1 X125.019 Y106.355 E15.68524
G1 X125.631 Y104.875 E15.76514
G1 X125.792 Y104.578 E15.782
G1 X125.158 Y102.993 E15.86716
G1 X125.055 Y102.629 E15.88604
G1 X125.031 Y102.251 E15.90493
G1 X125.086 Y101.876 E15.92384
G1 X125.274 Y101.419 E15.9485
G1 X125.51 Y101.014 E15.97188
G1 X125.586 Y100.91 E15.97831
G1 X125.703 Y100.26 E16.01126
G1 X125.809 Y99.897 E16.03012
G1 X125.989 Y99.563 E16.04905
G1 X126.208 Y99.3 E16.06613
G1 X126.719 Y98.794 E16.10201
G1 X127.016 Y98.557 E16.12096
G1 X127.457 Y98.275 E16.14708
G1 X127.309 Y98.001 E16.16261
G1 X127.202 Y97.637 E16.18154
G1 X127.174 Y97.259 E16.20045
G1 X127.225 Y96.884 E16.21933
G1 X127.354 Y96.528 E16.23823
G1 X127.555 Y96.206 E16.25716
G0 F12000 X127.835 Y96.499
G1 F1800 X128.011 Y96.298 E16.27049
G1 X130.391 Y94.047 E16.43393
G1 X130.702 Y93.825 E16.45299
G1 X132.128 Y93.076 E16.53335
G1 X132.661 Y91.918 E16.59695
G1 X132.836 Y91.633 E16.61363
G1 X133.074 Y91.398 E16.63032
G1 X133.36 Y91.226 E16.64697
G1 X133.679 Y91.126 E16.66365
G1 X133.933 Y91.103 E16.67637
G1 X166.372 Y91.095 E18.29476
G1 X166.703 Y91.135 E18.3114
G1 X167.142 Y91.326 E18.33528
G1 X167.695 Y91.69 E18.36831
G1 X167.955 Y91.91 E18.3853
G1 X169.947 Y94.072 E18.53197
G1 X172.283 Y96.301 E18.69305
G1 X172.496 Y96.559 E18.70975
G1 X172.641 Y96.86 E18.72641
G1 X172.711 Y97.186 E18.74305
G1 X172.702 Y97.52 E18.75972
G1 X172.602 Y97.869 E18.77783
G1 X172.384 Y98.374 E18.80527
G1 X172.275 Y98.561 E18.81607
G1 X172.372 Y98.614 E18.82159
G1 X172.534 Y98.718 E18.83119
G1 X172.989 Y99.056 E18.85947
G1 X173.18 Y99.228 E18.87229
G1 X173.553 Y99.63 E18.89965
G1 X173.75 Y99.9 E18.91633
G1 X173.906 Y100.338 E18.93952
G1 X174.023 Y101.003 E18.97321
G1 X174.043 Y101.083 E18.97732
G1 X174.145 Y101.215 E18.98565
G1 X174.381 Y101.621 E19.00908
G1 X174.514 Y101.928 E19.02577
G1 X174.569 Y102.258 E19.04246
G1 X174.546 Y102.591 E19.05911
G1 X174.471 Y102.845 E19.07232
G1 X173.75 Y104.645 E19.16906
G1 X173.844 Y104.748 E19.17602
G1 X174 Y105.028 E19.19201
G1 X174.612 Y106.507 E19.27187
G1 X174.702 Y106.828 E19.2885
G1 X174.718 Y107.042 E19.2992
G1 X174.718 Y109.527 E19.42318
G1 X174.678 Y109.859 E19.43986
G1 X174.604 Y110.081 E19.45154
G1 X173.992 Y111.502 E19.52873
G1 X173.824 Y111.791 E19.54541
G1 X173.782 Y111.835 E19.54844
G1 X174.466 Y113.51 E19.63871
G1 X174.555 Y113.833 E19.65542
G1 X174.564 Y114.166 E19.67204
G1 X174.495 Y114.493 E19.68871
G1 X174.376 Y114.752 E19.70293
G1 X174.141 Y115.15 E19.72599
G1 X174.135 Y115.158 E19.72649
G1 X174.126 Y115.397 E19.73842
G1 X174.082 Y115.698 E19.7536
G1 X173.953 Y116.194 E19.77917
G1 X173.9 Y116.511 E19.7952
G1 X173.805 Y116.831 E19.81186
G1 X173.637 Y117.12 E19.82854
G1 X173.513 Y117.264 E19.83802
G1 X173.271 Y117.508 E19.85516
G1 X173.009 Y117.715 E19.87182
G1 X172.706 Y117.855 E19.88847
G1 X172.654 Y117.865 E19.89111
G1 X172.97 Y117.903 E19.90699
G1 X173.282 Y118.02 E19.92362
G1 X173.559 Y118.208 E19.94032
G1 X173.782 Y118.456 E19.95696
G1 X173.941 Y118.75 E19.97363
G1 X174.025 Y119.074 E19.99033
G1 X174.031 Y119.408 E20.007
G1 X173.957 Y119.733 E20.02363
G1 X173.808 Y120.032 E20.04029
G1 X173.469 Y120.389 E20.06486
G1 X172.414 Y121.168 E20.13028
G1 X172.44 Y121.29 E20.13651
G1 X172.432 Y121.556 E20.14978
G1 X172.508 Y121.785 E20.16182
G1 X172.536 Y122.064 E20.17581
G1 X172.534 Y137.627 E20.95225
G1 X172.534 Y137.629 E20.95235
G1 X172.525 Y143.816 E21.26102
G1 X172.485 Y144.148 E21.27771
G1 X172.457 Y144.229 E21.28198
G1 X172.5 Y144.359 E21.28881
G1 X172.528 Y144.636 E21.3027
G1 X172.526 Y154.551 E21.79736
G1 X172.533 Y166.748 E22.40588
G1 X172.493 Y167.08 E22.42256
G1 X172.458 Y167.181 E22.42789
G1 X172.493 Y167.285 E22.43337
G1 X172.523 Y167.575 E22.44791
G1 X172.522 Y169.671 E22.55248
G1 X172.525 Y177.693 E22.9527
G1 X172.649 Y207.52 E24.44079
G1 X172.611 Y207.852 E24.45746
G1 X172.495 Y208.165 E24.47411
G1 X172.308 Y208.442 E24.49079
G1 X172.06 Y208.667 E24.50749
G1 X171.767 Y208.827 E24.52415
G1 X171.444 Y208.912 E24.54081
G1 X171.249 Y208.926 E24.55057
G1 X129.039 Y208.926 E26.65643
G1 X128.707 Y208.886 E26.67312
G1 X128.395 Y208.769 E26.68974
G1 X128.118 Y208.581 E26.70644
G1 X127.895 Y208.333 E26.72308
G1 X127.736 Y208.039 E26.73976
G1 X127.652 Y207.715 E26.75645
G1 X127.639 Y207.518 E26.7663
G1 X127.764 Y184.775 E27.90097
G1 X127.767 Y167.575 E28.75909
G1 X127.807 Y167.243 E28.77577
G1 X127.832 Y167.173 E28.77948
G1 X127.783 Y167.027 E28.78716
G1 X127.755 Y166.749 E28.8011
G1 X127.753 Y155.972 E29.33877
G1 X127.753 Y155.971 E29.33882
G1 X127.76 Y144.634 E29.90442
G1 X127.8 Y144.302 E29.92111
G1 X127.831 Y144.21 E29.92595
G1 X127.786 Y144.062 E29.93367
G1 X127.764 Y143.817 E29.94594
G1 X127.755 Y137.968 E30.23775
G1 X127.755 Y137.966 E30.23785
G1 X127.751 Y122.066 E31.0311
G1 X127.778 Y121.794 E31.04474
G1 X127.8 Y121.685 E31.05029
G1 X126.792 Y120.905 E31.11387
G1 X126.554 Y120.67 E31.13056
G1 X126.379 Y120.386 E31.1472
G1 X126.275 Y120.068 E31.16389
G1 X126.249 Y119.798 E31.17743
G1 X126.249 Y119.271 E31.20372
G1 X126.289 Y118.939 E31.2204
G1 X126.406 Y118.627 E31.23703
G1 X126.594 Y118.35 E31.25373
G1 X126.842 Y118.127 E31.27037
G1 X127.136 Y117.968 E31.28704
G1 X127.393 Y117.901 E31.30029
G1 X127.105 Y117.802 E31.31549
G1 X126.824 Y117.621 E31.33216
G1 X126.672 Y117.474 E31.34271
G1 X126.431 Y117.204 E31.36077
G1 X126.239 Y116.93 E31.37746
G1 X126.093 Y116.497 E31.40026
G1 X125.99 Y115.866 E31.43216
G1 X125.888 Y115.485 E31.45183
G1 X125.857 Y115.144 E31.46892
G1 X125.843 Y115.124 E31.47013
G1 X125.623 Y114.75 E31.49178
G1 X125.489 Y114.444 E31.50845
G1 X125.432 Y114.115 E31.52511
G1 X125.454 Y113.781 E31.5418
G1 X125.534 Y113.511 E31.55585
G1 X126.219 Y111.833 E31.64628
G1 X126.151 Y111.757 E31.65136
G1 X126.008 Y111.502 E31.66595
G1 X125.396 Y110.079 E31.74323
G1 X125.301 Y109.759 E31.75989
G1 X125.282 Y109.526 E31.77155
G1 X125.282 Y107.043 E31.89543
G1 X125.322 Y106.711 E31.91211
G1 X125.388 Y106.508 E31.92276
G1 X126 Y105.028 E32.00266
G1 X126.164 Y104.737 E32.01932
G1 X126.249 Y104.646 E32.02554
G1 X125.529 Y102.845 E32.1223
G1 X125.443 Y102.522 E32.13898
G1 X125.436 Y102.188 E32.15565
G1 X125.508 Y101.862 E32.1723
G1 X125.619 Y101.62 E32.18559
G1 X125.855 Y101.215 E32.20897
G1 X125.963 Y101.072 E32.21791
G1 X125.966 Y101.062 E32.21843
G1 X126.097 Y100.331 E32.25548
G1 X126.195 Y100.012 E32.27213
G1 X126.366 Y99.725 E32.2888
G1 X126.49 Y99.584 E32.29817
G1 X127.001 Y99.078 E32.33405
G1 X127.232 Y98.894 E32.34878
G1 X127.923 Y98.452 E32.3897
G1 X127.989 Y98.412 E32.39355
G1 X128.012 Y98.399 E32.39487
G1 X127.947 Y98.255 E32.40275
G1 X127.797 Y98.075 E32.41444
G1 X127.651 Y97.774 E32.43113
G1 X127.579 Y97.448 E32.44779
G1 X127.587 Y97.114 E32.46446
G1 X127.675 Y96.792 E32.48111
G1 X127.835 Y96.499 E32.49777
G0 F12000 X128.149 Y96.748
G1 F1800 X128.286 Y96.588 E32.50828
G1 X130.666 Y94.337 E32.67171
G1 X130.888 Y94.179 E32.6853
G1 X132.435 Y93.366 E32.77249
G1 X133.025 Y92.085 E32.84286
G1 X133.178 Y91.848 E32.85693
G1 X133.391 Y91.663 E32.871
G1 X133.647 Y91.545 E32.88507
G1 X133.933 Y91.503 E32.89949
G1 X166.372 Y91.495 E34.51788
G1 X166.651 Y91.535 E34.53194
G1 X166.922 Y91.66 E34.54683
G1 X167.475 Y92.024 E34.57986
G1 X167.66 Y92.181 E34.59196
G1 X169.658 Y94.35 E34.73909
G1 X172.007 Y96.591 E34.90106
G1 X172.182 Y96.812 E34.91512
G1 X172.288 Y97.074 E34.92922
G1 X172.316 Y97.354 E34.94326
G1 X172.235 Y97.71 E34.96148
G1 X172.017 Y98.215 E34.98892
G1 X171.781 Y98.55 E35.00936
G1 X171.648 Y98.674 E35.01843
G1 X172.179 Y98.965 E35.04864
G1 X172.295 Y99.039 E35.05551
G1 X172.75 Y99.377 E35.08379
G1 X172.887 Y99.5 E35.09297
G1 X173.26 Y99.902 E35.12033
G1 X173.421 Y100.134 E35.13442
G1 X173.512 Y100.408 E35.14882
G1 X173.632 Y101.09 E35.18337
G1 X173.68 Y101.283 E35.19329
G1 X173.8 Y101.416 E35.20223
G1 X174.036 Y101.822 E35.22566
G1 X174.142 Y102.084 E35.23976
G1 X174.17 Y102.365 E35.25385
G1 X174.099 Y102.697 E35.27079
G1 X173.277 Y104.75 E35.38112
G1 X173.452 Y104.897 E35.39252
G1 X173.63 Y105.181 E35.40924
G1 X174.242 Y106.66 E35.4891
G1 X174.318 Y107.042 E35.50853
G1 X174.318 Y109.527 E35.6325
G1 X174.236 Y109.923 E35.65268
G1 X173.624 Y111.344 E35.72987
G1 X173.477 Y111.584 E35.74391
G1 X173.309 Y111.737 E35.75525
G1 X174.096 Y113.662 E35.859
G1 X174.165 Y113.935 E35.87305
G1 X174.154 Y114.217 E35.88713
G1 X174.031 Y114.548 E35.90475
G1 X173.796 Y114.946 E35.92781
G1 X173.739 Y115.017 E35.93235
G1 X173.726 Y115.383 E35.95062
G1 X173.695 Y115.598 E35.96146
G1 X173.56 Y116.12 E35.98836
G1 X173.505 Y116.444 E36.00475
G1 X173.419 Y116.713 E36.01884
G1 X173.229 Y116.982 E36.03527
G1 X172.987 Y117.226 E36.05242
G1 X172.762 Y117.396 E36.06649
G1 X172.499 Y117.497 E36.08054
G1 X172.29 Y117.514 E36.091
G1 X172.286 Y117.517 E36.09125
G1 X171.893 Y117.745 E36.11392
G1 X171.872 Y117.795 E36.11663
G1 X171.694 Y118.015 E36.13075
G1 X171.462 Y118.175 E36.14481
G1 X171.2 Y118.263 E36.15859
G1 X172.638 Y118.263 E36.23034
G1 X172.917 Y118.303 E36.2444
G1 X173.174 Y118.419 E36.25847
G1 X173.389 Y118.602 E36.27255
G1 X173.543 Y118.838 E36.28661
G1 X173.626 Y119.108 E36.3007
G1 X173.63 Y119.39 E36.31477
G1 X173.555 Y119.662 E36.32885
G1 X173.407 Y119.902 E36.34292
G1 X173.232 Y120.068 E36.35495
G1 X171.963 Y121.005 E36.43365
G1 X171.993 Y121.092 E36.43824
G1 X172.045 Y121.37 E36.45235
G1 X172.023 Y121.6 E36.46388
G1 X172.041 Y121.638 E36.46598
G1 X172.124 Y121.908 E36.48007
G1 X172.136 Y122.064 E36.48787
G1 X172.134 Y137.627 E37.26432
G1 X172.134 Y137.628 E37.26437
G1 X172.125 Y143.815 E37.57304
G1 X172.037 Y144.223 E37.59386
G1 X172.116 Y144.481 E37.60732
G1 X172.128 Y144.636 E37.61508
G1 X172.126 Y154.551 E38.10974
G1 X172.133 Y166.749 E38.7183
G1 X172.093 Y167.029 E38.73241
G1 X172.038 Y167.175 E38.74019
G1 X172.037 Y167.178 E38.74035
G1 X172.11 Y167.41 E38.75249
G1 X172.123 Y167.574 E38.76069
G1 X172.122 Y169.67 E38.86526
G1 X172.125 Y177.699 E39.26583
G1 X172.249 Y207.522 E40.75372
G1 X172.21 Y207.801 E40.76778
G1 X172.095 Y208.059 E40.78187
G1 X171.913 Y208.274 E40.79592
G1 X171.677 Y208.43 E40.81004
G1 X171.408 Y208.513 E40.82408
G1 X171.249 Y208.526 E40.83204
G1 X129.039 Y208.526 E42.9379
G1 X128.76 Y208.486 E42.95197
G1 X128.503 Y208.37 E42.96603
G1 X128.288 Y208.187 E42.98012
G1 X128.134 Y207.951 E42.99418
G1 X128.051 Y207.681 E43.00827
G1 X128.039 Y207.521 E43.01628
G1 X128.164 Y184.778 E44.15095
G1 X128.167 Y167.575 E45.00921
