;FLAVOR:Marlin
;TIME:829
;Filament used: 0.688347m
;Layer height: 0.16
;MINX:131.521
;MINY:140.721
;MINZ:0.3
;MAXX:167.787
;MAXY:161.099
;MAXZ:23.82
;Generated with Cura_SteamEngine 4.4.1
M140 S60
M105
M190 S60
M104 S230
M105
M109 S230
M82 ;absolute extrusion mode
G28 ;Home
G1 Z15.0 F6000 ;Move the platform down 15mm
;Prime the extruder
G92 E0
G1 F200 E3
G92 E0
G92 E0
G92 E0
G1 F1500 E-6.5
;LAYER_COUNT:148
;LAYER:0
M107
G1 F600 Z0.8
G0 F12000 X134.63 Y144.366 Z0.8
;TYPE:SKIRT
G1 F600 Z0.3
G1 F1500 E0
G1 F2700 X135.057 Y143.988 E0.02845
G1 X135.143 Y143.917 E0.03401
G1 X135.679 Y143.499 E0.06793
G1 X135.763 Y143.437 E0.07314
G1 X136.199 Y143.136 E0.09957
G1 X136.271 Y143.089 E0.10386
G1 X136.708 Y142.817 E0.12954
G1 X136.779 Y142.775 E0.13365
G1 X137.227 Y142.524 E0.15927
G1 X137.292 Y142.489 E0.16296
G1 X137.763 Y142.25 E0.18931
G1 X137.834 Y142.216 E0.19323
G1 X138.334 Y141.989 E0.22063
G1 X138.408 Y141.957 E0.22465
G1 X138.907 Y141.757 E0.25147
G1 X138.978 Y141.73 E0.25526
G1 X139.494 Y141.548 E0.28256
G1 X139.559 Y141.527 E0.28597
G1 X140.097 Y141.36 E0.31407
G1 X140.171 Y141.339 E0.31791
G1 X140.72 Y141.194 E0.34624
G1 X140.786 Y141.178 E0.34963
G1 X141.339 Y141.054 E0.3779
G1 X141.412 Y141.039 E0.38162
G1 X141.97 Y140.938 E0.40991
G1 X142.039 Y140.927 E0.4134
G1 X142.604 Y140.847 E0.44186
G1 X142.67 Y140.839 E0.44518
G1 X143.22 Y140.782 E0.47277
G1 X143.285 Y140.776 E0.47602
G1 X143.788 Y140.742 E0.50118
G1 X143.848 Y140.739 E0.50417
G1 X144.352 Y140.722 E0.52933
G1 X144.413 Y140.721 E0.53238
G1 X144.918 Y140.721 E0.55757
G1 X144.977 Y140.722 E0.56052
G1 X145.523 Y140.74 E0.58777
G1 X145.595 Y140.744 E0.59137
G1 X146.159 Y140.785 E0.61958
G1 X146.229 Y140.791 E0.62308
G1 X146.79 Y140.854 E0.65125
G1 X146.866 Y140.865 E0.65508
G1 X147.443 Y140.955 E0.68422
G1 X147.511 Y140.966 E0.68765
G1 X148.054 Y141.072 E0.71525
G1 X148.125 Y141.088 E0.71888
G1 X148.656 Y141.214 E0.74611
G1 X148.715 Y141.229 E0.74915
G1 X149.201 Y141.362 E0.77429
G1 X149.272 Y141.383 E0.77798
G1 X149.815 Y141.556 E0.80641
G1 X149.895 Y141.584 E0.81064
G1 X150.388 Y141.767 E0.83688
G1 X150.46 Y141.795 E0.84073
G1 X150.931 Y141.993 E0.86622
G1 X150.998 Y142.023 E0.86988
G1 X151.458 Y142.239 E0.89524
G1 X151.535 Y142.277 E0.89952
G1 X151.985 Y142.515 E0.92492
G1 X152.065 Y142.56 E0.9295
G1 X152.672 Y142.922 E0.96476
G1 X152.769 Y142.984 E0.9705
G1 X153.226 Y143.298 E0.99816
G1 X153.311 Y143.36 E1.00341
G1 X153.798 Y143.738 E1.03417
G1 X153.883 Y143.809 E1.0397
G1 X154.299 Y144.175 E1.06734
G1 X154.387 Y144.258 E1.07337
G1 X154.81 Y144.684 E1.10332
G1 X154.887 Y144.766 E1.10894
G1 X155.217 Y145.143 E1.13393
G1 X155.301 Y145.246 E1.14056
G1 X155.67 Y145.736 E1.17117
G1 X155.888 Y146.114 E1.19294
G1 X155.928 Y146.208 E1.19803
G1 X156.039 Y146.571 E1.21697
G1 X156.072 Y146.948 E1.23585
G1 X156.064 Y147.007 E1.23882
G1 X156.17 Y147.069 E1.24495
G1 X156.251 Y147.124 E1.24983
G1 X156.541 Y147.369 E1.26877
G1 X156.772 Y147.668 E1.28762
G1 X156.873 Y147.856 E1.29827
G1 X157.273 Y148.718 E1.34568
G1 X157.4 Y148.939 E1.3584
G1 X157.554 Y149.285 E1.37729
G1 X157.632 Y149.656 E1.39621
G1 X157.63 Y150.035 E1.41512
G1 X157.549 Y150.405 E1.43401
G1 X157.393 Y150.75 E1.4529
G1 X157.167 Y151.055 E1.47184
G1 X156.883 Y151.306 E1.49075
G1 X156.553 Y151.491 E1.50962
G1 X156.191 Y151.604 E1.52854
G1 X155.994 Y151.631 E1.53846
G1 X155.42 Y151.68 E1.56721
G1 X155.395 Y151.682 E1.56846
G1 X154.722 Y151.73 E1.60212
G1 X154.189 Y151.689 E1.62879
G1 X154.085 Y151.665 E1.63411
G1 X153.727 Y151.541 E1.65301
G1 X153.403 Y151.345 E1.67191
G1 X153.126 Y151.086 E1.69083
G1 X152.941 Y150.828 E1.70666
G1 X152.574 Y150.208 E1.74261
G1 X152.535 Y150.139 E1.74656
G1 X152.297 Y149.693 E1.77178
G1 X152.085 Y149.324 E1.79302
G1 X151.797 Y148.882 E1.81934
G1 X151.562 Y148.566 E1.83898
G1 X151.286 Y148.236 E1.86045
G1 X150.983 Y147.924 E1.88214
G1 X150.684 Y147.656 E1.90218
G1 X150.315 Y147.371 E1.92544
G1 X149.947 Y147.124 E1.94755
G1 X149.512 Y146.87 E1.97268
G1 X149.17 Y146.696 E1.99182
G1 X148.708 Y146.491 E2.01704
G1 X148.207 Y146.3 E2.04379
G1 X147.791 Y146.166 E2.06559
G1 X147.359 Y146.049 E2.08792
G1 X146.918 Y145.949 E2.11048
G1 X146.46 Y145.864 E2.13372
G1 X145.978 Y145.794 E2.15802
G1 X145.543 Y145.752 E2.17983
G1 X145.07 Y145.725 E2.20346
G1 X144.586 Y145.716 E2.22761
G1 X144.077 Y145.728 E2.25301
G1 X143.633 Y145.756 E2.27521
G1 X143.158 Y145.805 E2.29903
G1 X142.671 Y145.878 E2.3236
G1 X142.216 Y145.962 E2.34669
G1 X141.792 Y146.06 E2.3684
G1 X141.346 Y146.182 E2.39147
G1 X140.892 Y146.327 E2.41524
G1 X140.52 Y146.467 E2.43507
G1 X140.121 Y146.635 E2.45667
G1 X139.579 Y146.898 E2.48673
G1 X139.228 Y147.094 E2.50678
G1 X138.744 Y147.403 E2.53543
G1 X138.316 Y147.721 E2.56203
G1 X137.932 Y148.055 E2.58742
G1 X137.66 Y148.33 E2.60672
G1 X137.317 Y148.736 E2.63324
G1 X137.086 Y149.064 E2.65325
G1 X136.883 Y149.416 E2.67353
G1 X136.735 Y149.739 E2.69125
G1 X136.614 Y150.083 E2.70944
G1 X136.535 Y150.405 E2.72598
G1 X136.487 Y150.73 E2.74238
G1 X136.474 Y151.055 E2.7586
G1 X136.493 Y151.381 E2.77489
G1 X136.541 Y151.689 E2.79045
G1 X136.625 Y152.007 E2.80686
G1 X136.748 Y152.337 E2.82443
G1 X136.91 Y152.671 E2.84295
G1 X137.122 Y153.015 E2.8631
G1 X137.373 Y153.346 E2.88383
G1 X137.662 Y153.663 E2.90523
G1 X137.996 Y153.973 E2.92797
G1 X138.386 Y154.283 E2.95282
G1 X138.72 Y154.511 E2.973
G1 X139.219 Y154.81 E3.00202
G1 X139.522 Y155.038 E3.02094
G1 X139.77 Y155.324 E3.03982
G1 X139.954 Y155.656 E3.05876
G1 X140.037 Y155.933 E3.07319
G1 X165.987 Y155.933 E4.36784
G1 X166.364 Y155.973 E4.38675
G1 X166.724 Y156.091 E4.40565
G1 X167.051 Y156.281 E4.42452
G1 X167.332 Y156.536 E4.44345
G1 X167.552 Y156.845 E4.46238
G1 X167.704 Y157.192 E4.48128
G1 X167.787 Y157.74 E4.50893
G1 X167.782 Y158.947 E4.56915
G1 X167.741 Y159.324 E4.58806
G1 X167.621 Y159.684 E4.607
G1 X167.429 Y160.01 E4.62587
G1 X167.173 Y160.29 E4.6448
G1 X166.864 Y160.509 E4.6637
G1 X166.516 Y160.659 E4.6826
G1 X166.003 Y160.74 E4.70851
G1 X134.556 Y161.099 E6.27751
G1 X134.178 Y161.063 E6.29645
G1 X133.817 Y160.95 E6.31533
G1 X133.487 Y160.763 E6.33425
G1 X133.204 Y160.511 E6.35316
G1 X132.98 Y160.205 E6.37208
G1 X132.825 Y159.86 E6.39094
G1 X132.745 Y159.489 E6.40988
G1 X132.735 Y159.299 E6.41937
G1 X132.735 Y158.176 E6.4754
G1 X132.736 Y157.729 E6.4977
G1 X132.777 Y157.352 E6.51662
G1 X132.895 Y156.992 E6.53552
G1 X133.087 Y156.665 E6.55444
G1 X133.342 Y156.386 E6.5733
G1 X133.391 Y156.351 E6.5763
G1 X133.316 Y156.258 E6.58226
G1 X133.243 Y156.161 E6.58832
G1 X132.916 Y155.697 E6.61664
G1 X132.831 Y155.565 E6.62447
G1 X132.535 Y155.056 E6.65385
G1 X132.469 Y154.932 E6.66085
G1 X132.251 Y154.479 E6.68593
G1 X132.195 Y154.348 E6.69304
G1 X131.983 Y153.801 E6.72231
G1 X131.931 Y153.647 E6.73042
G1 X131.776 Y153.106 E6.7585
G1 X131.742 Y152.966 E6.76568
G1 X131.632 Y152.421 E6.79342
G1 X131.607 Y152.262 E6.80145
G1 X131.542 Y151.672 E6.83107
G1 X131.531 Y151.507 E6.83932
G1 X131.521 Y150.941 E6.86756
G1 X131.526 Y150.779 E6.87564
G1 X131.568 Y150.2 E6.90461
G1 X131.585 Y150.046 E6.91234
G1 X131.675 Y149.482 E6.94083
G1 X131.708 Y149.324 E6.94888
G1 X131.852 Y148.756 E6.97812
G1 X131.894 Y148.615 E6.98546
G1 X132.07 Y148.101 E7.01256
G1 X132.124 Y147.962 E7.02
G1 X132.389 Y147.357 E7.05295
G1 X132.46 Y147.212 E7.06101
G1 X132.76 Y146.666 E7.09209
G1 X132.83 Y146.55 E7.09885
G1 X133.115 Y146.113 E7.12488
G1 X133.177 Y146.024 E7.13029
G1 X133.51 Y145.575 E7.15818
G1 X133.594 Y145.47 E7.16489
G1 X134.028 Y144.968 E7.19799
G1 X134.12 Y144.869 E7.20474
G1 X134.553 Y144.438 E7.23522
G1 X134.63 Y144.366 E7.24048
G0 F12000 X134.895 Y144.666
G1 F2700 X135.322 Y144.288 E7.26893
G1 X135.389 Y144.232 E7.27328
G1 X135.925 Y143.814 E7.30719
G1 X135.991 Y143.766 E7.31127
G1 X136.427 Y143.465 E7.3377
G1 X136.482 Y143.428 E7.34101
G1 X136.919 Y143.156 E7.36669
G1 X136.975 Y143.124 E7.3699
G1 X137.423 Y142.873 E7.39552
G1 X137.473 Y142.846 E7.39836
G1 X137.944 Y142.607 E7.42471
G1 X137.999 Y142.58 E7.42777
G1 X138.499 Y142.353 E7.45516
G1 X138.557 Y142.328 E7.45831
G1 X139.056 Y142.128 E7.48513
G1 X139.111 Y142.108 E7.48805
G1 X139.627 Y141.926 E7.51535
G1 X139.678 Y141.909 E7.51803
G1 X140.216 Y141.742 E7.54614
G1 X140.273 Y141.725 E7.5491
G1 X140.822 Y141.58 E7.57743
G1 X140.874 Y141.568 E7.5801
G1 X141.427 Y141.444 E7.60837
G1 X141.484 Y141.432 E7.61128
G1 X142.042 Y141.331 E7.63957
G1 X142.095 Y141.323 E7.64224
G1 X142.66 Y141.243 E7.67071
G1 X142.712 Y141.236 E7.67333
G1 X143.262 Y141.179 E7.70091
G1 X143.312 Y141.175 E7.70342
G1 X143.815 Y141.141 E7.72857
G1 X143.862 Y141.139 E7.73092
G1 X144.366 Y141.122 E7.75607
G1 X144.413 Y141.121 E7.75842
G1 X144.918 Y141.121 E7.78361
G1 X144.964 Y141.122 E7.78591
G1 X145.51 Y141.14 E7.81316
G1 X145.566 Y141.143 E7.81596
G1 X146.13 Y141.184 E7.84418
G1 X146.184 Y141.189 E7.84688
G1 X146.745 Y141.252 E7.87505
G1 X146.805 Y141.26 E7.87806
G1 X147.382 Y141.35 E7.9072
G1 X147.434 Y141.359 E7.90983
G1 X147.977 Y141.465 E7.93743
G1 X148.032 Y141.477 E7.94024
G1 X148.563 Y141.603 E7.96747
G1 X148.61 Y141.615 E7.96989
G1 X149.096 Y141.748 E7.99503
G1 X149.151 Y141.764 E7.99789
G1 X149.694 Y141.937 E8.02632
G1 X149.756 Y141.959 E8.0296
G1 X150.249 Y142.142 E8.05584
G1 X150.305 Y142.163 E8.05882
G1 X150.776 Y142.361 E8.08431
G1 X150.828 Y142.385 E8.08717
G1 X151.288 Y142.601 E8.11252
G1 X151.348 Y142.63 E8.11585
G1 X151.798 Y142.868 E8.14124
G1 X151.86 Y142.904 E8.14482
G1 X152.467 Y143.266 E8.18008
G1 X152.543 Y143.314 E8.18456
G1 X153 Y143.628 E8.21223
G1 X153.065 Y143.676 E8.21626
G1 X153.552 Y144.054 E8.24701
G1 X153.619 Y144.109 E8.25134
G1 X154.035 Y144.475 E8.27898
G1 X154.103 Y144.54 E8.28368
G1 X154.526 Y144.966 E8.31363
G1 X154.586 Y145.03 E8.318
G1 X154.916 Y145.407 E8.343
G1 X154.981 Y145.487 E8.34814
G1 X155.35 Y145.977 E8.37875
G1 X155.52 Y146.271 E8.39569
G1 X155.56 Y146.365 E8.40079
G1 X155.653 Y146.686 E8.41746
G1 X155.668 Y147.019 E8.43409
G1 X155.627 Y147.227 E8.44467
G1 X155.783 Y147.305 E8.45337
G1 X155.945 Y147.4 E8.46274
G1 X156.026 Y147.455 E8.46762
G1 X156.278 Y147.674 E8.48428
G1 X156.51 Y148.024 E8.50523
G1 X156.916 Y148.899 E8.55335
G1 X157.054 Y149.139 E8.56716
G1 X157.185 Y149.446 E8.58382
G1 X157.24 Y149.775 E8.60046
G1 X157.215 Y150.108 E8.61712
G1 X157.111 Y150.426 E8.63381
G1 X156.936 Y150.71 E8.65045
G1 X156.698 Y150.945 E8.66714
G1 X156.411 Y151.117 E8.68383
G1 X155.96 Y151.233 E8.70706
G1 X155.386 Y151.282 E8.73581
G1 X155.367 Y151.283 E8.73676
G1 X154.694 Y151.331 E8.77042
G1 X154.279 Y151.299 E8.79118
G1 X154.175 Y151.275 E8.79651
G1 X153.861 Y151.162 E8.81316
G1 X153.583 Y150.977 E8.82982
G1 X153.285 Y150.624 E8.85286
G1 X152.918 Y150.004 E8.88881
G1 X152.888 Y149.951 E8.89185
G1 X152.646 Y149.497 E8.91751
G1 X152.424 Y149.11 E8.93977
G1 X152.134 Y148.666 E8.96623
G1 X151.868 Y148.307 E8.98852
G1 X151.584 Y147.968 E9.01059
G1 X151.261 Y147.637 E9.03366
G1 X150.938 Y147.347 E9.05532
G1 X150.549 Y147.046 E9.07985
G1 X150.15 Y146.778 E9.10383
G1 X149.724 Y146.53 E9.12843
G1 X149.32 Y146.324 E9.15105
G1 X148.887 Y146.132 E9.17468
G1 X148.323 Y145.917 E9.2048
G1 X147.91 Y145.784 E9.22644
G1 X147.45 Y145.659 E9.25022
G1 X146.978 Y145.552 E9.27437
G1 X146.545 Y145.472 E9.29634
G1 X146.03 Y145.397 E9.3223
G1 X145.58 Y145.353 E9.34486
G1 X145.075 Y145.324 E9.3701
G1 X144.585 Y145.316 E9.39454
G1 X144.068 Y145.328 E9.42035
G1 X143.617 Y145.356 E9.44289
G1 X143.081 Y145.412 E9.46978
G1 X142.629 Y145.479 E9.49257
G1 X142.124 Y145.573 E9.5182
G1 X141.709 Y145.668 E9.53944
G1 X141.215 Y145.804 E9.565
G1 X140.774 Y145.945 E9.5881
G1 X140.364 Y146.099 E9.60995
G1 X139.956 Y146.271 E9.63204
G1 X139.397 Y146.542 E9.66303
G1 X139.023 Y146.75 E9.68438
G1 X138.51 Y147.078 E9.71476
G1 X138.062 Y147.411 E9.74261
G1 X137.661 Y147.761 E9.76917
G1 X137.364 Y148.06 E9.79019
G1 X137.004 Y148.487 E9.81806
G1 X136.74 Y148.861 E9.8409
G1 X136.527 Y149.232 E9.86224
G1 X136.362 Y149.591 E9.88195
G1 X136.23 Y149.966 E9.90178
G1 X136.142 Y150.329 E9.92042
G1 X136.088 Y150.694 E9.93883
G1 X136.074 Y151.054 E9.9568
G1 X136.095 Y151.425 E9.97534
G1 X136.15 Y151.776 E9.99306
G1 X136.246 Y152.136 E10.01165
G1 X136.38 Y152.495 E10.03077
G1 X136.558 Y152.861 E10.05108
G1 X136.794 Y153.245 E10.07356
G1 X137.062 Y153.598 E10.09567
G1 X137.377 Y153.943 E10.11898
G1 X137.737 Y154.278 E10.14351
G1 X138.149 Y154.605 E10.16976
G1 X138.51 Y154.853 E10.19161
G1 X139.014 Y155.154 E10.2209
G1 X139.278 Y155.358 E10.23754
G1 X139.486 Y155.619 E10.25419
G1 X139.626 Y155.922 E10.27084
G1 X139.691 Y156.25 E10.28753
G1 X139.687 Y156.333 E10.29167
G1 X165.987 Y156.333 E11.60378
G1 X166.319 Y156.373 E11.62047
G1 X166.631 Y156.49 E11.63709
G1 X166.908 Y156.678 E11.65379
G1 X167.131 Y156.926 E11.67043
G1 X167.29 Y157.22 E11.68711
G1 X167.374 Y157.544 E11.70381
G1 X167.387 Y157.739 E11.71356
G1 X167.382 Y158.946 E11.77377
G1 X167.341 Y159.277 E11.79041
G1 X167.222 Y159.59 E11.80712
G1 X167.033 Y159.865 E11.82377
G1 X166.784 Y160.088 E11.84044
G1 X166.489 Y160.245 E11.85712
G1 X166.166 Y160.328 E11.87375
G1 X165.998 Y160.34 E11.88216
G1 X134.551 Y160.699 E13.45116
G1 X134.219 Y160.663 E13.46782
G1 X133.905 Y160.549 E13.48448
G1 X133.627 Y160.364 E13.50114
G1 X133.4 Y160.119 E13.51781
G1 X133.238 Y159.826 E13.53451
G1 X133.15 Y159.504 E13.55116
G1 X133.135 Y159.299 E13.56142
G1 X133.135 Y158.177 E13.6174
G1 X133.136 Y157.73 E13.6397
G1 X133.177 Y157.398 E13.65639
G1 X133.295 Y157.086 E13.67303
G1 X133.483 Y156.81 E13.68969
G1 X133.732 Y156.587 E13.70636
G1 X133.973 Y156.458 E13.72
G1 X133.908 Y156.354 E13.72612
G1 X133.626 Y156.006 E13.74847
G1 X133.57 Y155.93 E13.75318
G1 X133.243 Y155.466 E13.7815
G1 X133.177 Y155.364 E13.78756
G1 X132.881 Y154.855 E13.81693
G1 X132.829 Y154.758 E13.82243
G1 X132.611 Y154.305 E13.84751
G1 X132.568 Y154.204 E13.85298
G1 X132.356 Y153.657 E13.88225
G1 X132.315 Y153.537 E13.88858
G1 X132.16 Y152.996 E13.91665
G1 X132.134 Y152.887 E13.92224
G1 X132.024 Y152.342 E13.94998
G1 X132.004 Y152.218 E13.95625
G1 X131.939 Y151.628 E13.98586
G1 X131.931 Y151.5 E13.99226
G1 X131.921 Y150.934 E14.0205
G1 X131.925 Y150.808 E14.02679
G1 X131.967 Y150.229 E14.05576
G1 X131.98 Y150.109 E14.06178
G1 X132.07 Y149.545 E14.09027
G1 X132.096 Y149.422 E14.09654
G1 X132.24 Y148.854 E14.12578
G1 X132.272 Y148.744 E14.13149
G1 X132.448 Y148.23 E14.1586
G1 X132.491 Y148.122 E14.1644
G1 X132.756 Y147.517 E14.19735
G1 X132.811 Y147.405 E14.20357
G1 X133.111 Y146.859 E14.23466
G1 X133.165 Y146.768 E14.23993
G1 X133.45 Y146.331 E14.26596
G1 X133.499 Y146.262 E14.27019
G1 X133.832 Y145.813 E14.29807
G1 X133.897 Y145.731 E14.3033
G1 X134.331 Y145.229 E14.3364
G1 X134.402 Y145.153 E14.34159
G1 X134.835 Y144.722 E14.37207
G1 X134.895 Y144.666 E14.37617
G0 F12000 X135.16 Y144.965
G1 F2700 X135.587 Y144.587 E14.40462
G1 X135.635 Y144.547 E14.40773
G1 X136.171 Y144.129 E14.44165
G1 X136.218 Y144.095 E14.44454
G1 X136.654 Y143.794 E14.47097
G1 X136.694 Y143.768 E14.47335
G1 X137.131 Y143.496 E14.49903
G1 X137.17 Y143.473 E14.50129
G1 X137.618 Y143.222 E14.52691
G1 X137.654 Y143.202 E14.52897
G1 X138.125 Y142.963 E14.55532
G1 X138.165 Y142.944 E14.55752
G1 X138.665 Y142.717 E14.58492
G1 X138.706 Y142.7 E14.58713
G1 X139.205 Y142.5 E14.61396
G1 X139.244 Y142.485 E14.61604
G1 X139.76 Y142.303 E14.64334
G1 X139.797 Y142.291 E14.64528
G1 X140.335 Y142.124 E14.67338
G1 X140.376 Y142.112 E14.67551
G1 X140.925 Y141.967 E14.70384
G1 X140.961 Y141.958 E14.70569
G1 X141.514 Y141.834 E14.73397
G1 X141.555 Y141.826 E14.73605
G1 X142.113 Y141.725 E14.76434
G1 X142.151 Y141.719 E14.76626
