;FLAVOR:Marlin
;TIME:6191
;Filament used: 8.28231m
;Layer height: 0.16
;MINX:109.699
;MINY:113.2
;MINZ:0.3
;MAXX:190.302
;MAXY:186.8
;MAXZ:48.78
;Generated with Cura_SteamEngine 4.4.1
M104 S230
M105
M109 S230
M82 ;absolute extrusion mode
G28 ;Home
G1 Z15.0 F6000 ;Move the platform down 15mm
;Prime the extruder
G92 E0
G1 F200 E3
G92 E0
G92 E0
G92 E0
G1 F1500 E-6.5
;LAYER_COUNT:304
;LAYER:0
M107
G1 F600 Z0.8
G0 F12000 X118.445 Y113.655 Z0.8
;TYPE:SKIRT
G1 F600 Z0.3
G1 F1500 E0
G1 F2700 X118.754 Y113.435 E0.01892
G1 X119.101 Y113.283 E0.03782
G1 X119.642 Y113.2 E0.06513
G1 X184.02 Y113.2 E3.27696
G1 X184.397 Y113.24 E3.29588
G1 X184.757 Y113.358 E3.31478
G1 X185.084 Y113.548 E3.33364
G1 X185.365 Y113.803 E3.35258
G1 X185.585 Y114.112 E3.3715
G1 X185.737 Y114.459 E3.3904
G1 X185.82 Y115 E3.41771
G1 X185.82 Y160.98 E5.71166
G1 X185.823 Y185 E6.91002
G1 X185.783 Y185.377 E6.92893
G1 X185.665 Y185.737 E6.94784
G1 X185.475 Y186.064 E6.9667
G1 X185.22 Y186.345 E6.98563
G1 X184.911 Y186.565 E7.00456
G1 X184.564 Y186.717 E7.02346
G1 X184.023 Y186.8 E7.05077
G1 X119.643 Y186.8 E10.2627
G1 X119.266 Y186.76 E10.28161
G1 X118.906 Y186.642 E10.30051
G1 X118.579 Y186.452 E10.31938
G1 X118.298 Y186.197 E10.33831
G1 X118.078 Y185.888 E10.35723
G1 X117.926 Y185.541 E10.37613
G1 X117.843 Y185 E10.40344
G1 X117.842 Y115 E13.89576
G1 X117.882 Y114.623 E13.91467
G1 X118 Y114.263 E13.93357
G1 X118.19 Y113.936 E13.95244
G1 X118.445 Y113.655 E13.97137
G0 F12000 X118.835 Y113.856
G1 F2700 X119.129 Y113.697 E13.98804
G1 X119.453 Y113.613 E14.00474
G1 X119.642 Y113.6 E14.01419
G1 X184.02 Y113.6 E17.22603
G1 X184.352 Y113.64 E17.24271
G1 X184.664 Y113.757 E17.25933
G1 X184.941 Y113.945 E17.27604
G1 X185.164 Y114.193 E17.29268
G1 X185.323 Y114.487 E17.30935
G1 X185.407 Y114.811 E17.32605
G1 X185.42 Y115 E17.3355
G1 X185.42 Y160.98 E19.62945
G1 X185.423 Y185 E20.82781
G1 X185.383 Y185.332 E20.8445
G1 X185.266 Y185.644 E20.86112
G1 X185.078 Y185.921 E20.87782
G1 X184.83 Y186.144 E20.89446
G1 X184.536 Y186.303 E20.91114
G1 X184.212 Y186.387 E20.92784
G1 X184.023 Y186.4 E20.93729
G1 X119.643 Y186.4 E24.14922
G1 X119.311 Y186.36 E24.1659
G1 X118.999 Y186.243 E24.18253
G1 X118.722 Y186.055 E24.19923
G1 X118.499 Y185.807 E24.21587
G1 X118.34 Y185.513 E24.23254
G1 X118.256 Y185.189 E24.24924
G1 X118.243 Y185 E24.25869
G1 X118.242 Y115 E27.75101
G1 X118.282 Y114.668 E27.76769
G1 X118.399 Y114.356 E27.78432
G1 X118.587 Y114.079 E27.80102
G1 X118.835 Y113.856 E27.81766
G0 F12000 X118.981 Y114.249
G1 F2700 X119.217 Y114.095 E27.83172
G1 X119.487 Y114.012 E27.84581
G1 X119.642 Y114 E27.85357
G1 X184.02 Y114 E31.0654
G1 X184.299 Y114.04 E31.07946
G1 X184.556 Y114.156 E31.09353
G1 X184.771 Y114.339 E31.10761
G1 X184.925 Y114.575 E31.12167
G1 X185.008 Y114.845 E31.13576
G1 X185.02 Y115 E31.14352
G1 X185.02 Y160.98 E33.43747
G1 X185.023 Y185 E34.63583
G1 X184.983 Y185.279 E34.6499
G1 X184.867 Y185.536 E34.66396
G1 X184.684 Y185.751 E34.67805
G1 X184.448 Y185.905 E34.69211
G1 X184.178 Y185.988 E34.7062
G1 X184.023 Y186 E34.71396
G1 X119.643 Y186 E37.92589
G1 X119.364 Y185.96 E37.93995
G1 X119.107 Y185.844 E37.95402
G1 X118.892 Y185.661 E37.9681
G1 X118.738 Y185.425 E37.98216
G1 X118.655 Y185.155 E37.99625
G1 X118.643 Y185 E38.00401
G1 X118.642 Y115 E41.49632
G1 X118.682 Y114.721 E41.51039
G1 X118.798 Y114.464 E41.52445
G1 X118.981 Y114.249 E41.53854
G0 F12000 X119.195 Y114.599
G1 F2700 X119.368 Y114.466 E41.54943
G1 X119.642 Y114.4 E41.56349
G1 X184.02 Y114.4 E44.77532
G1 X184.235 Y114.44 E44.78623
G1 X184.421 Y114.553 E44.79709
G1 X184.554 Y114.726 E44.80797
G1 X184.62 Y115 E44.82203
G1 X184.62 Y160.98 E47.11599
G1 X184.623 Y185 E48.31435
G1 X184.583 Y185.215 E48.32526
G1 X184.47 Y185.401 E48.33612
G1 X184.297 Y185.534 E48.347
G1 X184.023 Y185.6 E48.36106
G1 X119.643 Y185.6 E51.573
G1 X119.428 Y185.56 E51.58391
G1 X119.242 Y185.447 E51.59476
G1 X119.109 Y185.274 E51.60565
G1 X119.043 Y185 E51.61971
G1 X119.042 Y115 E55.11203
G1 X119.082 Y114.785 E55.12294
G1 X119.195 Y114.599 E55.13379
G0 F12000 X119.481 Y114.881
G1 F2700 X119.642 Y114.8 E55.14279
G1 X184.02 Y114.8 E58.35462
G1 X184.139 Y114.839 E58.36086
G1 X184.22 Y115 E58.36986
G1 X184.22 Y160.98 E60.66381
G1 X184.223 Y185 E61.86217
G1 X184.184 Y185.119 E61.86842
G1 X184.023 Y185.2 E61.87741
G1 X119.643 Y185.2 E65.08934
G1 X119.524 Y185.161 E65.09559
G1 X119.443 Y185 E65.10458
G1 X119.442 Y115 E68.59689
G1 X119.481 Y114.881 E68.60314
G1 F1500 E62.10314
;MESH:Universal_Phone_Stand.STL
G0 F12000 X120.256 Y115.614
G0 X183.32 Y160.98
G0 X183.82 Y160.98
;TYPE:WALL-OUTER
G1 F1500 E68.60314
G1 F2700 X183.823 Y184.6 E69.78155
G1 X183.823 Y184.8 E69.79153
G1 X183.623 Y184.8 E69.79799
G1 X119.843 Y184.8 E72.97998
G1 X119.842 Y115.4 E76.44236
G1 X119.842 Y115.2 E76.45234
G1 X120.042 Y115.2 E76.4588
G1 X183.82 Y115.2 E79.6407
G1 X183.82 Y160.98 E81.92467
G0 F12000 X183.82 Y161.18
G0 X183.42 Y160.98
;TYPE:WALL-INNER
G1 F2700 X183.423 Y184.2 E83.08313
G1 X183.423 Y184.4 E83.0931
G1 X183.223 Y184.4 E83.09956
G1 X120.243 Y184.4 E86.24165
G1 X120.242 Y115.8 E89.66412
G1 X120.242 Y115.6 E89.67409
G1 X120.442 Y115.6 E89.68056
G1 X183.42 Y115.6 E92.82254
G1 X183.42 Y160.98 E95.08656
G0 F12000 X183.03 Y160.98
;TYPE:SKIN
G1 F2700 X183.033 Y184.01 E96.23553
G1 X120.633 Y184.01 E99.34868
G1 X120.632 Y115.99 E102.74221
G1 X183.03 Y115.99 E105.85526
G1 X183.03 Y160.98 E108.09982
G0 F12000 X182.849 Y116.664
G1 F2700 X182.355 Y116.17 E108.13467
G0 F12000 X181.79 Y116.17
G1 F2700 X182.849 Y117.229 E108.20939
G0 F12000 X182.849 Y117.795
G1 F2700 X181.224 Y116.17 E108.32404
G0 F12000 X180.658 Y116.17
G1 F2700 X182.849 Y118.361 E108.47863
G0 F12000 X182.849 Y118.926
G1 F2700 X180.093 Y116.17 E108.67308
G0 F12000 X179.527 Y116.17
G1 F2700 X182.849 Y119.492 E108.90747
G0 F12000 X182.849 Y120.058
G1 F2700 X178.961 Y116.17 E109.18179
G0 F12000 X178.395 Y116.17
G1 F2700 X182.849 Y120.623 E109.496
G0 F12000 X182.849 Y121.189
G1 F2700 X177.83 Y116.17 E109.85012
G0 F12000 X177.264 Y116.17
G1 F2700 X182.849 Y121.755 E110.24417
G0 F12000 X182.849 Y122.32
G1 F2700 X176.698 Y116.17 E110.67812
G0 F12000 X176.133 Y116.17
G1 F2700 X182.849 Y122.886 E111.15197
G0 F12000 X182.849 Y123.452
G1 F2700 X175.567 Y116.17 E111.66576
G0 F12000 X175.001 Y116.17
G1 F2700 X182.849 Y124.018 E112.21948
G0 F12000 X182.849 Y124.583
G1 F2700 X174.436 Y116.17 E112.81306
G0 F12000 X173.87 Y116.17
G1 F2700 X182.849 Y125.149 E113.44658
G0 F12000 X182.849 Y125.715
G1 F2700 X173.304 Y116.17 E114.12003
G0 F12000 X172.739 Y116.17
G1 F2700 X182.849 Y126.28 E114.83334
G0 F12000 X182.849 Y126.846
G1 F2700 X172.173 Y116.17 E115.58659
G0 F12000 X171.607 Y116.17
G1 F2700 X182.849 Y127.412 E116.37978
G0 F12000 X182.849 Y127.977
G1 F2700 X171.042 Y116.17 E117.21282
G0 F12000 X170.476 Y116.17
G1 F2700 X182.849 Y128.543 E118.08581
G0 F12000 X182.849 Y129.109
G1 F2700 X169.91 Y116.17 E118.99872
G0 F12000 X169.345 Y116.17
G1 F2700 X182.849 Y129.674 E119.9515
G0 F12000 X182.849 Y130.24
G1 F2700 X168.779 Y116.17 E120.94422
G0 F12000 X168.213 Y116.17
G1 F2700 X182.849 Y130.806 E121.97687
G0 F12000 X182.849 Y131.371
G1 F2700 X167.647 Y116.17 E123.04941
G0 F12000 X167.082 Y116.17
G1 F2700 X182.849 Y131.937 E124.16186
G0 F12000 X182.849 Y132.503
G1 F2700 X166.516 Y116.17 E125.31424
G0 F12000 X165.95 Y116.17
G1 F2700 X182.849 Y133.069 E126.50656
G0 F12000 X182.849 Y133.634
G1 F2700 X165.385 Y116.17 E127.73874
G0 F12000 X164.819 Y116.17
G1 F2700 X182.849 Y134.2 E129.01085
G0 F12000 X182.849 Y134.766
G1 F2700 X164.253 Y116.17 E130.3229
G0 F12000 X163.688 Y116.17
G1 F2700 X182.849 Y135.331 E131.67481
G0 F12000 X182.849 Y135.897
G1 F2700 X163.122 Y116.17 E133.06666
G0 F12000 X162.556 Y116.17
G1 F2700 X182.849 Y136.463 E134.49844
G0 F12000 X182.849 Y137.028
G1 F2700 X161.991 Y116.17 E135.97008
G0 F12000 X161.425 Y116.17
G1 F2700 X182.849 Y137.594 E137.48166
G0 F12000 X182.849 Y138.16
G1 F2700 X160.859 Y116.17 E139.03318
G0 F12000 X160.294 Y116.17
G1 F2700 X182.849 Y138.725 E140.62455
G0 F12000 X182.849 Y139.291
G1 F2700 X159.728 Y116.17 E142.25586
G0 F12000 X159.162 Y116.17
G1 F2700 X182.849 Y139.857 E143.92711
G0 F12000 X182.849 Y140.422
G1 F2700 X158.596 Y116.17 E145.63826
G0 F12000 X158.031 Y116.17
G1 F2700 X182.849 Y140.988 E147.3893
G0 F12000 X182.849 Y141.554
G1 F2700 X157.465 Y116.17 E149.18028
G0 F12000 X156.899 Y116.17
G1 F2700 X182.849 Y142.119 E151.01116
G0 F12000 X182.849 Y142.685
G1 F2700 X156.334 Y116.17 E152.88193
G0 F12000 X155.768 Y116.17
G1 F2700 X182.849 Y143.251 E154.79264
G0 F12000 X182.849 Y143.817
G1 F2700 X155.202 Y116.17 E156.74329
G0 F12000 X154.637 Y116.17
G1 F2700 X182.849 Y144.382 E158.7338
G0 F12000 X182.849 Y144.948
G1 F2700 X154.071 Y116.17 E160.76424
G0 F12000 X153.505 Y116.17
G1 F2700 X182.849 Y145.514 E162.83462
G0 F12000 X182.849 Y146.079
G1 F2700 X152.94 Y116.17 E164.94486
G0 F12000 X152.374 Y116.17
G1 F2700 X182.849 Y146.645 E167.09503
G0 F12000 X182.849 Y147.211
G1 F2700 X151.808 Y116.17 E169.28515
G0 F12000 X151.243 Y116.17
G1 F2700 X182.849 Y147.776 E171.51512
G0 F12000 X182.849 Y148.342
G1 F2700 X150.677 Y116.17 E173.78503
G0 F12000 X150.111 Y116.17
G1 F2700 X182.849 Y148.908 E176.09487
G0 F12000 X182.849 Y149.473
G1 F2700 X149.546 Y116.17 E178.44458
G0 F12000 X148.98 Y116.17
G1 F2700 X182.849 Y150.039 E180.83422
G0 F12000 X182.849 Y150.605
G1 F2700 X148.414 Y116.17 E183.26379
G0 F12000 X147.848 Y116.17
G1 F2700 X182.849 Y151.17 E185.73327
G0 F12000 X182.849 Y151.736
G1 F2700 X147.283 Y116.17 E188.24264
G0 F12000 X146.717 Y116.17
G1 F2700 X182.849 Y152.302 E190.79195
G0 F12000 X182.849 Y152.868
G1 F2700 X146.151 Y116.17 E193.38119
G0 F12000 X145.586 Y116.17
G1 F2700 X182.849 Y153.433 E196.0103
G0 F12000 X182.849 Y153.999
G1 F2700 X145.02 Y116.17 E198.67934
G0 F12000 X144.454 Y116.17
G1 F2700 X182.849 Y154.565 E201.38831
G0 F12000 X182.849 Y155.13
G1 F2700 X143.889 Y116.17 E204.13715
G0 F12000 X143.323 Y116.17
G1 F2700 X182.849 Y155.696 E206.92592
G0 F12000 X182.849 Y156.262
G1 F2700 X142.757 Y116.17 E209.75463
G0 F12000 X142.192 Y116.17
G1 F2700 X182.849 Y156.827 E212.6232
G0 F12000 X182.849 Y157.393
G1 F2700 X141.626 Y116.17 E215.53171
G0 F12000 X141.06 Y116.17
G1 F2700 X182.849 Y157.959 E218.48015
G0 F12000 X182.849 Y158.524
G1 F2700 X140.495 Y116.17 E221.46845
G0 F12000 X139.929 Y116.17
G1 F2700 X182.849 Y159.09 E224.49669
G0 F12000 X182.849 Y159.656
G1 F2700 X139.363 Y116.17 E227.56486
G0 F12000 X138.797 Y116.17
G1 F2700 X182.849 Y160.221 E230.67293
G0 F12000 X182.849 Y160.787
G1 F2700 X138.232 Y116.17 E233.8209
G0 F12000 X137.666 Y116.17
G1 F2700 X182.85 Y161.353 E237.00884
G0 F12000 X182.85 Y161.919
G1 F2700 X137.1 Y116.17 E240.23671
G0 F12000 X136.535 Y116.17
G1 F2700 X182.85 Y162.485 E243.50449
G0 F12000 X182.85 Y163.051
G1 F2700 X135.969 Y116.17 E246.8122
G0 F12000 X135.403 Y116.17
G1 F2700 X182.85 Y163.616 E250.1598
G0 F12000 X182.85 Y164.182
G1 F2700 X134.838 Y116.17 E253.54731
G0 F12000 X134.272 Y116.17
G1 F2700 X182.85 Y164.748 E256.97475
G0 F12000 X182.85 Y165.314
G1 F2700 X133.706 Y116.17 E260.44212
G0 F12000 X133.141 Y116.17
G1 F2700 X182.85 Y165.88 E263.9494
G0 F12000 X182.85 Y166.445
G1 F2700 X132.575 Y116.17 E267.49657
G0 F12000 X132.009 Y116.17
G1 F2700 X182.85 Y167.011 E271.08368
G0 F12000 X182.85 Y167.577
G1 F2700 X131.444 Y116.17 E274.71068
G0 F12000 X130.878 Y116.17
G1 F2700 X182.85 Y168.142 E278.37759
G0 F12000 X182.851 Y168.709
G1 F2700 X130.312 Y116.17 E282.0845
G0 F12000 X129.747 Y116.17
G1 F2700 X182.851 Y169.274 E285.83127
G0 F12000 X182.851 Y169.84
G1 F2700 X129.181 Y116.17 E289.61798
G0 F12000 X128.615 Y116.17
G1 F2700 X182.851 Y170.406 E293.44462
G0 F12000 X182.851 Y170.972
G1 F2700 X128.049 Y116.17 E297.3112
G0 F12000 X127.484 Y116.17
G1 F2700 X182.851 Y171.537 E301.21764
G0 F12000 X182.851 Y172.103
G1 F2700 X126.918 Y116.17 E305.16402
G0 F12000 X126.352 Y116.17
G1 F2700 X182.852 Y172.669 E309.15036
G0 F12000 X182.852 Y173.235
G1 F2700 X125.787 Y116.17 E313.17661
G0 F12000 X125.221 Y116.17
G1 F2700 X182.852 Y173.801 E317.24278
G0 F12000 X182.852 Y174.366
G1 F2700 X124.655 Y116.17 E321.34886
G0 F12000 X124.09 Y116.17
G1 F2700 X182.852 Y174.932 E325.49484
G0 F12000 X182.852 Y175.498
G1 F2700 X123.524 Y116.17 E329.68075
G0 F12000 X122.958 Y116.17
G1 F2700 X182.852 Y176.063 E333.90656
G0 F12000 X182.852 Y176.63
G1 F2700 X122.393 Y116.17 E338.1723
G0 F12000 X121.827 Y116.17
G1 F2700 X182.852 Y177.196 E342.47798
G0 F12000 X182.852 Y177.761
G1 F2700 X121.261 Y116.17 E346.82356
G0 F12000 X120.811 Y116.285
G1 F2700 X182.852 Y178.327 E351.20092
G0 F12000 X182.852 Y178.893
G1 F2700 X120.811 Y116.851 E355.57829
G0 F12000 X120.811 Y117.417
G1 F2700 X182.852 Y179.458 E359.95561
G0 F12000 X182.853 Y180.025
G1 F2700 X120.811 Y117.982 E364.33305
G0 F12000 X120.811 Y118.548
G1 F2700 X182.853 Y180.59 E368.71044
G0 F12000 X182.853 Y181.156
G1 F2700 X120.811 Y119.114 E373.08784
G0 F12000 X120.811 Y119.679
G1 F2700 X182.853 Y181.722 E377.46528
G0 F12000 X182.853 Y182.287
G1 F2700 X120.811 Y120.245 E381.84267
G0 F12000 X120.811 Y120.811
G1 F2700 X182.853 Y182.853 E386.22007
G0 F12000 X182.853 Y183.419
G1 F2700 X120.811 Y121.377 E390.59747
G0 F12000 X120.811 Y121.942
G1 F2700 X182.698 Y183.829 E394.96393
G0 F12000 X182.132 Y183.829
G1 F2700 X120.811 Y122.508 E399.29046
G0 F12000 X120.811 Y123.074
G1 F2700 X181.566 Y183.829 E403.57705
G0 F12000 X181 Y183.829
G1 F2700 X120.811 Y123.639 E407.82375
G0 F12000 X120.811 Y124.205
G1 F2700 X180.435 Y183.829 E412.03054
G0 F12000 X179.869 Y183.829
G1 F2700 X120.811 Y124.771 E416.1974
G0 F12000 X120.811 Y125.336
G1 F2700 X179.303 Y183.829 E420.32437
G0 F12000 X178.738 Y183.829
G1 F2700 X120.811 Y125.902 E424.41143
G0 F12000 X120.811 Y126.468
G1 F2700 X178.172 Y183.829 E428.45856
G0 F12000 X177.606 Y183.829
G1 F2700 X120.811 Y127.033 E432.46579
G0 F12000 X120.811 Y127.599
G1 F2700 X177.041 Y183.829 E436.43312
G0 F12000 X176.475 Y183.829
G1 F2700 X120.811 Y128.165 E440.36051
G0 F12000 X120.811 Y128.73
G1 F2700 X175.909 Y183.829 E444.24801
G0 F12000 X175.344 Y183.829
G1 F2700 X120.811 Y129.296 E448.09561
G0 F12000 X120.811 Y129.862
G1 F2700 X174.778 Y183.829 E451.90327
G0 F12000 X174.212 Y183.829
G1 F2700 X120.811 Y130.427 E455.67104
G0 F12000 X120.811 Y130.993
G1 F2700 X173.647 Y183.829 E459.3989
G0 F12000 X173.081 Y183.829
G1 F2700 X120.811 Y131.559 E463.08683
G0 F12000 X120.811 Y132.125
G1 F2700 X172.515 Y183.829 E466.73483
G0 F12000 X171.949 Y183.829
G1 F2700 X120.811 Y132.69 E470.34292
G0 F12000 X120.811 Y133.256
G1 F2700 X171.384 Y183.829 E473.91112
G0 F12000 X170.818 Y183.829
G1 F2700 X120.811 Y133.822 E477.43939
G0 F12000 X120.811 Y134.387
G1 F2700 X170.252 Y183.829 E480.92775
G0 F12000 X169.687 Y183.829
G1 F2700 X120.811 Y134.953 E484.37622
G0 F12000 X120.811 Y135.519
G1 F2700 X169.121 Y183.829 E487.78475
G0 F12000 X168.555 Y183.829
G1 F2700 X120.811 Y136.084 E491.15338
G0 F12000 X120.811 Y136.65
G1 F2700 X167.99 Y183.829 E494.48211
G0 F12000 X167.424 Y183.829
G1 F2700 X120.811 Y137.216 E497.77091
G0 F12000 X120.811 Y137.781
G1 F2700 X166.858 Y183.829 E501.01981
G0 F12000 X166.293 Y183.829
G1 F2700 X120.811 Y138.347 E504.22881
G0 F12000 X120.812 Y138.913
G1 F2700 X165.727 Y183.829 E507.39785
G0 F12000 X165.161 Y183.829
G1 F2700 X120.812 Y139.479 E510.52694
G0 F12000 X120.812 Y140.045
G1 F2700 X164.596 Y183.829 E513.61614
G0 F12000 X164.03 Y183.829
G1 F2700 X120.812 Y140.611 E516.6654
G0 F12000 X120.812 Y141.176
G1 F2700 X163.464 Y183.829 E519.67477
G0 F12000 X162.899 Y183.829
G1 F2700 X120.812 Y141.742 E522.64423
G0 F12000 X120.812 Y142.308
G1 F2700 X162.333 Y183.829 E525.57376
