;FLAVOR:Marlin
;TIME:5661
;Filament used: 3.01321m
;Layer height: 0.16
;MINX:100
;MINY:93.539
;MINZ:0.28
;MAXX:176.909
;MAXY:200.061
;MAXZ:26.88
;Generated with Cura_SteamEngine 4.4.1
M140 S80
M105
M190 S80
M104 S245
M105
M109 S245
M82 ;absolute extrusion mode
G28 ;Home
G1 Z15.0 F6000 ;Move the platform down 15mm
;Prime the extruder
G92 E0
G1 F200 E3
G92 E0
G92 E0
G92 E0
G1 F3300 E-3.5
;LAYER_COUNT:161
;LAYER:0
M107
M204 S3000
M205 X15 Y15
G0 F2400 X124.771 Y108.734 Z0.28
M204 S2000
M205 X7 Y7
;TYPE:SKIRT
G1 F3300 E0.3326
G1 F900 X124.998 Y108.494 E0.34973
G1 X125.115 Y108.374 E0.35843
G1 X126.206 Y107.282 E0.43848
G1 X126.275 Y107.214 E0.4435
G1 X126.74 Y106.763 E0.4771
G1 X127.269 Y106.306 E0.51335
G1 X127.847 Y105.911 E0.54966
G1 X128.466 Y105.585 E0.58594
G1 X129.056 Y105.353 E0.61882
G1 X129.64 Y105.157 E0.65077
G1 X132.235 Y104.261 E0.79314
G1 X134.739 Y103.316 E0.93194
G1 X137.172 Y102.318 E1.06832
G1 X139.585 Y101.246 E1.20525
G1 X142.002 Y100.093 E1.34413
G1 X144.349 Y98.888 E1.48096
G1 X146.701 Y97.596 E1.62012
G1 X148.955 Y96.273 E1.75567
G1 X151.309 Y94.801 E1.89965
G1 X151.757 Y94.513 E1.92727
G1 X152.366 Y94.169 E1.96355
G1 X153.01 Y93.896 E1.99982
G1 X153.682 Y93.699 E2.03614
G1 X154.371 Y93.579 E2.07241
G1 X155.069 Y93.539 E2.10867
G1 X155.768 Y93.579 E2.14498
G1 X156.458 Y93.698 E2.18129
G1 X157.129 Y93.895 E2.21756
G1 X157.773 Y94.167 E2.25381
G1 X158.383 Y94.512 E2.29016
G1 X158.949 Y94.923 E2.32643
G1 X159.274 Y95.208 E2.34885
G1 X159.503 Y95.424 E2.36517
G1 X159.631 Y95.549 E2.37445
G1 X170.323 Y106.24 E3.15859
G1 X170.381 Y106.299 E3.16288
G1 X171.439 Y107.386 E3.24155
G1 X171.677 Y107.645 E3.25979
G1 X172.376 Y108.451 E3.31512
G1 X172.663 Y108.808 E3.33888
G1 X173.212 Y109.546 E3.38658
G1 X173.443 Y109.878 E3.40755
G1 X173.974 Y110.7 E3.4583
G1 X174.191 Y111.063 E3.48024
G1 X174.662 Y111.916 E3.53077
G1 X174.857 Y112.301 E3.55315
G1 X175.239 Y113.125 E3.60025
G1 X175.4 Y113.505 E3.62166
G1 X175.761 Y114.445 E3.67388
G1 X175.901 Y114.853 E3.69625
G1 X176.166 Y115.721 E3.74331
G1 X176.273 Y116.119 E3.76469
G1 X176.499 Y117.089 E3.81634
G1 X176.584 Y117.522 E3.83922
G1 X176.728 Y118.432 E3.88701
G1 X176.779 Y118.842 E3.90843
G1 X176.867 Y119.824 E3.95956
G1 X176.89 Y120.246 E3.98148
G1 X176.909 Y121.18 E4.02993
G1 X176.903 Y121.603 E4.05187
G1 X176.857 Y122.548 E4.10094
G1 X176.821 Y122.973 E4.12306
G1 X176.705 Y123.949 E4.17403
G1 X176.642 Y124.362 E4.19569
G1 X176.472 Y125.263 E4.24324
G1 X176.379 Y125.674 E4.2651
G1 X176.125 Y126.647 E4.31725
G1 X176.004 Y127.055 E4.33932
G1 X175.633 Y128.156 E4.39957
G1 X174.806 Y130.732 E4.53988
G1 X174.066 Y133.277 E4.67734
G1 X173.4 Y135.839 E4.81462
G1 X172.79 Y138.486 E4.95549
G1 X172.281 Y141.034 E5.09024
G1 X171.834 Y143.648 E5.22778
G1 X171.459 Y146.285 E5.36591
G1 X171.162 Y148.914 E5.50312
G1 X170.934 Y151.584 E5.64209
G1 X170.788 Y154.177 E5.77678
G1 X170.702 Y158.262 E5.98868
G1 X170.702 Y177.557 E6.98933
G1 X170.701 Y177.647 E6.994
G1 X170.691 Y178.328 E7.02932
G1 X170.641 Y179.026 E7.06561
G1 X170.512 Y179.713 E7.10187
G1 X170.362 Y180.222 E7.12938
G1 X170.048 Y181.139 E7.17965
G1 X170.009 Y181.249 E7.1857
G1 X168.103 Y186.489 E7.47487
G1 X168.068 Y186.583 E7.48008
G1 X167.858 Y187.132 E7.51056
G1 X167.571 Y187.77 E7.54684
G1 X167.213 Y188.372 E7.58316
G1 X166.789 Y188.928 E7.61943
G1 X166.304 Y189.433 E7.65574
G1 X165.765 Y189.879 E7.69202
G1 X165.179 Y190.26 E7.72827
G1 X164.552 Y190.573 E7.76461
G1 X163.895 Y190.811 E7.80085
G1 X163.214 Y190.974 E7.83717
G1 X162.519 Y191.057 E7.87347
G1 X161.82 Y191.061 E7.90972
G1 X161.124 Y190.985 E7.94603
G1 X160.164 Y190.743 E7.99737
G1 X159.203 Y190.416 E8.05002
G1 X159.081 Y190.373 E8.05672
G1 X147.237 Y186.062 E8.71039
G1 X146.526 Y185.792 E8.74983
G1 X145.887 Y185.507 E8.78612
G1 X145.285 Y185.15 E8.82241
G1 X144.727 Y184.728 E8.85869
G1 X144.221 Y184.244 E8.89501
G1 X143.774 Y183.706 E8.93128
G1 X143.391 Y183.12 E8.96759
G1 X143.077 Y182.495 E9.00386
G1 X142.837 Y181.838 E9.04014
G1 X142.673 Y181.157 E9.07646
G1 X142.588 Y180.463 E9.11272
G1 X142.584 Y179.728 E9.15084
G1 X142.634 Y178.822 E9.1979
G1 X142.774 Y176.093 E9.33961
G1 X142.836 Y173.466 E9.47589
G1 X142.822 Y170.807 E9.61379
G1 X142.732 Y168.115 E9.75348
G1 X142.571 Y165.504 E9.88914
G1 X142.33 Y162.84 E10.02787
G1 X142.018 Y160.208 E10.16532
G1 X141.635 Y157.615 E10.30125
G1 X141.165 Y154.956 E10.44129
G1 X140.64 Y152.404 E10.57641
G1 X140.024 Y149.789 E10.71574
G1 X139.338 Y147.208 E10.85424
G1 X138.588 Y144.676 E10.99119
G1 X137.757 Y142.138 E11.12969
G1 X136.866 Y139.655 E11.2665
G1 X135.899 Y137.181 E11.40425
G1 X134.871 Y134.759 E11.54071
G1 X133.743 Y132.294 E11.68129
G1 X132.591 Y129.956 E11.81646
G1 X131.343 Y127.593 E11.95505
G1 X130.036 Y125.28 E12.09283
G1 X128.668 Y123.009 E12.23033
G1 X127.226 Y120.764 E12.3687
G1 X125.723 Y118.562 E12.50697
G1 X124.765 Y117.227 E12.59218
G1 X124.273 Y116.553 E12.63546
G1 X123.894 Y115.966 E12.67169
G1 X123.584 Y115.338 E12.70802
G1 X123.347 Y114.68 E12.74429
G1 X123.188 Y113.998 E12.7806
G1 X123.107 Y113.303 E12.81689
G1 X123.105 Y112.604 E12.85314
G1 X123.184 Y111.908 E12.88947
G1 X123.341 Y111.227 E12.92571
G1 X123.576 Y110.567 E12.96205
G1 X123.883 Y109.939 E12.9983
G1 X124.261 Y109.35 E13.03459
G1 X124.771 Y108.734 E13.07607
M204 S3000
M205 X15 Y15
G0 F2400 X125.098 Y109.043
M204 S2000
M205 X7 Y7
G1 F900 X125.325 Y108.803 E13.0932
G1 X125.433 Y108.692 E13.10123
G1 X126.524 Y107.6 E13.18128
G1 X126.588 Y107.537 E13.18594
G1 X127.053 Y107.086 E13.21954
G1 X127.563 Y106.647 E13.25443
G1 X128.122 Y106.271 E13.28937
G1 X128.722 Y105.964 E13.32433
G1 X129.199 Y105.78 E13.35084
G1 X129.811 Y105.575 E13.38431
G1 X132.367 Y104.692 E13.52456
G1 X134.896 Y103.738 E13.66473
G1 X137.339 Y102.735 E13.80169
G1 X139.789 Y101.648 E13.94069
G1 X142.187 Y100.503 E14.07851
G1 X144.583 Y99.273 E14.21818
G1 X146.919 Y97.991 E14.35637
G1 X149.206 Y96.648 E14.49392
G1 X151.524 Y95.198 E14.63571
G1 X152 Y94.892 E14.66506
G1 X152.587 Y94.561 E14.70001
G1 X153.209 Y94.303 E14.73493
G1 X153.857 Y94.12 E14.76985
G1 X154.523 Y94.016 E14.80481
G1 X155.196 Y93.99 E14.83974
G1 X155.867 Y94.045 E14.87465
G1 X156.527 Y94.179 E14.90958
G1 X157.167 Y94.39 E14.94453
G1 X157.777 Y94.676 E14.97947
G1 X158.349 Y95.031 E15.01438
G1 X158.965 Y95.536 E15.05569
G1 X159.194 Y95.752 E15.07202
G1 X159.313 Y95.867 E15.0806
G1 X170.005 Y106.558 E15.86474
G1 X170.059 Y106.613 E15.86873
G1 X171.117 Y107.7 E15.9474
G1 X171.337 Y107.94 E15.96429
G1 X172.036 Y108.746 E16.01962
G1 X172.302 Y109.077 E16.04164
G1 X172.851 Y109.815 E16.08934
G1 X173.065 Y110.123 E16.10879
G1 X173.596 Y110.945 E16.15954
G1 X173.797 Y111.281 E16.17985
G1 X174.268 Y112.134 E16.23038
G1 X174.449 Y112.49 E16.25109
G1 X174.831 Y113.314 E16.29819
G1 X174.98 Y113.666 E16.31802
G1 X175.341 Y114.606 E16.37024
G1 X175.471 Y114.984 E16.39097
G1 X175.736 Y115.852 E16.43803
G1 X175.835 Y116.221 E16.45785
G1 X176.061 Y117.191 E16.5095
G1 X176.139 Y117.592 E16.53068
G1 X176.283 Y118.502 E16.57847
G1 X176.33 Y118.882 E16.59832
G1 X176.418 Y119.864 E16.64945
G1 X176.44 Y120.256 E16.66982
G1 X176.459 Y121.19 E16.71826
G1 X176.453 Y121.581 E16.73854
G1 X176.407 Y122.526 E16.78761
G1 X176.374 Y122.92 E16.80811
G1 X176.258 Y123.896 E16.85909
G1 X176.2 Y124.278 E16.87913
G1 X176.03 Y125.179 E16.92668
G1 X175.944 Y125.56 E16.94693
G1 X175.69 Y126.533 E16.99908
G1 X175.577 Y126.912 E17.01959
G1 X175.192 Y128.055 E17.08214
G1 X174.382 Y130.578 E17.21957
G1 X173.629 Y133.171 E17.3596
G1 X172.962 Y135.734 E17.49694
G1 X172.354 Y138.372 E17.63734
G1 X171.842 Y140.937 E17.77299
G1 X171.384 Y143.612 E17.91373
G1 X171.015 Y146.21 E18.04982
G1 X170.715 Y148.859 E18.18808
G1 X170.485 Y151.555 E18.3284
G1 X170.338 Y154.171 E18.46428
G1 X170.252 Y158.253 E18.67603
G1 X170.252 Y177.557 E19.67715
G1 X170.251 Y177.64 E19.68145
G1 X170.241 Y178.321 E19.71678
G1 X170.192 Y178.993 E19.75172
G1 X170.063 Y179.654 E19.78665
G1 X169.936 Y180.076 E19.8095
G1 X169.622 Y180.993 E19.85977
G1 X169.586 Y181.095 E19.86538
G1 X167.68 Y186.335 E20.15455
G1 X167.647 Y186.422 E20.15937
G1 X167.437 Y186.971 E20.18986
G1 X167.16 Y187.585 E20.22479
G1 X166.812 Y188.162 E20.25973
G1 X166.398 Y188.693 E20.29465
G1 X165.923 Y189.171 E20.3296
G1 X165.396 Y189.59 E20.36452
G1 X164.823 Y189.943 E20.39942
G1 X164.211 Y190.226 E20.43439
G1 X163.571 Y190.435 E20.4693
G1 X162.91 Y190.566 E20.50425
G1 X162.239 Y190.618 E20.53915
G1 X161.566 Y190.59 E20.57409
G1 X160.901 Y190.483 E20.60902
G1 X160.309 Y190.316 E20.64092
G1 X159.348 Y189.989 E20.69356
G1 X159.235 Y189.95 E20.69976
G1 X147.391 Y185.639 E21.35342
G1 X147.317 Y185.611 E21.35753
G1 X146.685 Y185.371 E21.39259
G1 X146.071 Y185.095 E21.4275
G1 X145.494 Y184.748 E21.46242
G1 X144.962 Y184.336 E21.49731
G1 X144.482 Y183.863 E21.53226
G1 X144.062 Y183.336 E21.56721
G1 X143.707 Y182.764 E21.60212
G1 X143.423 Y182.153 E21.63707
G1 X143.213 Y181.513 E21.672
G1 X143.08 Y180.853 E21.70691
G1 X143.026 Y180.182 E21.74182
G1 X143.034 Y179.753 E21.76408
G1 X143.083 Y178.869 E21.80999
G1 X143.082 Y178.869 E21.81004
G1 X143.225 Y176.09 E21.95436
G1 X143.286 Y173.475 E22.09001
G1 X143.271 Y170.791 E22.22921
G1 X143.182 Y168.106 E22.36853
G1 X143.02 Y165.47 E22.50549
G1 X142.777 Y162.784 E22.64536
G1 X142.465 Y160.158 E22.7825
G1 X142.075 Y157.511 E22.92126
G1 X141.611 Y154.889 E23.05935
G1 X141.08 Y152.311 E23.19586
G1 X140.46 Y149.679 E23.33609
G1 X139.768 Y147.073 E23.47592
G1 X139.021 Y144.551 E23.61233
G1 X138.192 Y142.02 E23.75046
G1 X137.282 Y139.481 E23.89033
G1 X136.317 Y137.015 E24.02766
G1 X135.266 Y134.538 E24.16721
G1 X134.174 Y132.151 E24.30334
G1 X132.976 Y129.719 E24.44394
G1 X131.746 Y127.392 E24.58044
G1 X130.419 Y125.042 E24.7204
G1 X129.043 Y122.759 E24.85864
G1 X127.618 Y120.541 E24.99536
G1 X126.086 Y118.296 E25.13632
G1 X125.131 Y116.965 E25.22127
G1 X124.637 Y116.288 E25.26474
G1 X124.273 Y115.721 E25.29968
G1 X123.978 Y115.116 E25.33459
G1 X123.758 Y114.479 E25.36954
G1 X123.614 Y113.821 E25.40447
G1 X123.55 Y113.151 E25.43937
G1 X123.565 Y112.478 E25.47428
G1 X123.66 Y111.811 E25.50922
G1 X123.833 Y111.16 E25.54416
G1 X124.083 Y110.534 E25.57912
G1 X124.404 Y109.942 E25.61404
G1 X124.794 Y109.393 E25.64896
G1 X125.098 Y109.043 E25.67301
M204 S3000
M205 X15 Y15
G0 F2400 X125.425 Y109.353
M204 S2000
M205 X7 Y7
G1 F900 X125.652 Y109.113 E25.69014
G1 X125.752 Y109.01 E25.69758
G1 X126.843 Y107.918 E25.77764
G1 X126.901 Y107.86 E25.78189
G1 X127.366 Y107.409 E25.81549
G1 X127.857 Y106.989 E25.84899
G1 X128.396 Y106.632 E25.88252
G1 X128.975 Y106.345 E25.91604
G1 X129.342 Y106.206 E25.93639
G1 X129.977 Y105.993 E25.97112
G1 X132.531 Y105.111 E26.11125
G1 X135.053 Y104.16 E26.25104
G1 X137.52 Y103.147 E26.38934
G1 X139.995 Y102.048 E26.52978
G1 X142.398 Y100.901 E26.66787
G1 X144.763 Y99.688 E26.80572
G1 X147.132 Y98.386 E26.94591
G1 X149.43 Y97.038 E27.08407
G1 X151.812 Y95.548 E27.22978
G1 X152.244 Y95.27 E27.25643
G1 X152.808 Y94.955 E27.28993
G1 X153.406 Y94.711 E27.32342
G1 X154.03 Y94.544 E27.35692
G1 X154.671 Y94.454 E27.39049
G1 X155.317 Y94.445 E27.424
G1 X155.959 Y94.515 E27.45749
G1 X156.588 Y94.664 E27.49101
G1 X157.193 Y94.89 E27.52451
G1 X157.767 Y95.188 E27.55805
G1 X158.299 Y95.555 E27.59157
G1 X158.656 Y95.863 E27.61602
G1 X158.885 Y96.079 E27.63234
G1 X158.994 Y96.185 E27.64023
G1 X169.686 Y106.876 E28.42437
G1 X169.736 Y106.927 E28.42807
G1 X170.794 Y108.014 E28.50674
G1 X170.997 Y108.235 E28.5223
G1 X171.696 Y109.041 E28.57763
G1 X171.941 Y109.345 E28.59788
G1 X172.49 Y110.083 E28.64558
G1 X172.687 Y110.367 E28.66351
G1 X173.218 Y111.189 E28.71426
G1 X173.403 Y111.498 E28.73293
G1 X173.874 Y112.351 E28.78347
G1 X174.04 Y112.679 E28.80253
G1 X174.422 Y113.503 E28.84963
G1 X174.56 Y113.828 E28.86795
G1 X174.921 Y114.768 E28.92017
G1 X175.04 Y115.115 E28.93919
G1 X175.305 Y115.983 E28.98626
G1 X175.397 Y116.323 E29.00452
G1 X175.623 Y117.293 E29.05618
G1 X175.695 Y117.662 E29.07567
G1 X175.839 Y118.572 E29.12345
G1 X175.882 Y118.923 E29.14179
G1 X175.97 Y119.905 E29.19293
G1 X175.99 Y120.265 E29.21162
G1 X176.009 Y121.199 E29.26007
G1 X176.004 Y121.559 E29.27874
G1 X175.958 Y122.504 E29.32781
G1 X175.927 Y122.867 E29.3467
G1 X175.811 Y123.843 E29.39768
G1 X175.757 Y124.195 E29.41615
G1 X175.587 Y125.096 E29.4637
G1 X175.509 Y125.447 E29.48234
G1 X175.255 Y126.42 E29.5345
G1 X175.151 Y126.768 E29.55333
G1 X174.777 Y127.878 E29.61408
G1 X173.948 Y130.458 E29.75462
G1 X173.195 Y133.051 E29.89465
G1 X172.527 Y135.62 E30.03231
G1 X171.913 Y138.284 E30.17409
G1 X171.394 Y140.882 E30.31148
G1 X170.945 Y143.506 E30.44954
G1 X170.566 Y146.169 E30.58904
G1 X170.264 Y148.843 E30.7286
G1 X170.039 Y151.489 E30.86632
G1 X169.888 Y154.165 E31.00532
G1 X169.802 Y158.243 E31.21685
G1 X169.802 Y177.557 E32.21849
G1 X169.801 Y177.634 E32.22249
G1 X169.791 Y178.315 E32.25781
G1 X169.742 Y178.959 E32.2913
G1 X169.613 Y179.592 E32.32481
G1 X169.51 Y179.931 E32.34318
G1 X169.196 Y180.848 E32.39345
G1 X169.163 Y180.941 E32.39857
G1 X167.257 Y186.181 E32.68774
G1 X167.227 Y186.262 E32.69222
G1 X167.017 Y186.811 E32.7227
G1 X166.749 Y187.399 E32.75621
G1 X166.411 Y187.949 E32.78969
G1 X166.007 Y188.454 E32.82323
G1 X165.545 Y188.905 E32.85671
G1 X165.03 Y189.295 E32.89022
G1 X164.47 Y189.619 E32.92377
G1 X163.875 Y189.871 E32.95728
G1 X163.254 Y190.048 E32.99077
G1 X162.615 Y190.147 E33.0243
G1 X161.969 Y190.166 E33.05782
G1 X161.326 Y190.106 E33.09131
G1 X160.454 Y189.89 E33.1379
G1 X159.493 Y189.563 E33.19054
G1 X159.389 Y189.527 E33.19625
G1 X147.545 Y185.216 E33.84991
G1 X147.477 Y185.191 E33.85367
G1 X146.845 Y184.951 E33.88873
G1 X146.256 Y184.684 E33.92227
G1 X145.705 Y184.347 E33.95577
G1 X145.199 Y183.945 E33.98928
G1 X144.747 Y183.483 E34.0228
G1 X144.356 Y182.969 E34.05629
G1 X144.031 Y182.411 E34.08978
G1 X143.777 Y181.816 E34.12333
G1 X143.598 Y181.195 E34.15685
G1 X143.498 Y180.557 E34.19034
G1 X143.483 Y179.778 E34.23075
G1 X143.533 Y178.872 E34.27781
G1 X143.672 Y176.16 E34.41864
G1 X143.736 Y173.448 E34.55932
G1 X143.721 Y170.773 E34.69805
G1 X143.632 Y168.1 E34.83675
G1 X143.468 Y165.437 E34.97512
G1 X143.226 Y162.76 E35.11452
G1 X142.908 Y160.078 E35.25458
G1 X142.517 Y157.43 E35.3934
G1 X142.057 Y154.828 E35.53043
G1 X141.514 Y152.192 E35.67001
G1 X140.895 Y149.561 E35.81018
G1 X140.207 Y146.972 E35.94911
G1 X139.453 Y144.425 E36.08686
G1 X138.606 Y141.838 E36.22804
G1 X137.709 Y139.339 E36.36573
G1 X136.735 Y136.848 E36.50444
G1 X135.68 Y134.361 E36.64455
G1 X134.571 Y131.938 E36.78274
G1 X133.382 Y129.526 E36.9222
G1 X132.13 Y127.155 E37.06125
G1 X130.816 Y124.83 E37.19976
G1 X129.437 Y122.541 E37.33834
G1 X127.972 Y120.261 E37.47889
G1 X126.469 Y118.058 E37.6172
G1 X125.521 Y116.737 E37.70152
G1 X125 Y116.023 E37.74736
G1 X124.652 Y115.478 E37.78089
G1 X124.374 Y114.895 E37.81439
G1 X124.17 Y114.282 E37.8479
G1 X124.044 Y113.648 E37.88142
G1 X123.996 Y113.004 E37.91491
G1 X124.029 Y112.358 E37.94846
G1 X124.141 Y111.722 E37.98195
G1 X124.33 Y111.104 E38.01546
G1 X124.595 Y110.514 E38.049
G1 X124.93 Y109.962 E38.08249
G1 X125.425 Y109.353 E38.12319
M204 S3000
M205 X15 Y15
G1 F3300 E34.62319
;MESH:bed_cable_strain_relief.stl
G0 F2400 X148.685 Y109.196
G0 X149.361 Y110.106
G0 X163.045 Y109.948
M204 S400
M205 X7 Y7
;TYPE:WALL-INNER
G1 F3300 E38.45579
G1 F900 X163.822 Y110.409 E38.50265
G1 X164.544 Y110.908 E38.54816
G1 X165.222 Y111.446 E38.59305
G1 X165.872 Y112.043 E38.63882
G1 X166.475 Y112.677 E38.6842
G1 X167.031 Y113.352 E38.72955
G1 X167.546 Y114.07 E38.77537
G1 X168.003 Y114.811 E38.82052
