;FLAVOR:Marlin
;TIME:4777
;Filament used: 6.81724m
;Layer height: 0.2
;MINX:134.8
;MINY:116.4
;MINZ:0.3
;MAXX:165.2
;MAXY:183.6
;MAXZ:58.5
;Generated with Cura_SteamEngine 4.4.1
M140 S80
M105
M190 S80
M104 S230
M105
M109 S230
M82 ;absolute extrusion mode
G28 ;Home
G1 Z15.0 F6000 ;Move the platform down 15mm
;Prime the extruder
G92 E0
G1 F200 E3
G92 E0
G92 E0
G92 E0
G1 F1500 E-2
;LAYER_COUNT:292
;LAYER:0
M107
G1 F600 Z0.8
G0 F12000 X136.323 Y118.494 Z0.8
;TYPE:SKIRT
G1 F600 Z0.3
G1 F1500 E0
G1 F2700 X136.531 Y118.274 E0.0151
G1 X136.642 Y118.161 E0.02301
G1 X136.834 Y117.975 E0.03634
G1 X137.345 Y117.563 E0.06909
G1 X137.548 Y117.428 E0.08125
G1 X137.664 Y117.355 E0.08809
G1 X137.924 Y117.196 E0.1033
G1 X138.513 Y116.906 E0.13605
G1 X138.719 Y116.827 E0.14706
G1 X138.863 Y116.775 E0.1547
G1 X139.194 Y116.664 E0.17211
G1 X139.8 Y116.518 E0.20321
G1 X139.998 Y116.488 E0.2132
G1 X140.174 Y116.465 E0.22206
G1 X140.5 Y116.432 E0.23841
G1 X140.807 Y116.414 E0.25375
G1 X141.638 Y116.401 E0.29521
G1 X141.694 Y116.401 E0.29801
G1 X158.298 Y116.4 E1.12638
G1 X158.349 Y116.4 E1.12893
G1 X158.913 Y116.408 E1.15707
G1 X159.133 Y116.418 E1.16806
G1 X159.834 Y116.471 E1.20313
G1 X160.436 Y116.568 E1.23355
G1 X160.688 Y116.631 E1.24651
G1 X161.047 Y116.741 E1.26524
G1 X161.415 Y116.875 E1.28478
G1 X162.023 Y117.163 E1.31835
G1 X162.203 Y117.27 E1.32879
G1 X162.313 Y117.339 E1.33527
G1 X162.583 Y117.513 E1.3513
G1 X163.106 Y117.923 E1.38445
G1 X163.326 Y118.131 E1.39956
G1 X163.433 Y118.236 E1.40703
G1 X163.616 Y118.424 E1.42012
G1 X164.075 Y119.005 E1.45706
G1 X164.371 Y119.471 E1.48461
G1 X164.7 Y120.129 E1.52131
G1 X164.808 Y120.415 E1.53656
G1 X164.855 Y120.549 E1.54365
G1 X164.937 Y120.795 E1.55658
G1 X165.096 Y121.497 E1.59249
G1 X165.16 Y122.022 E1.61888
G1 X165.185 Y122.393 E1.63743
G1 X165.199 Y123.163 E1.67585
G1 X165.2 Y123.228 E1.6791
G1 X165.2 Y143.244 E2.6777
G1 X165.19 Y143.949 E2.71287
G1 X165.184 Y144.098 E2.72031
G1 X165.038 Y146.717 E2.85118
G1 X164.961 Y149.491 E2.98963
G1 X164.961 Y152.187 E3.12413
G1 X165.04 Y154.938 E3.26144
G1 X165.112 Y156.381 E3.33352
G1 X165.111 Y156.381 E3.33357
G1 X165.184 Y157.644 E3.39668
G1 X165.188 Y157.741 E3.40153
G1 X165.198 Y158.071 E3.418
G1 X165.2 Y158.18 E3.42344
G1 X165.2 Y176.823 E4.35354
G1 X165.19 Y177.54 E4.38931
G1 X165.176 Y177.811 E4.40285
G1 X165.153 Y178.068 E4.41573
G1 X165.138 Y178.2 E4.42235
G1 X165.101 Y178.492 E4.43704
G1 X164.96 Y179.134 E4.46983
G1 X164.885 Y179.369 E4.48214
G1 X164.836 Y179.51 E4.48959
G1 X164.723 Y179.819 E4.506
G1 X164.437 Y180.423 E4.53934
G1 X164.33 Y180.603 E4.54979
G1 X164.256 Y180.721 E4.55674
G1 X164.081 Y180.991 E4.57279
G1 X163.683 Y181.499 E4.60499
G1 X163.478 Y181.717 E4.61992
G1 X163.373 Y181.824 E4.62739
G1 X163.184 Y182.009 E4.64059
G1 X162.679 Y182.42 E4.67307
G1 X162.513 Y182.532 E4.68306
G1 X162.38 Y182.618 E4.69097
G1 X162.073 Y182.806 E4.70893
G1 X161.446 Y183.111 E4.74371
G1 X161.166 Y183.215 E4.75861
G1 X161.043 Y183.258 E4.76511
G1 X160.795 Y183.34 E4.77815
G1 X160.206 Y183.481 E4.80836
G1 X160.002 Y183.512 E4.81866
G1 X159.826 Y183.534 E4.8275
G1 X159.502 Y183.567 E4.84375
G1 X159.193 Y183.586 E4.8592
G1 X158.362 Y183.599 E4.90066
G1 X158.306 Y183.599 E4.90345
G1 X141.66 Y183.6 E5.73393
G1 X141.609 Y183.6 E5.73647
G1 X140.909 Y183.59 E5.7714
G1 X140.6 Y183.572 E5.78684
G1 X140.023 Y183.514 E5.81577
G1 X139.258 Y183.352 E5.85478
G1 X138.805 Y183.203 E5.87858
G1 X138.42 Y183.051 E5.89923
G1 X138.21 Y182.954 E5.91077
G1 X137.784 Y182.721 E5.93499
G1 X137.425 Y182.492 E5.95624
G1 X136.876 Y182.062 E5.99103
G1 X136.66 Y181.856 E6.00592
G1 X136.572 Y181.769 E6.01209
G1 X136.391 Y181.584 E6.025
G1 X135.966 Y181.06 E6.05866
G1 X135.827 Y180.851 E6.07119
G1 X135.75 Y180.728 E6.07843
G1 X135.593 Y180.47 E6.09349
G1 X135.31 Y179.897 E6.12538
G1 X135.23 Y179.69 E6.13645
G1 X135.175 Y179.537 E6.14456
G1 X135.064 Y179.206 E6.16198
G1 X134.918 Y178.6 E6.19308
G1 X134.888 Y178.402 E6.20307
G1 X134.865 Y178.227 E6.21187
G1 X134.831 Y177.892 E6.22867
G1 X134.813 Y177.586 E6.24397
G1 X134.8 Y176.778 E6.28428
G1 X134.8 Y123.165 E8.95905
G1 X134.81 Y122.467 E8.99387
G1 X134.821 Y122.235 E9.00546
G1 X134.837 Y122.033 E9.01557
G1 X134.853 Y121.874 E9.02354
G1 X134.898 Y121.511 E9.04179
G1 X135.053 Y120.823 E9.07698
G1 X135.142 Y120.554 E9.09111
G1 X135.18 Y120.446 E9.09682
G1 X135.279 Y120.176 E9.11117
G1 X135.566 Y119.573 E9.14449
G1 X135.672 Y119.395 E9.15482
G1 X135.739 Y119.287 E9.16117
G1 X135.913 Y119.017 E9.17719
G1 X136.323 Y118.494 E9.21035
G0 F12000 X136.614 Y118.769
G1 F2700 X136.822 Y118.549 E9.22545
G1 X136.92 Y118.449 E9.23244
G1 X137.112 Y118.263 E9.24577
G1 X137.567 Y117.896 E9.27494
G1 X137.77 Y117.761 E9.2871
G1 X137.873 Y117.696 E9.29317
G1 X138.133 Y117.537 E9.30838
G1 X138.656 Y117.279 E9.33747
G1 X138.862 Y117.2 E9.34848
G1 X138.991 Y117.154 E9.35531
G1 X139.322 Y117.043 E9.37273
G1 X139.86 Y116.913 E9.40035
G1 X140.058 Y116.883 E9.41034
G1 X140.215 Y116.863 E9.41823
G1 X140.541 Y116.83 E9.43458
G1 X140.813 Y116.814 E9.44817
G1 X141.644 Y116.801 E9.48964
G1 X141.694 Y116.801 E9.49213
G1 X158.298 Y116.8 E10.32051
G1 X158.343 Y116.8 E10.32275
G1 X158.907 Y116.808 E10.35089
G1 X159.103 Y116.817 E10.36068
G1 X159.804 Y116.87 E10.39576
G1 X160.339 Y116.957 E10.4228
G1 X160.591 Y117.02 E10.43576
G1 X160.91 Y117.117 E10.45239
G1 X161.278 Y117.251 E10.47193
G1 X161.818 Y117.507 E10.50175
G1 X161.998 Y117.614 E10.51219
G1 X162.096 Y117.675 E10.51795
G1 X162.366 Y117.849 E10.53398
G1 X162.831 Y118.214 E10.56347
G1 X163.051 Y118.422 E10.57857
G1 X163.146 Y118.515 E10.58521
G1 X163.329 Y118.703 E10.5983
G1 X163.737 Y119.219 E10.63111
G1 X164.033 Y119.685 E10.65866
G1 X164.326 Y120.271 E10.69134
G1 X164.434 Y120.557 E10.7066
G1 X164.476 Y120.675 E10.71284
G1 X164.558 Y120.921 E10.72578
G1 X164.698 Y121.546 E10.75773
G1 X164.762 Y122.071 E10.78412
G1 X164.785 Y122.4 E10.80058
G1 X164.799 Y123.17 E10.839
G1 X164.8 Y123.228 E10.84189
G1 X164.8 Y143.238 E11.84019
G1 X164.79 Y143.943 E11.87537
G1 X164.785 Y144.076 E11.88201
G1 X164.638 Y146.721 E12.01417
G1 X164.561 Y149.479 E12.15182
G1 X164.561 Y152.198 E12.28748
G1 X164.64 Y154.97 E12.42583
G1 X164.711 Y156.378 E12.49616
G1 X164.785 Y157.667 E12.56058
G1 X164.789 Y157.753 E12.56487
G1 X164.799 Y158.083 E12.58134
G1 X164.8 Y158.18 E12.58618
G1 X164.8 Y176.818 E13.51604
G1 X164.79 Y177.535 E13.55181
G1 X164.777 Y177.775 E13.5638
G1 X164.754 Y178.032 E13.57668
G1 X164.742 Y178.149 E13.58254
G1 X164.705 Y178.441 E13.59723
G1 X164.579 Y179.012 E13.6264
G1 X164.504 Y179.247 E13.63871
G1 X164.46 Y179.373 E13.64537
G1 X164.347 Y179.682 E13.66178
G1 X164.093 Y180.218 E13.69137
G1 X163.986 Y180.398 E13.70182
G1 X163.92 Y180.503 E13.70801
G1 X163.745 Y180.773 E13.72406
G1 X163.391 Y181.225 E13.7527
G1 X163.186 Y181.443 E13.76763
G1 X163.093 Y181.538 E13.77426
G1 X162.904 Y181.723 E13.78746
G1 X162.456 Y182.089 E13.81632
G1 X162.29 Y182.201 E13.82631
G1 X162.171 Y182.277 E13.83335
G1 X161.864 Y182.465 E13.85131
G1 X161.307 Y182.736 E13.88222
G1 X161.027 Y182.84 E13.89712
G1 X160.918 Y182.878 E13.90288
G1 X160.67 Y182.96 E13.91591
G1 X160.146 Y183.086 E13.9428
G1 X159.942 Y183.117 E13.95309
G1 X159.785 Y183.137 E13.96099
G1 X159.461 Y183.17 E13.97724
G1 X159.187 Y183.186 E13.99093
G1 X158.356 Y183.199 E14.03239
G1 X158.306 Y183.199 E14.03489
G1 X141.66 Y183.2 E14.86536
G1 X141.614 Y183.2 E14.86766
G1 X140.914 Y183.19 E14.90258
G1 X140.64 Y183.174 E14.91628
G1 X140.063 Y183.116 E14.94521
G1 X139.383 Y182.972 E14.97988
G1 X138.93 Y182.823 E15.00368
G1 X138.588 Y182.688 E15.02202
G1 X138.378 Y182.591 E15.03356
G1 X137.999 Y182.384 E15.0551
G1 X137.64 Y182.155 E15.07635
G1 X137.152 Y181.773 E15.10727
G1 X136.936 Y181.567 E15.12216
G1 X136.858 Y181.489 E15.12766
G1 X136.677 Y181.304 E15.14057
G1 X136.299 Y180.838 E15.17051
G1 X136.16 Y180.629 E15.18303
G1 X136.091 Y180.52 E15.18947
G1 X135.934 Y180.262 E15.20454
G1 X135.683 Y179.753 E15.23285
G1 X135.603 Y179.546 E15.24392
G1 X135.554 Y179.409 E15.25118
G1 X135.443 Y179.078 E15.2686
G1 X135.313 Y178.54 E15.29621
G1 X135.283 Y178.342 E15.3062
G1 X135.263 Y178.186 E15.31405
G1 X135.229 Y177.851 E15.33085
G1 X135.213 Y177.579 E15.34444
G1 X135.2 Y176.771 E15.38476
G1 X135.2 Y123.171 E18.05887
G1 X135.21 Y122.473 E18.0937
G1 X135.22 Y122.266 E18.10404
G1 X135.236 Y122.064 E18.11415
G1 X135.25 Y121.923 E18.12122
G1 X135.295 Y121.56 E18.13947
G1 X135.433 Y120.949 E18.17072
G1 X135.522 Y120.68 E18.18485
G1 X135.556 Y120.583 E18.18998
G1 X135.655 Y120.313 E18.20433
G1 X135.91 Y119.778 E18.2339
G1 X136.016 Y119.6 E18.24423
G1 X136.075 Y119.504 E18.24985
G1 X136.249 Y119.234 E18.26588
G1 X136.614 Y118.769 E18.29537
G1 F1500 E16.29537
;MESH:RPI4_sleeve_case_bottom.stl
G0 F12000 X138.525 Y120.421
G0 X139.433 Y121.328
G0 X157.813 Y143.208
G0 X157.851 Y143.3
;TYPE:WALL-INNER
G1 F1500 E18.29537
G1 F2700 X157 Y144.151 E18.35541
G1 X157 Y157.599 E19.02634
G1 X157.851 Y158.45 E19.08638
G1 X161 Y158.45 E19.24349
G1 X161 Y177.457 E20.19175
G1 X160.949 Y177.92 E20.21499
G1 X160.808 Y178.323 E20.23629
G1 X160.582 Y178.684 E20.25754
G1 X160.29 Y178.976 E20.27814
G1 X159.928 Y179.204 E20.29948
G1 X159.527 Y179.346 E20.32071
G1 X159.072 Y179.399 E20.34356
G1 X140.981 Y179.4 E21.24612
G1 X140.48 Y179.349 E21.27125
G1 X140.077 Y179.208 E21.29255
G1 X139.716 Y178.982 E21.3138
G1 X139.422 Y178.688 E21.33454
G1 X139.196 Y178.33 E21.35566
G1 X139.054 Y177.927 E21.37698
G1 X139.001 Y177.471 E21.39988
G1 X139 Y176.552 E21.44573
G1 X139 Y122.549 E24.13995
G1 X139.052 Y122.079 E24.16354
G1 X139.192 Y121.677 E24.18478
G1 X139.418 Y121.316 E24.20603
G1 X139.712 Y121.022 E24.22677
G1 X140.07 Y120.796 E24.24789
G1 X140.473 Y120.654 E24.26921
G1 X140.928 Y120.601 E24.29207
G1 X158.982 Y120.6 E25.19278
G1 X159.521 Y120.652 E25.2198
G1 X159.923 Y120.792 E25.24104
G1 X160.284 Y121.018 E25.26228
G1 X160.576 Y121.31 E25.28289
G1 X160.804 Y121.672 E25.30423
G1 X160.946 Y122.073 E25.32545
G1 X160.999 Y122.528 E25.34831
G1 X161 Y123.158 E25.37974
G1 X161 Y143.3 E26.38463
G1 X157.851 Y143.3 E26.54173
G0 F12000 X158.017 Y143.7
;TYPE:WALL-OUTER
G1 F2700 X157.4 Y144.317 E26.58526
G1 X157.4 Y157.433 E27.23962
G1 X158.017 Y158.05 E27.28316
G1 X161.4 Y158.05 E27.45194
G1 X161.4 Y177.483 E28.42145
G1 X161.342 Y178.009 E28.44785
G1 X161.172 Y178.495 E28.47354
G1 X160.896 Y178.936 E28.4995
G1 X160.542 Y179.29 E28.52447
G1 X160.105 Y179.566 E28.55026
G1 X159.618 Y179.738 E28.57603
G1 X159.092 Y179.799 E28.60244
G1 X140.96 Y179.8 E29.50705
G1 X140.391 Y179.742 E29.53559
G1 X139.905 Y179.572 E29.56127
G1 X139.464 Y179.296 E29.58723
G1 X139.11 Y178.942 E29.61221
G1 X138.834 Y178.504 E29.63803
G1 X138.662 Y178.018 E29.66376
G1 X138.601 Y177.491 E29.69022
G1 X138.6 Y176.552 E29.73707
G1 X138.6 Y122.523 E32.43259
G1 X138.659 Y121.99 E32.45934
G1 X138.828 Y121.505 E32.48497
G1 X139.104 Y121.064 E32.51092
G1 X139.458 Y120.71 E32.5359
G1 X139.896 Y120.434 E32.56173
G1 X140.382 Y120.262 E32.58745
G1 X140.908 Y120.201 E32.61386
G1 X158.999 Y120.2 E33.51643
G1 X159.61 Y120.259 E33.54705
G1 X160.095 Y120.428 E33.57268
G1 X160.536 Y120.704 E33.59863
G1 X160.89 Y121.058 E33.62361
G1 X161.166 Y121.495 E33.64939
G1 X161.338 Y121.982 E33.67516
G1 X161.399 Y122.508 E33.70158
G1 X161.4 Y123.157 E33.73396
G1 X161.4 Y143.7 E34.75885
G1 X158.017 Y143.7 E34.92763
G0 F12000 X157.876 Y143.841
G0 X157.689 Y142.91
;TYPE:SKIN
G1 F2700 X156.61 Y143.989 E35.00376
G1 X156.61 Y157.761 E35.69085
G1 X157.689 Y158.84 E35.76698
G1 X160.61 Y158.84 E35.91271
G1 X160.61 Y177.432 E36.84027
G1 X160.565 Y177.836 E36.86055
G1 X160.456 Y178.15 E36.87713
G1 X160.271 Y178.445 E36.8945
G1 X160.05 Y178.666 E36.91009
G1 X159.757 Y178.851 E36.92738
G1 X159.44 Y178.963 E36.94415
G1 X159.045 Y179.009 E36.96399
G1 X141 Y179.01 E37.86426
G1 X140.566 Y178.966 E37.88603
G1 X140.249 Y178.855 E37.90278
G1 X139.955 Y178.671 E37.92009
G1 X139.732 Y178.448 E37.93582
G1 X139.549 Y178.158 E37.95293
G1 X139.437 Y177.841 E37.9697
G1 X139.391 Y177.443 E37.98969
G1 X139.39 Y176.552 E38.03414
G1 X139.39 Y122.574 E40.72712
G1 X139.436 Y122.166 E40.7476
G1 X139.546 Y121.846 E40.76448
G1 X139.729 Y121.555 E40.78163
G1 X139.952 Y121.332 E40.79737
G1 X140.242 Y121.149 E40.81447
G1 X140.559 Y121.037 E40.83125
G1 X140.955 Y120.991 E40.85114
G1 X158.965 Y120.99 E41.74966
G1 X159.434 Y121.036 E41.77317
G1 X159.754 Y121.146 E41.79005
G1 X160.045 Y121.329 E41.8072
G1 X160.266 Y121.55 E41.82279
G1 X160.451 Y121.843 E41.84008
G1 X160.563 Y122.16 E41.85686
G1 X160.609 Y122.557 E41.87679
G1 X160.61 Y123.158 E41.90678
G1 X160.61 Y142.91 E42.89221
G1 X157.689 Y142.91 E43.03794
G0 F12000 X160.422 Y122.521
G1 F2700 X159.083 Y121.182 E43.13241
G0 F12000 X158.505 Y121.17
G1 F2700 X160.429 Y123.093 E43.26813
G0 F12000 X160.429 Y123.659
G1 F2700 X157.94 Y121.17 E43.44374
G0 F12000 X157.374 Y121.17
G1 F2700 X160.429 Y124.225 E43.65929
G0 F12000 X160.429 Y124.79
G1 F2700 X156.808 Y121.17 E43.91473
G0 F12000 X156.243 Y121.17
G1 F2700 X160.429 Y125.356 E44.21008
G0 F12000 X160.429 Y125.922
G1 F2700 X155.677 Y121.17 E44.54536
G0 F12000 X155.111 Y121.17
G1 F2700 X160.429 Y126.487 E44.92053
G0 F12000 X160.429 Y127.053
G1 F2700 X154.545 Y121.17 E45.33565
G0 F12000 X153.98 Y121.17
G1 F2700 X160.429 Y127.619 E45.79066
G0 F12000 X160.429 Y128.185
G1 F2700 X153.414 Y121.17 E46.2856
G0 F12000 X152.848 Y121.17
G1 F2700 X160.429 Y128.75 E46.82045
G0 F12000 X160.429 Y129.316
G1 F2700 X152.283 Y121.17 E47.39519
G0 F12000 X151.717 Y121.17
G1 F2700 X160.429 Y129.882 E48.00987
G0 F12000 X160.429 Y130.447
G1 F2700 X151.151 Y121.17 E48.66445
G0 F12000 X150.586 Y121.17
G1 F2700 X160.429 Y131.013 E49.35893
G0 F12000 X160.429 Y131.579
G1 F2700 X150.02 Y121.17 E50.09334
G0 F12000 X149.455 Y121.171
G1 F2700 X160.429 Y132.144 E50.86758
G0 F12000 X160.429 Y132.71
G1 F2700 X148.889 Y121.171 E51.68175
G0 F12000 X148.324 Y121.171
G1 F2700 X160.429 Y133.276 E52.53582
G0 F12000 X160.429 Y133.841
G1 F2700 X147.758 Y121.171 E53.4298
G0 F12000 X147.192 Y121.171
G1 F2700 X160.429 Y134.407 E54.3637
G0 F12000 X160.429 Y134.973
G1 F2700 X146.627 Y121.171 E55.33751
G0 F12000 X146.061 Y121.171
G1 F2700 X160.429 Y135.538 E56.35121
G0 F12000 X160.429 Y136.104
G1 F2700 X145.495 Y121.171 E57.40485
G0 F12000 X144.93 Y121.171
G1 F2700 X160.429 Y136.67 E58.49839
G0 F12000 X160.429 Y137.235
G1 F2700 X144.364 Y121.171 E59.63183
G0 F12000 X143.798 Y121.171
G1 F2700 X160.429 Y137.801 E60.8052
G0 F12000 X160.429 Y138.367
G1 F2700 X143.232 Y121.171 E62.01851
G0 F12000 X142.667 Y121.171
G1 F2700 X160.429 Y138.933 E63.27171
G0 F12000 X160.429 Y139.498
G1 F2700 X142.101 Y121.171 E64.56482
G0 F12000 X141.535 Y121.171
G1 F2700 X160.429 Y140.064 E65.89785
G0 F12000 X160.429 Y140.63
G1 F2700 X140.97 Y121.171 E67.27079
G0 F12000 X140.486 Y121.253
G1 F2700 X160.429 Y141.195 E68.67784
G0 F12000 X160.429 Y141.761
G1 F2700 X140.111 Y121.444 E70.11135
G0 F12000 X139.83 Y121.728
G1 F2700 X160.429 Y142.327 E71.56472
G0 F12000 X160.266 Y142.73
G1 F2700 X139.645 Y122.108 E73.01968
G0 F12000 X139.569 Y122.598
G1 F2700 X159.7 Y142.73 E74.44007
G0 F12000 X159.135 Y142.73
G1 F2700 X139.569 Y123.164 E75.82055
G0 F12000 X139.569 Y123.73
G1 F2700 X158.569 Y142.73 E77.16111
G0 F12000 X158.003 Y142.73
G1 F2700 X139.569 Y124.295 E78.46176
G0 F12000 X139.569 Y124.861
G1 F2700 X157.525 Y142.817 E79.72865
G0 F12000 X157.242 Y143.1
G1 F2700 X139.569 Y125.427 E80.97558
G0 F12000 X139.569 Y125.992
G1 F2700 X156.96 Y143.383 E82.20261
G0 F12000 X156.677 Y143.666
G1 F2700 X139.569 Y126.558 E83.40967
G0 F12000 X139.569 Y127.124
G1 F2700 X156.429 Y143.984 E84.59923
G0 F12000 X156.429 Y144.55
G1 F2700 X139.569 Y127.69 E85.7888
G0 F12000 X139.569 Y128.255
G1 F2700 X156.429 Y145.115 E86.97836
G0 F12000 X156.429 Y145.681
G1 F2700 X139.569 Y128.821 E88.16793
G0 F12000 X139.569 Y129.387
G1 F2700 X156.429 Y146.247 E89.35749
G0 F12000 X156.429 Y146.813
G1 F2700 X139.569 Y129.952 E90.54709
G0 F12000 X139.569 Y130.518
G1 F2700 X156.429 Y147.378 E91.73665
G0 F12000 X156.429 Y147.944
G1 F2700 X139.569 Y131.084 E92.92622
G0 F12000 X139.569 Y131.649
