;FLAVOR:Marlin
;TIME:6367
;Filament used: 0.928442m
;Layer height: 0.08
;MINX:128.501
;MINY:141
;MINZ:0.2
;MAXX:171.5
;MAXY:158.999
;MAXZ:40.46
;Generated with Cura_SteamEngine 4.4.1
M140 S80
M105
M190 S80
M104 S200
M105
M109 S200
M82 ;absolute extrusion mode
G28 ;Home
G1 Z15.0 F6000 ;Move the platform down 15mm
;Prime the extruder
G92 E0
G1 F200 E3
G92 E0
G92 E0
G92 E0
G1 F1500 E-2.5
;LAYER_COUNT:498
;LAYER:0
M107
M204 S5000
G1 F600 Z0.7
G0 F2400 X129.911 Y141.968 Z0.7
M204 S300
;TYPE:SKIRT
G1 F600 Z0.2
G1 F1500 E0
G1 F600 X130.366 Y141.632 E0.01844
G1 X130.863 Y141.364 E0.03684
G1 X131.394 Y141.168 E0.05529
G1 X131.946 Y141.049 E0.0737
G1 X132.398 Y141.011 E0.08848
G1 X132.718 Y141.002 E0.09892
G1 X132.83 Y141 E0.10257
G1 X136.837 Y141 E0.23317
G1 X137.535 Y141.01 E0.25593
G1 X138.089 Y141.057 E0.27405
G1 X138.607 Y141.137 E0.29114
G1 X138.672 Y141.148 E0.29328
G1 X140.378 Y141.441 E0.3497
G1 X143.086 Y141.826 E0.43886
G1 X145.74 Y142.127 E0.52592
G1 X148.483 Y142.36 E0.61565
G1 X151.188 Y142.513 E0.70396
G1 X155.291 Y142.6 E0.83773
G1 X166.807 Y142.6 E1.21309
G1 X167.505 Y142.61 E1.23585
G1 X168.069 Y142.658 E1.2543
G1 X168.547 Y142.764 E1.27025
G1 X168.589 Y142.776 E1.27168
G1 X169.12 Y142.969 E1.29009
G1 X169.619 Y143.236 E1.30854
G1 X170.075 Y143.569 E1.32694
G1 X170.48 Y143.964 E1.34538
G1 X170.824 Y144.412 E1.3638
G1 X171.103 Y144.905 E1.38226
G1 X171.309 Y145.431 E1.40067
G1 X171.438 Y145.981 E1.41909
G1 X171.489 Y146.558 E1.43797
G1 X171.499 Y147.182 E1.45831
G1 X171.5 Y147.246 E1.4604
G1 X171.5 Y152.719 E1.63879
G1 X171.49 Y153.446 E1.66249
G1 X171.442 Y154.009 E1.6809
G1 X171.315 Y154.56 E1.69933
G1 X171.112 Y155.088 E1.71777
G1 X170.837 Y155.582 E1.7362
G1 X170.495 Y156.032 E1.75462
G1 X170.092 Y156.429 E1.77306
G1 X169.638 Y156.765 E1.79147
G1 X169.141 Y157.034 E1.80989
G1 X168.611 Y157.231 E1.82832
G1 X168.058 Y157.35 E1.84676
G1 X167.602 Y157.389 E1.86168
G1 X167.282 Y157.398 E1.87211
G1 X167.17 Y157.4 E1.87576
G1 X155.282 Y157.4 E2.26325
G1 X152.482 Y157.44 E2.35453
G1 X149.812 Y157.553 E2.44163
G1 X147.105 Y157.745 E2.53009
G1 X144.384 Y158.015 E2.61922
G1 X141.67 Y158.362 E2.7084
G1 X138.882 Y158.801 E2.80039
G1 X138.254 Y158.909 E2.82116
G1 X137.668 Y158.966 E2.84035
G1 X136.537 Y158.992 E2.87723
G1 X136.452 Y158.993 E2.88
G1 X133.193 Y158.999 E2.98623
G1 X133.138 Y158.999 E2.98802
G1 X132.478 Y158.991 E3.00953
G1 X131.914 Y158.944 E3.02798
G1 X131.363 Y158.818 E3.04641
G1 X130.835 Y158.616 E3.06483
G1 X130.341 Y158.341 E3.08326
G1 X129.89 Y158 E3.10169
G1 X129.492 Y157.598 E3.12013
G1 X129.155 Y157.145 E3.13853
G1 X128.885 Y156.648 E3.15697
G1 X128.688 Y156.118 E3.1754
G1 X128.567 Y155.566 E3.19382
G1 X128.529 Y155.152 E3.20737
G1 X128.516 Y154.829 E3.2179
G1 X128.513 Y154.673 E3.22299
G1 X128.501 Y145.617 E3.51817
G1 X128.501 Y145.552 E3.52029
G1 X128.51 Y144.949 E3.53995
G1 X128.559 Y144.386 E3.55837
G1 X128.686 Y143.835 E3.5768
G1 X128.89 Y143.308 E3.59522
G1 X129.166 Y142.814 E3.61366
G1 X129.509 Y142.365 E3.63208
G1 X129.911 Y141.968 E3.65049
M204 S5000
G0 F2400 X130.299 Y142.168
M204 S300
G1 F600 X130.746 Y141.871 E3.66799
G1 X131.232 Y141.644 E3.68547
G1 X131.746 Y141.491 E3.70295
G1 X132.409 Y141.41 E3.72472
G1 X132.729 Y141.401 E3.73516
G1 X132.83 Y141.4 E3.73845
G1 X136.832 Y141.4 E3.86889
G1 X137.53 Y141.41 E3.89165
G1 X138.027 Y141.452 E3.9079
G1 X138.545 Y141.532 E3.92499
G1 X138.605 Y141.542 E3.92697
G1 X140.326 Y141.837 E3.98389
G1 X143.021 Y142.22 E4.07261
G1 X145.733 Y142.528 E4.16158
G1 X148.462 Y142.761 E4.25085
G1 X151.156 Y142.912 E4.3388
G1 X155.283 Y143 E4.47335
G1 X166.802 Y143 E4.84881
G1 X167.5 Y143.01 E4.87157
G1 X168.034 Y143.058 E4.88904
G1 X168.437 Y143.149 E4.90251
G1 X168.479 Y143.161 E4.90393
G1 X168.982 Y143.346 E4.9214
G1 X169.452 Y143.604 E4.93888
G1 X169.879 Y143.929 E4.95637
G1 X170.253 Y144.314 E4.97386
G1 X170.565 Y144.75 E4.99134
G1 X170.809 Y145.227 E5.0088
G1 X170.979 Y145.736 E5.02629
G1 X171.072 Y146.264 E5.04377
G1 X171.09 Y146.564 E5.05357
G1 X171.1 Y147.188 E5.07391
G1 X171.1 Y152.714 E5.25403
G1 X171.09 Y153.441 E5.27773
G1 X171.042 Y153.975 E5.2952
G1 X170.916 Y154.496 E5.31267
G1 X170.714 Y154.993 E5.33016
G1 X170.44 Y155.454 E5.34764
G1 X170.101 Y155.869 E5.36511
G1 X169.704 Y156.23 E5.3826
G1 X169.258 Y156.527 E5.40006
G1 X168.772 Y156.755 E5.41756
G1 X168.258 Y156.908 E5.43504
G1 X167.591 Y156.99 E5.45694
G1 X167.271 Y156.999 E5.46738
G1 X167.17 Y157 E5.47067
G1 X155.276 Y157 E5.85835
G1 X152.495 Y157.039 E5.94901
G1 X149.767 Y157.155 E6.03801
G1 X147.038 Y157.349 E6.12719
G1 X144.361 Y157.614 E6.21487
G1 X141.628 Y157.964 E6.30468
G1 X138.817 Y158.406 E6.39743
G1 X138.186 Y158.515 E6.4183
G1 X137.659 Y158.566 E6.43556
G1 X136.528 Y158.592 E6.47243
G1 X136.452 Y158.593 E6.47491
G1 X133.193 Y158.599 E6.58114
G1 X133.142 Y158.599 E6.5828
G1 X132.482 Y158.591 E6.60431
G1 X131.948 Y158.544 E6.62179
G1 X131.427 Y158.419 E6.63925
G1 X130.93 Y158.218 E6.65673
G1 X130.468 Y157.945 E6.67422
G1 X130.052 Y157.606 E6.69171
G1 X129.691 Y157.21 E6.70917
G1 X129.393 Y156.764 E6.72666
G1 X129.164 Y156.279 E6.74414
G1 X129.01 Y155.765 E6.76163
G1 X128.929 Y155.136 E6.7823
G1 X128.916 Y154.813 E6.79284
G1 X128.913 Y154.673 E6.7974
G1 X128.901 Y145.617 E7.09258
G1 X128.901 Y145.558 E7.09451
G1 X128.91 Y144.955 E7.11416
G1 X128.958 Y144.421 E7.13164
G1 X129.085 Y143.9 E7.14912
G1 X129.288 Y143.404 E7.16659
G1 X129.562 Y142.943 E7.18407
G1 X129.902 Y142.528 E7.20155
G1 X130.299 Y142.168 E7.21902
M204 S5000
G0 F2400 X130.294 Y142.701
M204 S300
G1 F600 X130.685 Y142.381 E7.23549
G1 X131.122 Y142.126 E7.25198
G1 X131.593 Y141.943 E7.26845
G1 X132.087 Y141.837 E7.28492
G1 X132.42 Y141.81 E7.29581
G1 X132.74 Y141.801 E7.30624
G1 X132.83 Y141.8 E7.30918
G1 X136.826 Y141.8 E7.43943
G1 X137.524 Y141.81 E7.46218
G1 X137.966 Y141.847 E7.47664
G1 X138.484 Y141.927 E7.49372
G1 X138.537 Y141.936 E7.49548
G1 X140.273 Y142.234 E7.55289
G1 X142.952 Y142.615 E7.64109
G1 X145.725 Y142.929 E7.73205
G1 X148.405 Y143.158 E7.81972
G1 X151.155 Y143.312 E7.9095
G1 X155.274 Y143.4 E8.04379
G1 X166.796 Y143.4 E8.41935
G1 X167.494 Y143.41 E8.4421
G1 X167.997 Y143.457 E8.45857
G1 X168.327 Y143.533 E8.46961
G1 X168.369 Y143.545 E8.47103
G1 X168.843 Y143.722 E8.48752
G1 X169.283 Y143.971 E8.504
G1 X169.678 Y144.287 E8.52049
G1 X170.018 Y144.66 E8.53694
G1 X170.296 Y145.083 E8.55344
G1 X170.503 Y145.544 E8.56991
G1 X170.635 Y146.032 E8.58639
G1 X170.69 Y146.571 E8.60405
G1 X170.7 Y147.195 E8.62439
G1 X170.7 Y152.708 E8.80409
G1 X170.69 Y153.435 E8.82779
G1 X170.643 Y153.938 E8.84425
G1 X170.517 Y154.428 E8.86074
G1 X170.316 Y154.892 E8.87723
G1 X170.044 Y155.318 E8.8937
G1 X169.709 Y155.697 E8.91019
G1 X169.318 Y156.017 E8.92666
G1 X168.882 Y156.272 E8.94312
G1 X168.411 Y156.456 E8.9596
G1 X167.916 Y156.562 E8.9761
G1 X167.58 Y156.59 E8.98709
G1 X167.26 Y156.599 E8.99753
G1 X167.17 Y156.6 E9.00046
G1 X155.27 Y156.6 E9.38834
G1 X152.473 Y156.64 E9.47952
G1 X149.756 Y156.755 E9.56816
G1 X147.01 Y156.95 E9.65789
G1 X144.304 Y157.218 E9.74652
G1 X141.587 Y157.566 E9.83581
G1 X138.758 Y158.011 E9.92915
G1 X138.118 Y158.121 E9.95032
G1 X137.65 Y158.166 E9.96564
G1 X136.519 Y158.192 E10.00252
G1 X136.451 Y158.193 E10.00473
G1 X133.192 Y158.199 E10.11096
G1 X133.147 Y158.199 E10.11243
G1 X132.487 Y158.191 E10.13394
G1 X131.984 Y158.145 E10.1504
G1 X131.494 Y158.02 E10.16689
G1 X131.03 Y157.82 E10.18336
G1 X130.603 Y157.549 E10.19984
G1 X130.224 Y157.214 E10.21633
G1 X129.903 Y156.824 E10.23279
G1 X129.647 Y156.387 E10.2493
G1 X129.463 Y155.917 E10.26575
G1 X129.355 Y155.423 E10.28223
G1 X129.329 Y155.12 E10.29215
G1 X129.316 Y154.797 E10.30268
G1 X129.313 Y154.672 E10.30676
G1 X129.301 Y145.616 E10.60194
G1 X129.301 Y145.564 E10.60363
G1 X129.31 Y144.961 E10.62329
G1 X129.358 Y144.458 E10.63976
G1 X129.484 Y143.968 E10.65625
G1 X129.686 Y143.505 E10.67272
G1 X129.958 Y143.079 E10.68919
G1 X130.294 Y142.701 E10.70568
M204 S5000
G1 F1500 E8.20568
G1 F600 Z0.7
;MESH:79f70cb1-0243-4841-8c1d-dc350a81773d.stl
G0 F2400 X136.9 Y152.8 Z0.7
M204 S300
;TYPE:WALL-INNER
G1 F600 Z0.2
G1 F1500 E10.70568
G1 F600 X136.9 Y154.392 E10.75757
G1 X133.312 Y154.399 E10.87452
G1 X133.112 Y154.399 E10.88104
G1 X133.112 Y154.199 E10.88526
G1 X133.101 Y145.8 E11.15902
G1 X133.101 Y145.6 E11.16554
G1 X133.301 Y145.6 E11.16976
G1 X136.892 Y145.6 E11.28681
G1 X136.905 Y147.2 E11.33897
G1 X166.9 Y147.2 E12.31665
G1 X166.9 Y152.8 E12.49918
G1 X152.787 Y152.8 E12.95919
G1 X152.511 Y152.8 E12.96819
G1 X151.312 Y152.8 E13.00727
G1 X136.9 Y152.8 E13.47703
M204 S5000
G0 F2400 X144.345 Y147.905
M204 S300
G1 F600 X144.305 Y148.209 E13.48702
G1 X144.186 Y149.112 E13.51671
G1 X144.285 Y149.694 E13.53596
G1 X144.497 Y149.849 E13.54452
G1 X144.717 Y150.01 E13.5534
G1 X144.497 Y150.171 E13.55869
G1 X144.183 Y150.401 E13.57138
G1 X144.216 Y151.501 E13.60725
G1 X144.844 Y151.826 E13.6303
G1 X145.763 Y151.211 E13.66634
G1 X145.875 Y151.132 E13.67081
G1 X145.947 Y151.081 E13.67369
G1 X145.967 Y151.157 E13.67427
G1 X146.01 Y151.321 E13.67755
G1 X146.423 Y151.791 E13.69794
G1 X146.89 Y151.958 E13.71411
G1 X147.449 Y151.965 E13.73233
G1 X147.66 Y151.893 E13.7396
G1 X149.07 Y151.955 E13.7856
G1 X149.082 Y151.924 E13.78669
G1 X150.348 Y151.901 E13.82796
G1 X150.386 Y151.923 E13.82939
G1 X150.918 Y151.972 E13.8468
G1 X151.312 Y151.879 E13.86
G1 X151.312 Y151.972
G1 X151.312 Y152.722 E13.88445
G1 X152.511 Y152.535 E13.9016
G1 X152.756 Y152.408 E13.90911
G1 X153.035 Y152.263 E13.91936
G1 X153.274 Y151.893 E13.93372
G1 X153.339 Y151.639 E13.94227
G1 X153.365 Y151.539 E13.94563
G1 X153.46 Y151.67 E13.94757
G1 X153.921 Y151.922 E13.9647
G1 X154.541 Y151.981 E13.985
G1 X155.111 Y151.788 E14.00461
G1 X155.532 Y151.345 E14.02453
G1 X155.683 Y150.741 E14.04483
G1 X155.567 Y150.193 E14.06308
G1 X155.377 Y149.915 E14.07406
G1 X155.342 Y149.863 E14.0761
G1 X155.444 Y149.829 E14.07685
G1 X155.559 Y149.79 E14.07936
G1 X155.593 Y149.097 E14.10198
G1 X155.336 Y148.532 E14.12221
G1 X154.89 Y148.177 E14.14079
G1 X154.391 Y148.063 E14.15747
G1 X153.929 Y148.118 E14.17264
G1 X153.869 Y148.15 E14.17486
G1 X152.723 Y148.097 E14.21225
G1 X152.721 Y148.083 E14.21271
G1 X152.573 Y148.09 E14.21754
G1 X152.423 Y148.083 E14.22243
G1 X152.421 Y148.097 E14.22289
G1 X151.294 Y148.15 E14.25967
G1 X150.695 Y148.056 E14.27943
G1 X150.315 Y148.151 E14.2922
G1 X149.027 Y148.086 E14.33424
G1 X149.019 Y148.107 E14.33497
G1 X147.552 Y148.107 E14.38279
G1 X147.509 Y148.09 E14.38429
G1 X146.867 Y148.089 E14.40522
G1 X146.371 Y148.303 E14.42283
G1 X146.018 Y148.714 E14.44049
G1 X145.958 Y148.947 E14.44833
G1 X145.888 Y148.897
G1 X145.407 Y148.554 E14.46758
G1 X144.607 Y148.065 E14.49815
G1 X144.345 Y147.905 E14.50395
M204 S5000
G0 F2400 X144.661 Y148.567
M204 S300
;TYPE:WALL-OUTER
G1 F600 X144.621 Y148.871 E14.51394
G1 X144.59 Y149.104 E14.52161
G1 X144.652 Y149.467 E14.53361
G1 X145.174 Y149.848 E14.55467
G1 X145.394 Y150.009 E14.56356
G1 X145.174 Y150.17 E14.56885
G1 X144.589 Y150.599 E14.5925
G1 X144.605 Y151.105 E14.609
G1 X144.609 Y151.254 E14.61386
G1 X144.818 Y151.362 E14.62153
G1 X144.941 Y151.28 E14.62634
G1 X145.536 Y150.881 E14.64969
G1 X146.028 Y150.533 E14.66934
G1 X146.102 Y150.481 E14.67229
G1 X146.253 Y150.374 E14.67832
G1 X146.261 Y150.704 E14.68415
G1 X146.284 Y150.792 E14.68672
G1 X146.373 Y151.128 E14.69805
G1 X146.655 Y151.449 E14.71198
G1 X146.962 Y151.559 E14.72261
G1 X147.385 Y151.564 E14.7364
G1 X147.716 Y151.452 E14.74779
G1 X147.83 Y151.343 E14.75293
G1 X147.834 Y151.339 E14.75311
G1 X147.963 Y151.216 E14.75892
G1 X148.07 Y150.966 E14.76779
G1 X148.103 Y150.89 E14.77049
G1 X148.103 Y150.887 E14.77059
G1 X148.156 Y150.486 E14.78377
G1 X148.19 Y150.236 E14.79199
G1 X148.174 Y150.236
G1 X147.36 Y150.276 E14.81856
G1 X147.281 Y150.657 E14.83124
G1 X147.253 Y150.788 E14.83561
G1 X147.223 Y150.818 E14.83699
G1 X147.198 Y150.816 E14.83781
G1 X147.146 Y150.771 E14.838
G1 X147.108 Y150.621 E14.84007
G1 X147.111 Y150.274 E14.84579
G1 X147.112 Y150.218 E14.84728
G1 X147.358 Y150.212 E14.8553
G1 X148.171 Y150.192 E14.85885
G1 X148.151 Y149.83 E14.87067
G1 X148.127 Y149.395 E14.88487
G1 X148.052 Y149.051 E14.89634
G1 X148.024 Y148.922 E14.90064
G1 X147.989 Y148.879 E14.90245
G1 X147.966 Y148.85 E14.90366
G1 X147.788 Y148.632 E14.91283
G1 X147.432 Y148.49 E14.92532
G1 X146.949 Y148.489 E14.94107
G1 X146.614 Y148.634 E14.95297
G1 X146.382 Y148.904 E14.96457
G1 X146.296 Y149.237 E14.97578
G1 X146.275 Y149.321 E14.9786
G1 X146.262 Y149.656 E14.98953
G1 X146.113 Y149.55 E14.99058
G1 X146.043 Y149.5 E14.99304
G1 X145.186 Y148.888 E15.02736
G1 X144.923 Y148.727 E15.03742
G1 X144.661 Y148.567 E15.04322
M204 S5000
G0 F2400 X144.635 Y148.765
G0 X144.339 Y148.726
G0 X147.561 Y148.266
G0 X148.059 Y148.904
G0 X148.297 Y150.55
G0 X147.893 Y151.727
G0 X149.392 Y151.752
G0 X150.309 Y151.723
G0 X150.191 Y151.503
M204 S300
G1 F600 X150.146 Y151.406 E15.04671
G1 X150.053 Y151.203 E15.05398
G1 X150.052 Y151.202 E15.05403
G1 X149.978 Y151.041 E15.05981
G1 X150.086 Y151.182 E15.06272
G1 X150.093 Y151.191 E15.06309
G1 X150.229 Y151.367 E15.06755
G1 X150.26 Y151.385
G1 X150.512 Y151.533 E15.0765
G1 X150.89 Y151.568 E15.08887
G1 X151.334 Y151.463 E15.10374
G1 X151.36 Y151.457 E15.10461
G1 X151.485 Y151.316 E15.11076
G1 X151.638 Y151.144 E15.11826
G1 X151.643 Y151.126 E15.11887
G1 X151.678 Y151.011 E15.12279
G1 X151.753 Y150.759 E15.13136
G1 X151.689 Y150.38 E15.14388
G1 X151.446 Y150.026 E15.15788
G1 X151.234 Y149.804 E15.16789
G1 X151.056 Y149.618 E15.17628
G1 X151.044 Y149.604 E15.17688
G1 X150.837 Y149.353 E15.18748
G1 X150.796 Y149.303 E15.18959
G1 X150.796 Y149.291 E15.18998
G1 X150.796 Y149.268 E15.19073
G1 X150.824 Y149.239 E15.19204
G1 X150.854 Y149.238
G1 X150.911 Y149.291
G1 X151.061 Y149.589 E15.19407
G1 X151.455 Y149.591 E15.20121
G1 X151.663 Y149.398 E15.21046
G1 X151.65 Y149.264 E15.21484
G1 X151.628 Y149.045 E15.22202
G1 X151.469 Y148.777 E15.23217
G1 X151.394 Y148.719 E15.23526
G1 X151.157 Y148.533 E15.24508
G1 X150.713 Y148.464 E15.25973
G1 X150.46 Y148.527 E15.26823
G1 X150.271 Y148.668 E15.27592
G1 X150.209 Y148.715 E15.27845
G1 X150.125 Y148.777 E15.28185
G1 X149.972 Y149.084 E15.29303
G1 X149.967 Y149.204 E15.29695
G1 X149.96 Y149.325 E15.3009
G1 X149.954 Y149.445 E15.30482
G1 X150.054 Y149.691 E15.31347
G1 X150.119 Y149.85 E15.31907
G1 X150.343 Y150.077 E15.32947
G1 X150.584 Y150.321 E15.34064
G1 X150.253 Y150.409 E15.34698
G1 X150.002 Y150.477 E15.35545
G1 X149.883 Y150.692 E15.36346
G1 X149.969 Y151.021 E15.37455
G1 X149.829 Y150.718 E15.37527
G1 X149.801 Y150.657
G1 X149.768 Y150.584
G1 X149.507 Y150.007 E15.39592
G1 X149.69 Y149.616 E15.40999
G1 X149.802 Y149.375 E15.41633
G1 X149.828 Y149.319 E15.4165
G1 X149.94 Y149.07 E15.42311
G1 X149.983 Y148.974 E15.42654
G1 X149.99 Y148.96 E15.42705
G1 X150.032 Y148.868 E15.43034
G1 X150.05 Y148.828 E15.43177
G1 X150.081 Y148.758
G1 X150.178 Y148.544 E15.43656
G1 X150.058 Y148.538 E15.44048
G1 X149.292 Y148.5 E15.46548
G1 X149.235 Y148.641 E15.47044
G1 X149.076 Y149.038 E15.48438
G1 X149.066 Y149.061 E15.48519
G1 X149.047 Y149.027 E15.48555
G1 X148.869 Y148.638 E15.49357
G1 X148.808 Y148.507 E15.49828
G1 X148.191 Y148.507 E15.51839
G1 X147.923 Y148.507 E15.52713
G1 X147.946 Y148.559 E15.52898
G1 X148.001 Y148.68 E15.53331
G1 X148.058 Y148.803 E15.53773
G1 X148.097 Y148.888 E15.54078
G1 X148.294 Y149.318 E15.5562
G1 X148.52 Y149.809 E15.56897
G1 X148.581 Y149.958 E15.57421
G1 X148.444 Y150.301 E15.58525
G1 X148.431 Y150.332
G1 X148.358 Y150.512 E15.58852
G1 X148.182 Y150.923 E15.6031
G1 X148.149 Y150.999 E15.60367
G1 X148.095 Y151.169 E15.60948
G1 X148.071 Y151.245 E15.61208
G1 X148.07 Y151.249
G1 X147.987 Y151.507 E15.61865
G1 X148.071 Y151.51 E15.62139
G1 X148.802 Y151.543 E15.64524
G1 X148.87 Y151.37 E15.6513
G1 X149.036 Y150.947 E15.66611
G1 X149.235 Y151.356 E15.67415
G1 X149.315 Y151.519 E15.68006
G1 X149.967 Y151.507 E15.70132
G1 X150.191 Y151.503 E15.70638
M204 S5000
G0 F2400 X150.146 Y151.406
G0 X150.107 Y151.321
G0 X150.723 Y150.698
M204 S300
G1 F600 X150.716 Y150.687 E15.70681
