;FLAVOR:Marlin
;TIME:2830
;Filament used: 4.11588m
;Layer height: 0.2
;MINX:134.8
;MINY:116.401
;MINZ:0.3
;MAXX:165.2
;MAXY:183.599
;MAXZ:36.7
;Generated with Cura_SteamEngine 4.4.1
M140 S80
M105
M190 S80
M104 S230
M105
M109 S230
M82 ;absolute extrusion mode
G28 ;Home
G1 Z15.0 F6000 ;Move the platform down 15mm
;Prime the extruder
G92 E0
G1 F200 E3
G92 E0
G92 E0
G92 E0
G1 F1500 E-2
;LAYER_COUNT:183
;LAYER:0
M107
G1 F600 Z0.8
G0 F12000 X136.46 Y118.349 Z0.8
;TYPE:SKIRT
G1 F600 Z0.3
G1 F1500 E0
G1 F2700 X137.016 Y117.826 E0.03808
G1 X137.442 Y117.503 E0.06475
G1 X138.082 Y117.116 E0.10207
G1 X138.538 Y116.901 E0.12722
G1 X139.254 Y116.651 E0.16506
G1 X139.776 Y116.529 E0.1918
G1 X140.52 Y116.436 E0.22921
G1 X141.528 Y116.415 E0.27951
G1 X141.6 Y116.414 E0.2831
G1 X158.329 Y116.401 E1.11771
G1 X158.381 Y116.401 E1.12031
G1 X158.973 Y116.409 E1.14985
G1 X159.186 Y116.419 E1.16048
G1 X159.788 Y116.463 E1.1906
G1 X160.327 Y116.543 E1.21778
G1 X160.581 Y116.601 E1.23078
G1 X160.938 Y116.702 E1.24929
G1 X161.194 Y116.789 E1.26278
G1 X161.765 Y117.041 E1.29392
G1 X162.258 Y117.311 E1.32196
G1 X162.879 Y117.74 E1.35962
G1 X163.247 Y118.057 E1.38385
G1 X163.767 Y118.612 E1.42179
G1 X164.107 Y119.061 E1.44989
G1 X164.491 Y119.693 E1.48679
G1 X164.679 Y120.09 E1.5087
G1 X164.921 Y120.771 E1.54476
G1 X165.059 Y121.332 E1.57358
G1 X165.159 Y122.017 E1.60812
G1 X165.186 Y122.572 E1.63584
G1 X165.19 Y122.698 E1.64213
G1 X165.2 Y123.428 E1.67855
G1 X165.2 Y176.785 E4.34054
G1 X165.191 Y177.389 E4.37068
G1 X165.181 Y177.597 E4.38107
G1 X165.141 Y178.145 E4.40848
G1 X165.083 Y178.582 E4.43048
G1 X165.029 Y178.855 E4.44436
G1 X164.906 Y179.313 E4.46802
G1 X164.811 Y179.593 E4.48277
G1 X164.559 Y180.165 E4.51395
G1 X164.289 Y180.658 E4.542
G1 X163.86 Y181.279 E4.57965
G1 X163.543 Y181.647 E4.60388
G1 X162.988 Y182.167 E4.64183
G1 X162.539 Y182.507 E4.66993
G1 X161.907 Y182.891 E4.70682
G1 X161.51 Y183.079 E4.72874
G1 X160.826 Y183.321 E4.76493
G1 X160.255 Y183.461 E4.79427
G1 X159.474 Y183.564 E4.83357
G1 X158.474 Y183.585 E4.88347
G1 X158.401 Y183.586 E4.88711
G1 X141.696 Y183.599 E5.72053
G1 X141.649 Y183.599 E5.72287
G1 X140.996 Y183.591 E5.75545
G1 X140.747 Y183.579 E5.76789
G1 X140.099 Y183.526 E5.80033
G1 X139.316 Y183.374 E5.84012
G1 X138.888 Y183.24 E5.86249
G1 X138.225 Y182.956 E5.89848
G1 X137.732 Y182.684 E5.92657
G1 X137.125 Y182.262 E5.96345
G1 X136.748 Y181.938 E5.98825
G1 X136.222 Y181.379 E6.02655
G1 X135.9 Y180.953 E6.05319
G1 X135.517 Y180.32 E6.0901
G1 X135.302 Y179.865 E6.11521
G1 X135.052 Y179.149 E6.15304
G1 X134.93 Y178.629 E6.17969
G1 X134.839 Y177.981 E6.21234
G1 X134.816 Y177.507 E6.23601
G1 X134.812 Y177.386 E6.24205
G1 X134.8 Y176.572 E6.28267
G1 X134.8 Y123.156 E8.9476
G1 X134.81 Y122.451 E8.98278
G1 X134.827 Y122.148 E8.99792
G1 X134.873 Y121.683 E9.02123
G1 X135.008 Y121.003 E9.05582
G1 X135.151 Y120.526 E9.08066
G1 X135.445 Y119.825 E9.11859
G1 X135.714 Y119.336 E9.14643
G1 X136.137 Y118.725 E9.18351
G1 X136.46 Y118.349 E9.20824
G0 F12000 X136.764 Y118.61
G1 F2700 X137.258 Y118.145 E9.24208
G1 X137.684 Y117.822 E9.26875
G1 X138.252 Y117.478 E9.30188
G1 X138.708 Y117.263 E9.32704
G1 X139.345 Y117.041 E9.36069
G1 X139.867 Y116.919 E9.38743
G1 X140.528 Y116.836 E9.42067
G1 X141.536 Y116.815 E9.47097
G1 X141.601 Y116.814 E9.47421
G1 X158.33 Y116.801 E10.30883
G1 X158.375 Y116.801 E10.31107
G1 X158.967 Y116.809 E10.34061
G1 X159.157 Y116.818 E10.3501
G1 X159.759 Y116.862 E10.38021
G1 X160.238 Y116.933 E10.40437
G1 X160.492 Y116.991 E10.41737
G1 X160.81 Y117.081 E10.43386
G1 X161.066 Y117.168 E10.44735
G1 X161.573 Y117.391 E10.47498
G1 X162.066 Y117.661 E10.50302
G1 X162.617 Y118.044 E10.5365
G1 X162.985 Y118.361 E10.56073
G1 X163.448 Y118.853 E10.59444
G1 X163.788 Y119.302 E10.62254
G1 X164.129 Y119.864 E10.65533
G1 X164.317 Y120.261 E10.67725
G1 X164.532 Y120.867 E10.70933
G1 X164.67 Y121.428 E10.73815
G1 X164.759 Y122.037 E10.76886
G1 X164.786 Y122.592 E10.79658
G1 X164.79 Y122.703 E10.80212
G1 X164.8 Y123.433 E10.83854
G1 X164.8 Y176.779 E13.49999
G1 X164.791 Y177.383 E13.53012
G1 X164.783 Y177.568 E13.53936
G1 X164.743 Y178.116 E13.56678
G1 X164.69 Y178.504 E13.58631
G1 X164.636 Y178.777 E13.6002
G1 X164.527 Y179.184 E13.62122
G1 X164.432 Y179.464 E13.63597
G1 X164.209 Y179.973 E13.66369
G1 X163.939 Y180.466 E13.69174
G1 X163.556 Y181.017 E13.72521
G1 X163.239 Y181.385 E13.74945
G1 X162.747 Y181.848 E13.78315
G1 X162.298 Y182.188 E13.81125
G1 X161.736 Y182.529 E13.84405
G1 X161.339 Y182.717 E13.86596
G1 X160.731 Y182.933 E13.89815
G1 X160.16 Y183.073 E13.92748
G1 X159.465 Y183.164 E13.96245
G1 X158.465 Y183.185 E14.01235
G1 X158.4 Y183.186 E14.0156
G1 X141.695 Y183.199 E14.84901
G1 X141.654 Y183.199 E14.85106
G1 X141.001 Y183.191 E14.88364
G1 X140.779 Y183.18 E14.89473
G1 X140.131 Y183.127 E14.92717
G1 X139.436 Y182.992 E14.96249
G1 X139.008 Y182.858 E14.98486
G1 X138.418 Y182.606 E15.01687
G1 X137.925 Y182.334 E15.04496
G1 X137.385 Y181.959 E15.07776
G1 X137.008 Y181.635 E15.10256
G1 X136.541 Y181.138 E15.13659
G1 X136.219 Y180.712 E15.16323
G1 X135.879 Y180.149 E15.19604
G1 X135.664 Y179.694 E15.22115
G1 X135.442 Y179.058 E15.25475
G1 X135.32 Y178.538 E15.2814
G1 X135.239 Y177.962 E15.31042
G1 X135.216 Y177.488 E15.3341
G1 X135.212 Y177.38 E15.33949
G1 X135.2 Y176.566 E15.3801
G1 X135.2 Y123.162 E18.04444
G1 X135.21 Y122.457 E18.07962
G1 X135.226 Y122.187 E18.09311
G1 X135.272 Y121.722 E18.11642
G1 X135.391 Y121.118 E18.14714
G1 X135.534 Y120.641 E18.17198
G1 X135.795 Y120.018 E18.20568
G1 X136.064 Y119.529 E18.23352
G1 X136.441 Y118.986 E18.2665
G1 X136.764 Y118.61 E18.29123
G1 F1500 E16.29123
;MESH:RPI4_sleeve_case_top.stl
G0 F12000 X140.436 Y119.378
G0 X140.703 Y120.634
G0 X159.825 Y120.854
G0 X159.865 Y120.763
;TYPE:WALL-INNER
G1 F1500 E18.29123
G1 F2700 X160.209 Y120.961 E18.31103
G1 X160.508 Y121.23 E18.3311
G1 X160.741 Y121.549 E18.35081
G1 X160.902 Y121.91 E18.37053
G1 X160.987 Y122.307 E18.39078
G1 X161 Y122.767 E18.41374
G1 X161 Y124.615 E18.50594
G1 X161 Y138.197 E19.18355
G1 X161 Y143.864 E19.46628
G1 X161 Y177.416 E21.14019
G1 X160.956 Y177.893 E21.16409
G1 X160.837 Y178.265 E21.18358
G1 X160.638 Y178.61 E21.20345
G1 X160.37 Y178.908 E21.22344
G1 X160.051 Y179.141 E21.24315
G1 X159.69 Y179.302 E21.26287
G1 X159.3 Y179.385 E21.28276
G1 X141 Y179.4 E22.19575
G1 X140.507 Y179.356 E22.22045
G1 X140.135 Y179.237 E22.23993
G1 X139.79 Y179.038 E22.2598
G1 X139.495 Y178.772 E22.27962
G1 X139.26 Y178.449 E22.29955
G1 X139.098 Y178.089 E22.31924
G1 X139.013 Y177.691 E22.33955
G1 X139 Y177.259 E22.36111
G1 X139 Y122.533 E25.0914
G1 X139.044 Y122.107 E25.11277
G1 X139.163 Y121.735 E25.13225
G1 X139.362 Y121.39 E25.15212
G1 X139.628 Y121.095 E25.17194
G1 X139.951 Y120.86 E25.19187
G1 X140.311 Y120.698 E25.21156
G1 X140.701 Y120.615 E25.23146
G1 X159.021 Y120.6 E26.14545
G1 X159.493 Y120.644 E26.1691
G1 X159.865 Y120.763 E26.18858
G0 F12000 X159.825 Y120.854
G0 X160.619 Y124.081
G0 X160.525 Y124.114
G1 F2700 X160.27 Y123.685 E26.21348
G1 X159.895 Y123.376 E26.23772
G1 X159.447 Y123.213 E26.26151
G1 X157.778 Y123.2 E26.34478
G1 X143.953 Y123.2 E27.03451
G1 X143.472 Y123.276 E27.0588
G1 X142.996 Y123.518 E27.08544
G1 X142.618 Y123.896 E27.11211
G1 X142.377 Y124.372 E27.13873
G1 X142.302 Y124.835 E27.16213
G1 X142.3 Y138.197 E27.82876
G1 X142.376 Y138.678 E27.85306
G1 X142.618 Y139.154 E27.8797
G1 X142.996 Y139.532 E27.90637
G1 X143.472 Y139.774 E27.93301
G1 X143.953 Y139.85 E27.95731
G1 X158.949 Y139.85 E28.70546
G1 X159.442 Y139.768 E28.73039
G1 X159.912 Y139.525 E28.75679
G1 X160.285 Y139.147 E28.78328
G1 X160.525 Y138.671 E28.80988
G1 X160.6 Y138.197 E28.83382
G1 X160.6 Y124.615 E29.51143
G1 X160.525 Y124.114 E29.5367
G0 F12000 X160.619 Y124.081
G0 X160.62 Y143.254
G0 X160.524 Y143.281
G1 F2700 X160.282 Y142.757 E29.5655
G1 X159.907 Y142.328 E29.59393
G1 X159.428 Y142.023 E29.62226
G1 X158.885 Y141.864 E29.65049
G1 X144.254 Y141.85 E30.38043
G1 X143.711 Y141.935 E30.40785
G1 X143.194 Y142.177 E30.43633
G1 X142.767 Y142.558 E30.46488
G1 X142.465 Y143.042 E30.49334
G1 X142.313 Y143.588 E30.52162
G1 X142.3 Y155.796 E31.13068
G1 X142.385 Y156.339 E31.1581
G1 X142.627 Y156.856 E31.18658
G1 X143.008 Y157.283 E31.21513
G1 X143.492 Y157.585 E31.24359
G1 X144.038 Y157.737 E31.27186
G1 X158.645 Y157.75 E32.00061
G1 X159.183 Y157.668 E32.02776
G1 X159.699 Y157.428 E32.05615
G1 X160.123 Y157.054 E32.08436
G1 X160.427 Y156.575 E32.11266
G1 X160.586 Y156.036 E32.1407
G1 X160.6 Y143.864 E32.74796
G1 X160.524 Y143.281 E32.7773
G0 F12000 X160.62 Y143.254
G0 X160.625 Y156.041
G0 X158.567 Y176.807
G0 X158.007 Y177.679
G0 X157.948 Y177.599
G1 F2700 X158.311 Y177.229 E32.80316
G1 X158.529 Y176.795 E32.82739
G1 X158.6 Y176.347 E32.85002
G1 X158.6 Y160.753 E33.628
G1 X158.529 Y160.303 E33.65073
G1 X158.299 Y159.852 E33.67599
G1 X157.929 Y159.489 E33.70185
G1 X157.495 Y159.271 E33.72608
G1 X157.047 Y159.2 E33.74871
G1 X144.049 Y159.2 E34.39718
G1 X143.518 Y159.29 E34.42405
G1 X143.017 Y159.554 E34.45231
G1 X142.623 Y159.961 E34.48057
G1 X142.376 Y160.463 E34.50848
G1 X142.3 Y160.954 E34.53327
G1 X142.3 Y176.151 E35.29145
G1 X142.39 Y176.682 E35.31832
G1 X142.654 Y177.183 E35.34657
G1 X143.061 Y177.577 E35.37483
G1 X143.563 Y177.824 E35.40274
G1 X144.054 Y177.9 E35.42753
G1 X157.047 Y177.9 E36.07576
G1 X157.497 Y177.829 E36.09848
G1 X157.948 Y177.599 E36.12374
G0 F12000 X157.708 Y177.272
;TYPE:WALL-OUTER
G1 F2700 X157.982 Y176.993 E36.14325
G1 X158.144 Y176.671 E36.16123
G1 X158.2 Y176.316 E36.17916
G1 X158.2 Y160.784 E36.95406
G1 X158.144 Y160.428 E36.97204
G1 X157.972 Y160.092 E36.99087
G1 X157.693 Y159.818 E37.01038
G1 X157.371 Y159.656 E37.02836
G1 X157.016 Y159.6 E37.04629
G1 X144.083 Y159.6 E37.69152
G1 X143.648 Y159.674 E37.71354
G1 X143.26 Y159.878 E37.73541
G1 X142.954 Y160.194 E37.75735
G1 X142.762 Y160.585 E37.77908
G1 X142.7 Y160.985 E37.79928
G1 X142.7 Y176.117 E38.55422
G1 X142.774 Y176.552 E38.57623
G1 X142.978 Y176.94 E38.5981
G1 X143.294 Y177.246 E38.62005
G1 X143.685 Y177.438 E38.64178
G1 X144.085 Y177.5 E38.66197
G1 X157.016 Y177.5 E39.3071
G1 X157.372 Y177.444 E39.32508
G1 X157.708 Y177.272 E39.34391
G0 F12000 X157.848 Y177.13
G0 X158.204 Y177.481
G0 X160.625 Y156.041
G0 X160.631 Y143.33
G0 X160.135 Y143.393
G1 F2700 X159.943 Y142.977 E39.36677
G1 X159.644 Y142.635 E39.38944
G1 X159.261 Y142.391 E39.41209
G1 X158.827 Y142.264 E39.43465
G1 X144.285 Y142.25 E40.16016
G1 X143.829 Y142.321 E40.18318
G1 X143.417 Y142.514 E40.20588
G1 X143.076 Y142.818 E40.22867
G1 X142.835 Y143.205 E40.25142
G1 X142.713 Y143.643 E40.2741
G1 X142.7 Y155.765 E40.87887
G1 X142.771 Y156.221 E40.90189
G1 X142.964 Y156.633 E40.92459
G1 X143.268 Y156.974 E40.94738
G1 X143.655 Y157.215 E40.97013
G1 X144.093 Y157.337 E40.99281
G1 X158.615 Y157.35 E41.71732
G1 X159.066 Y157.281 E41.74008
G1 X159.478 Y157.09 E41.76274
G1 X159.816 Y156.792 E41.78522
G1 X160.059 Y156.408 E41.80789
G1 X160.186 Y155.978 E41.83026
G1 X160.2 Y143.89 E42.43333
G1 X160.135 Y143.393 E42.45834
G0 F12000 X160.052 Y143.212
G0 X160.505 Y143.004
G0 X160.639 Y138.2
G0 X160.639 Y124.613
G0 X160.141 Y124.251
G1 F2700 X159.962 Y123.949 E42.47585
G1 X159.694 Y123.728 E42.49318
G1 X159.375 Y123.612 E42.51012
G1 X157.776 Y123.6 E42.58989
G1 X143.984 Y123.6 E43.27798
G1 X143.597 Y123.661 E43.29752
G1 X143.234 Y123.846 E43.31785
G1 X142.946 Y124.134 E43.33817
G1 X142.762 Y124.497 E43.35847
G1 X142.702 Y124.867 E43.37717
G1 X142.7 Y138.166 E44.04066
G1 X142.761 Y138.553 E44.06021
G1 X142.946 Y138.916 E44.08054
G1 X143.234 Y139.204 E44.10086
G1 X143.597 Y139.389 E44.12118
G1 X143.984 Y139.45 E44.14073
G1 X158.916 Y139.45 E44.88569
G1 X159.314 Y139.384 E44.90582
G1 X159.672 Y139.199 E44.92592
G1 X159.956 Y138.911 E44.9461
G1 X160.14 Y138.547 E44.96645
G1 X160.2 Y138.166 E44.98569
G1 X160.2 Y124.645 E45.66026
G1 X160.141 Y124.251 E45.68013
G0 F12000 X160.04 Y124.079
G0 X160.469 Y123.825
G0 X159.825 Y120.854
G0 X160.03 Y120.396
G1 F2700 X160.445 Y120.635 E45.70403
G1 X160.807 Y120.961 E45.72833
G1 X161.089 Y121.348 E45.75222
G1 X161.284 Y121.783 E45.776
G1 X161.386 Y122.262 E45.80044
G1 X161.4 Y122.767 E45.82564
G1 X161.4 Y177.431 E48.55284
G1 X161.35 Y177.975 E48.58009
G1 X161.204 Y178.43 E48.60393
G1 X160.965 Y178.845 E48.62783
G1 X160.639 Y179.207 E48.65213
G1 X160.252 Y179.489 E48.67602
G1 X159.817 Y179.684 E48.6998
G1 X159.341 Y179.785 E48.72408
G1 X140.988 Y179.8 E49.63971
G1 X140.425 Y179.75 E49.66791
G1 X139.97 Y179.604 E49.69175
G1 X139.555 Y179.365 E49.71565
G1 X139.195 Y179.041 E49.73981
G1 X138.913 Y178.653 E49.76374
G1 X138.716 Y178.213 E49.78779
G1 X138.614 Y177.738 E49.81203
G1 X138.6 Y177.259 E49.83594
G1 X138.6 Y122.511 E52.56732
G1 X138.65 Y122.025 E52.5917
G1 X138.796 Y121.57 E52.61554
G1 X139.035 Y121.155 E52.63943
G1 X139.359 Y120.795 E52.6636
G1 X139.747 Y120.513 E52.68753
G1 X140.187 Y120.316 E52.71158
G1 X140.659 Y120.215 E52.73566
G1 X159.036 Y120.2 E53.65249
G1 X159.575 Y120.25 E53.6795
G1 X160.03 Y120.396 E53.70334
G0 F12000 X160.203 Y120.496
G0 X159.704 Y121.12
;TYPE:SKIN
G1 F2700 X159.979 Y121.278 E53.71916
G1 X160.217 Y121.493 E53.73516
G1 X160.402 Y121.746 E53.7508
G1 X160.528 Y122.028 E53.76621
G1 X160.599 Y122.357 E53.783
G1 X160.61 Y122.767 E53.80346
G1 X160.61 Y123.494 E53.83973
G1 X160.57 Y123.427 E53.84362
G1 X160.092 Y123.033 E53.87453
G1 X159.517 Y122.823 E53.90507
G1 X157.78 Y122.81 E53.99173
G1 X143.922 Y122.81 E54.68311
G1 X143.351 Y122.9 E54.71195
G1 X142.764 Y123.198 E54.74479
G1 X142.298 Y123.664 E54.77767
G1 X142.002 Y124.249 E54.81038
G1 X141.912 Y124.804 E54.83843
G1 X141.91 Y138.228 E55.50816
G1 X142 Y138.799 E55.537
G1 X142.298 Y139.386 E55.56984
G1 X142.764 Y139.852 E55.60272
G1 X143.351 Y140.15 E55.63556
G1 X143.922 Y140.24 E55.6644
G1 X158.982 Y140.24 E56.41575
G1 X159.567 Y140.143 E56.44533
G1 X160.146 Y139.843 E56.47786
G1 X160.61 Y139.367 E56.51103
G1 X160.61 Y142.54 E56.66933
G1 X160.164 Y142.029 E56.70317
G1 X159.59 Y141.664 E56.7371
G1 X158.941 Y141.474 E56.77084
G1 X144.224 Y141.46 E57.50508
G1 X143.596 Y141.558 E57.53679
G1 X142.977 Y141.848 E57.57089
G1 X142.465 Y142.304 E57.6051
G1 X142.104 Y142.884 E57.63918
G1 X141.923 Y143.535 E57.67289
G1 X141.91 Y155.826 E58.28609
G1 X142.008 Y156.454 E58.3178
G1 X142.298 Y157.073 E58.3519
G1 X142.754 Y157.585 E58.38611
G1 X143.334 Y157.946 E58.42019
G1 X143.985 Y158.127 E58.4539
G1 X158.674 Y158.14 E59.18674
G1 X159.296 Y158.045 E59.21813
G1 X159.915 Y157.758 E59.25217
G1 X160.423 Y157.31 E59.28597
G1 X160.61 Y157.015 E59.30339
G1 X160.61 Y177.403 E60.32055
G1 X160.572 Y177.815 E60.34119
G1 X160.48 Y178.104 E60.35633
G1 X160.321 Y178.38 E60.37222
G1 X160.107 Y178.617 E60.38815
G1 X159.854 Y178.802 E60.40378
G1 X159.572 Y178.928 E60.41919
G1 X159.256 Y178.995 E60.43531
G1 X141.013 Y179.01 E61.34546
G1 X140.585 Y178.972 E61.36689
G1 X140.296 Y178.88 E61.38202
G1 X140.023 Y178.722 E61.39776
G1 X139.787 Y178.509 E61.41362
G1 X139.596 Y178.246 E61.42984
G1 X139.472 Y177.973 E61.4448
G1 X139.401 Y177.641 E61.46174
G1 X139.39 Y177.259 E61.4808
G1 X139.39 Y122.553 E64.21009
G1 X139.428 Y122.186 E64.2285
G1 X139.52 Y121.896 E64.24368
G1 X139.678 Y121.623 E64.25942
G1 X139.891 Y121.387 E64.27528
G1 X140.154 Y121.196 E64.29149
G1 X140.428 Y121.072 E64.3065
G1 X140.744 Y121.005 E64.32261
G1 X159.006 Y120.99 E65.23371
G1 X159.415 Y121.028 E65.2542
G1 X159.704 Y121.12 E65.26933
G0 F12000 X160.562 Y124.101
G0 X160.625 Y156.041
G0 X160.153 Y157.079
G0 X157.078 Y158.81
G1 F2700 X144.016 Y158.81 E65.921
G1 X143.391 Y158.916 E65.95263
G1 X142.781 Y159.238 E65.98704
G1 X142.3 Y159.733 E66.02147
G1 X142 Y160.344 E66.05543
G1 X141.91 Y160.924 E66.08472
G1 X141.91 Y176.184 E66.84604
G1 X142.016 Y176.809 E66.87767
G1 X142.338 Y177.419 E66.91208
G1 X142.833 Y177.9 E66.94651
G1 X143.444 Y178.2 E66.98047
G1 X144.024 Y178.29 E67.00976
G1 X157.078 Y178.29 E67.66102
G1 X157.619 Y178.205 E67.68834
G1 X158.182 Y177.917 E67.71989
G1 X158.632 Y177.459 E67.75193
G1 X158.905 Y176.916 E67.78225
G1 X158.99 Y176.378 E67.80942
G1 X158.99 Y160.722 E68.5905
G1 X158.905 Y160.181 E68.61783
