;FLAVOR:Marlin
;TIME:22753
;Filament used: 24.4417m
;Layer height: 0.2
;MINX:93.531
;MINY:64.127
;MINZ:0.3
;MAXX:206.559
;MAXY:236.343
;MAXZ:19.8
;Generated with Cura_SteamEngine 4.4.1
M140 S60
M105
M190 S60
M104 S230
M105
M109 S230
M82 ;absolute extrusion mode
G28 ;Home
G1 Z15.0 F6000 ;Move the platform down 15mm
;Prime the extruder
G92 E0
G1 F200 E3
G92 E0
G92 E0
G92 E0
G1 F1500 E-6.5
;LAYER_COUNT:96
;LAYER:0
M107
G1 F600 Z0.8
G0 F12000 X94.181 Y65.766 Z0.8
;TYPE:SKIRT
G1 F600 Z0.3
G1 F1500 E0
G1 F1800 X94.516 Y65.387 E0.02524
G1 X94.906 Y65.066 E0.05044
G1 X95.342 Y64.81 E0.07566
G1 X95.813 Y64.626 E0.10089
G1 X96.307 Y64.518 E0.12612
G1 X96.652 Y64.49 E0.14339
G1 X97.566 Y64.465 E0.189
G1 X97.624 Y64.464 E0.1919
G1 X127.014 Y64.196 E1.65823
G1 X134.156 Y64.127 E2.01456
G1 X134.188 Y64.127 E2.01616
G1 X165.846 Y64.136 E3.59558
G1 X165.875 Y64.136 E3.59703
G1 X195.846 Y64.419 E5.09236
G1 X195.851 Y64.419 E5.09261
G1 X202.73 Y64.495 E5.43582
G1 X202.773 Y64.496 E5.43797
G1 X203.431 Y64.512 E5.4708
G1 X203.934 Y64.564 E5.49603
G1 X204.422 Y64.695 E5.52124
G1 X204.884 Y64.901 E5.54648
G1 X205.307 Y65.177 E5.57168
G1 X205.682 Y65.516 E5.5969
G1 X205.998 Y65.911 E5.62213
G1 X206.249 Y66.35 E5.64736
G1 X206.427 Y66.823 E5.67258
G1 X206.529 Y67.318 E5.69779
G1 X206.552 Y67.65 E5.71439
G1 X206.558 Y67.963 E5.73001
G1 X206.559 Y68.059 E5.7348
G1 X206.396 Y82.773 E6.46893
G1 X206.383 Y85.964 E6.62813
G1 X206.368 Y141.302 E9.38896
G1 X206.368 Y141.338 E9.39075
G1 X206.355 Y142.45 E9.44623
G1 X206.354 Y142.485 E9.44798
G1 X204.674 Y216.747 E13.15388
G1 X204.657 Y217.671 E13.19998
G1 X204.658 Y217.671 E13.20003
G1 X204.465 Y232.435 E13.93667
G1 X204.464 Y232.474 E13.93862
G1 X204.445 Y233.226 E13.97615
G1 X204.392 Y233.729 E14.00138
G1 X204.261 Y234.217 E14.02659
G1 X204.055 Y234.678 E14.05178
G1 X203.778 Y235.102 E14.07705
G1 X203.438 Y235.476 E14.10227
G1 X203.044 Y235.792 E14.12746
G1 X202.605 Y236.042 E14.15267
G1 X202.131 Y236.22 E14.17793
G1 X201.636 Y236.321 E14.20313
G1 X201.141 Y236.343 E14.22785
G1 X200.561 Y236.324 E14.25681
G1 X200.512 Y236.322 E14.25925
G1 X172 Y234.945 E15.68338
G1 X168.157 Y234.781 E15.87528
G1 X164.008 Y234.692 E16.08232
G1 X136.302 Y234.685 E17.46458
G1 X133.516 Y234.723 E17.60359
G1 X131.582 Y234.797 E17.70015
G1 X131.582 Y234.796 E17.7002
G1 X103.685 Y236.128 E19.09357
G1 X103.661 Y236.129 E19.09477
G1 X99.607 Y236.293 E19.29719
G1 X99.563 Y236.295 E19.29939
G1 X98.844 Y236.314 E19.33527
G1 X98.339 Y236.287 E19.3605
G1 X97.844 Y236.181 E19.38576
G1 X97.373 Y235.999 E19.41095
G1 X96.936 Y235.745 E19.43616
G1 X96.544 Y235.425 E19.46141
G1 X96.208 Y235.047 E19.48664
G1 X95.936 Y234.621 E19.51186
G1 X95.734 Y234.158 E19.53706
G1 X95.607 Y233.668 E19.56231
G1 X95.561 Y233.238 E19.58389
G1 X95.531 Y232.461 E19.62268
G1 X95.53 Y232.409 E19.62528
G1 X93.874 Y157.523 E23.36227
G1 X93.873 Y157.49 E23.36392
G1 X93.683 Y141.632 E24.15513
G1 X93.683 Y141.593 E24.15708
G1 X93.699 Y86.282 E26.91655
G1 X93.693 Y85.181 E26.97148
G1 X93.539 Y71.068 E27.67563
G1 X93.539 Y71.043 E27.67687
G1 X93.531 Y68.369 E27.81028
G1 X93.531 Y68.321 E27.81268
G1 X93.539 Y67.651 E27.8461
G1 X93.585 Y67.147 E27.87135
G1 X93.71 Y66.657 E27.89658
G1 X93.91 Y66.193 E27.92179
G1 X94.181 Y65.766 E27.94702
G1 F1500 E21.44702
G1 F600 Z0.8
;MESH:bottom.stl
G0 F12000 X133.844 Y230.884 Z0.8
;TYPE:WALL-INNER
G1 F600 Z0.3
G1 F1500 E27.94702
G1 F1800 X103.663 Y232.326 E29.45448
G1 X99.534 Y232.494 E29.66064
G1 X99.332 Y232.502 E29.67073
G1 X99.328 Y232.3 E29.67722
G1 X97.673 Y157.439 E33.41296
G1 X97.483 Y141.819 E34.1923
G1 X97.499 Y85.728 E36.99069
G1 X97.339 Y71.028 E37.72412
G1 X97.331 Y68.266 E37.86192
G1 X127.102 Y67.996 E39.34726
G1 X133.91 Y67.927 E39.68693
G1 X166.182 Y67.936 E41.29699
G1 X195.81 Y68.219 E42.7752
G1 X202.556 Y68.294 E43.11178
G1 X202.756 Y68.296 E43.12176
G1 X202.754 Y68.496 E43.12822
G1 X202.598 Y82.316 E43.81775
G1 X202.583 Y85.758 E43.98947
G1 X202.568 Y141.834 E46.78712
G1 X200.864 Y217.135 E50.54486
G1 X200.665 Y232.319 E51.30246
G1 X200.663 Y232.525 E51.31274
G1 X200.457 Y232.516 E51.31933
G1 X172.458 Y231.161 E52.71784
G1 X166.156 Y230.893 E53.03253
G1 X133.844 Y230.884 E54.64458
G0 F12000 X133.853 Y231.284
;TYPE:WALL-OUTER
G1 F1800 X103.682 Y232.726 E56.15154
G1 X99.143 Y232.91 E56.37818
G1 X98.941 Y232.918 E56.38826
G1 X98.937 Y232.716 E56.39475
G1 X97.273 Y157.448 E60.1508
G1 X97.083 Y141.819 E60.93059
G1 X97.099 Y85.73 E63.72888
G1 X96.939 Y71.032 E64.46221
G1 X96.93 Y67.87 E64.61997
G1 X127.098 Y67.596 E66.12512
G1 X133.906 Y67.527 E66.46479
G1 X166.186 Y67.536 E68.07524
G1 X195.814 Y67.819 E69.55346
G1 X202.961 Y67.898 E69.91004
G1 X203.161 Y67.9 E69.92002
G1 X203.159 Y68.1 E69.92648
G1 X202.998 Y82.319 E70.63592
G1 X202.983 Y85.759 E70.80754
G1 X202.968 Y141.843 E73.60559
G1 X201.264 Y217.142 E77.36323
G1 X201.06 Y232.739 E78.14143
G1 X201.058 Y232.945 E78.15171
G1 X200.852 Y232.936 E78.1583
G1 X172.44 Y231.561 E79.57744
G1 X166.147 Y231.293 E79.89169
G1 X133.853 Y231.284 E81.50284
G0 F12000 X133.654 Y231.293
G0 X133.834 Y230.494
;TYPE:SKIN
G1 F1800 X103.644 Y231.936 E83.01074
G1 X99.713 Y232.096 E83.20702
G1 X98.063 Y157.431 E86.93298
G1 X97.873 Y141.819 E87.71193
G1 X97.889 Y85.726 E90.51042
G1 X97.729 Y71.024 E91.24395
G1 X97.723 Y68.652 E91.36229
G1 X127.106 Y68.386 E92.82827
G1 X133.914 Y68.317 E93.16794
G1 X166.178 Y68.326 E94.7776
G1 X195.806 Y68.609 E96.25581
G1 X202.362 Y68.682 E96.58291
G1 X202.208 Y82.313 E97.26301
G1 X202.193 Y85.756 E97.43479
G1 X202.178 Y141.825 E100.23208
G1 X200.474 Y217.128 E103.98992
G1 X200.279 Y232.116 E104.73774
G1 X172.476 Y230.771 E106.12646
G1 X166.164 Y230.503 E106.44165
G1 X133.834 Y230.494 E108.0546
G0 F12000 X100.094 Y231.899
G1 F1800 X99.883 Y231.687 E108.06952
G0 F12000 X99.87 Y231.109
G1 F1800 X100.637 Y231.876 E108.12364
G0 F12000 X101.181 Y231.854
G1 F1800 X99.856 Y230.53 E108.21709
G0 F12000 X99.844 Y229.951
G1 F1800 X101.725 Y231.832 E108.3498
G0 F12000 X102.268 Y231.81
G1 F1800 X99.831 Y229.373 E108.52175
G0 F12000 X99.818 Y228.795
G1 F1800 X102.812 Y231.788 E108.73296
G0 F12000 X103.355 Y231.766
G1 F1800 X99.806 Y228.216 E108.98339
G0 F12000 X99.793 Y227.638
G1 F1800 X103.898 Y231.742 E109.27299
G0 F12000 X104.437 Y231.716
G1 F1800 X99.78 Y227.059 E109.60156
G0 F12000 X99.767 Y226.481
G1 F1800 X104.977 Y231.691 E109.96916
G0 F12000 X105.517 Y231.665
G1 F1800 X99.755 Y225.902 E110.37573
G0 F12000 X99.742 Y225.324
G1 F1800 X106.057 Y231.639 E110.82129
G0 F12000 X106.597 Y231.613
G1 F1800 X99.729 Y224.746 E111.30583
G0 F12000 X99.716 Y224.167
G1 F1800 X107.137 Y231.588 E111.82942
G0 F12000 X107.676 Y231.561
G1 F1800 X99.704 Y223.589 E112.39189
G0 F12000 X99.691 Y223.01
G1 F1800 X108.217 Y231.536 E112.99344
G0 F12000 X108.756 Y231.51
G1 F1800 X99.678 Y222.431 E113.63398
G0 F12000 X99.665 Y221.853
G1 F1800 X109.296 Y231.484 E114.3135
G0 F12000 X109.836 Y231.458
G1 F1800 X99.652 Y221.274 E115.03204
G0 F12000 X99.639 Y220.696
G1 F1800 X110.376 Y231.433 E115.78959
G0 F12000 X110.916 Y231.407
G1 F1800 X99.627 Y220.118 E116.58609
G0 F12000 X99.614 Y219.539
G1 F1800 X111.456 Y231.381 E117.42161
G0 F12000 X111.996 Y231.356
G1 F1800 X99.601 Y218.961 E118.29614
G0 F12000 X99.588 Y218.382
G1 F1800 X112.536 Y231.329 E119.20966
G0 F12000 X113.076 Y231.304
G1 F1800 X99.576 Y217.804 E120.16215
G0 F12000 X99.563 Y217.226
G1 F1800 X113.615 Y231.278 E121.1536
G0 F12000 X114.156 Y231.252
G1 F1800 X99.55 Y216.647 E122.1841
G0 F12000 X99.538 Y216.069
G1 F1800 X114.695 Y231.226 E123.2535
G0 F12000 X115.235 Y231.201
G1 F1800 X99.525 Y215.49 E124.36196
G0 F12000 X99.512 Y214.912
G1 F1800 X115.775 Y231.175 E125.50941
G0 F12000 X116.315 Y231.149
G1 F1800 X99.499 Y214.333 E126.69587
G0 F12000 X99.486 Y213.754
G1 F1800 X116.855 Y231.123 E127.92134
G0 F12000 X117.395 Y231.098
G1 F1800 X99.473 Y213.176 E129.18584
G0 F12000 X99.46 Y212.598
G1 F1800 X117.934 Y231.071 E130.48924
G0 F12000 X118.475 Y231.046
G1 F1800 X99.448 Y212.019 E131.8317
G0 F12000 X99.435 Y211.441
G1 F1800 X119.014 Y231.02 E133.2131
G0 F12000 X119.554 Y230.994
G1 F1800 X99.422 Y210.862 E134.63353
G0 F12000 X99.41 Y210.284
G1 F1800 X120.094 Y230.968 E136.09289
G0 F12000 X120.634 Y230.943
G1 F1800 X99.397 Y209.705 E137.59131
G0 F12000 X99.384 Y209.127
G1 F1800 X121.174 Y230.917 E139.12872
G0 F12000 X121.714 Y230.891
G1 F1800 X99.371 Y208.549 E140.7051
G0 F12000 X99.359 Y207.97
G1 F1800 X122.254 Y230.866 E142.3205
G0 F12000 X122.794 Y230.839
G1 F1800 X99.346 Y207.392 E143.97485
G0 F12000 X99.333 Y206.813
G1 F1800 X123.334 Y230.814 E145.66825
G0 F12000 X123.873 Y230.788
G1 F1800 X99.32 Y206.234 E147.40063
G0 F12000 X99.307 Y205.656
G1 F1800 X124.414 Y230.762 E149.17203
G0 F12000 X124.953 Y230.736
G1 F1800 X99.294 Y205.077 E150.98241
G0 F12000 X99.282 Y204.499
G1 F1800 X125.493 Y230.711 E152.83177
G0 F12000 X126.033 Y230.685
G1 F1800 X99.269 Y203.921 E154.72012
G0 F12000 X99.256 Y203.342
G1 F1800 X126.573 Y230.659 E156.64748
G0 F12000 X127.113 Y230.633
G1 F1800 X99.243 Y202.764 E158.61383
G0 F12000 X99.231 Y202.185
G1 F1800 X127.653 Y230.608 E160.61919
G0 F12000 X128.192 Y230.581
G1 F1800 X99.218 Y201.607 E162.66346
G0 F12000 X99.205 Y201.029
G1 F1800 X128.733 Y230.556 E164.74678
G0 F12000 X129.272 Y230.53
G1 F1800 X99.192 Y200.45 E166.86909
G0 F12000 X99.18 Y199.872
G1 F1800 X129.812 Y230.504 E169.03034
G0 F12000 X130.352 Y230.478
G1 F1800 X99.167 Y199.293 E171.23061
G0 F12000 X99.154 Y198.714
G1 F1800 X130.892 Y230.453 E173.46994
G0 F12000 X131.432 Y230.427
G1 F1800 X99.141 Y198.136 E175.74824
G0 F12000 X99.128 Y197.557
G1 F1800 X131.972 Y230.401 E178.06556
G0 F12000 X132.512 Y230.376
G1 F1800 X99.115 Y196.979 E180.4219
G0 F12000 X99.103 Y196.401
G1 F1800 X133.052 Y230.349 E182.81715
G0 F12000 X133.592 Y230.324
G1 F1800 X99.09 Y195.822 E185.25145
G0 F12000 X99.077 Y195.244
G1 F1800 X134.146 Y230.313 E187.72576
G0 F12000 X134.712 Y230.313
G1 F1800 X99.064 Y194.665 E190.24092
G0 F12000 X99.052 Y194.087
G1 F1800 X135.278 Y230.313 E192.79686
G0 F12000 X135.843 Y230.313
G1 F1800 X99.039 Y193.508 E195.39361
G0 F12000 X99.026 Y192.93
G1 F1800 X136.41 Y230.313 E198.03122
G0 F12000 X136.975 Y230.313
G1 F1800 X99.014 Y192.352 E200.70958
G0 F12000 X99.001 Y191.773
G1 F1800 X137.541 Y230.313 E203.42878
G0 F12000 X138.107 Y230.313
G1 F1800 X98.988 Y191.195 E206.1888
G0 F12000 X98.975 Y190.616
G1 F1800 X138.672 Y230.313 E208.98964
G0 F12000 X139.239 Y230.314
G1 F1800 X98.962 Y190.037 E211.8314
G0 F12000 X98.949 Y189.459
G1 F1800 X139.804 Y230.314 E214.71394
G0 F12000 X140.37 Y230.314
G1 F1800 X98.936 Y188.88 E217.63733
G0 F12000 X98.924 Y188.302
G1 F1800 X140.936 Y230.314 E220.60151
G0 F12000 X141.502 Y230.315
G1 F1800 X98.911 Y187.724 E223.60653
G0 F12000 X98.898 Y187.145
G1 F1800 X142.068 Y230.315 E226.65241
G0 F12000 X142.634 Y230.315
G1 F1800 X98.886 Y186.567 E229.73907
G0 F12000 X98.873 Y185.988
G1 F1800 X143.199 Y230.315 E232.86654
G0 F12000 X143.765 Y230.315
G1 F1800 X98.86 Y185.41 E236.03483
G0 F12000 X98.847 Y184.832
G1 F1800 X144.331 Y230.315 E239.24394
G0 F12000 X144.897 Y230.315
G1 F1800 X98.835 Y184.253 E242.49386
G0 F12000 X98.822 Y183.675
G1 F1800 X145.463 Y230.315 E245.7846
G0 F12000 X146.028 Y230.315
G1 F1800 X98.809 Y183.096 E249.11616
G0 F12000 X98.796 Y182.517
G1 F1800 X146.595 Y230.316 E252.48863
G0 F12000 X147.16 Y230.316
G1 F1800 X98.783 Y181.939 E255.90189
G0 F12000 X98.77 Y181.36
G1 F1800 X147.726 Y230.316 E259.356
G0 F12000 X148.292 Y230.316
G1 F1800 X98.758 Y180.782 E262.85089
G0 F12000 X98.745 Y180.204
G1 F1800 X148.858 Y230.317 E266.38664
G0 F12000 X149.424 Y230.317
G1 F1800 X98.732 Y179.625 E269.96323
G0 F12000 X98.719 Y179.047
G1 F1800 X149.99 Y230.317 E273.58064
G0 F12000 X150.555 Y230.317
G1 F1800 X98.707 Y178.468 E277.23883
G0 F12000 X98.694 Y177.89
G1 F1800 X151.121 Y230.317 E280.93784
G0 F12000 X151.687 Y230.318
G1 F1800 X98.681 Y177.311 E284.67774
G0 F12000 X98.668 Y176.733
G1 F1800 X152.253 Y230.318 E288.45845
G0 F12000 X152.819 Y230.318
G1 F1800 X98.656 Y176.155 E292.27994
G0 F12000 X98.643 Y175.576
G1 F1800 X153.384 Y230.318 E296.14225
G0 F12000 X153.951 Y230.318
G1 F1800 X98.63 Y174.998 E300.04541
G0 F12000 X98.617 Y174.419
G1 F1800 X154.516 Y230.318 E303.98938
G0 F12000 X155.082 Y230.318
G1 F1800 X98.604 Y173.84 E307.97421
G0 F12000 X98.591 Y173.262
G1 F1800 X155.648 Y230.318 E311.99986
G0 F12000 X156.214 Y230.318
G1 F1800 X98.579 Y172.683 E316.06632
G0 F12000 X98.566 Y172.105
G1 F1800 X156.78 Y230.319 E320.17363
G0 F12000 X157.346 Y230.319
G1 F1800 X98.553 Y171.527 E324.32176
G0 F12000 X98.54 Y170.948
G1 F1800 X157.911 Y230.319 E328.5107
G0 F12000 X158.477 Y230.319
G1 F1800 X98.528 Y170.37 E332.74043
G0 F12000 X98.515 Y169.791
G1 F1800 X159.043 Y230.32 E337.01104
G0 F12000 X159.609 Y230.32
G1 F1800 X98.502 Y169.213 E341.32247
G0 F12000 X98.49 Y168.635
G1 F1800 X160.175 Y230.32 E345.67468
G0 F12000 X160.74 Y230.32
G1 F1800 X98.477 Y168.056 E350.06771
G0 F12000 X98.464 Y167.478
G1 F1800 X161.307 Y230.32 E354.50158
G0 F12000 X161.873 Y230.32
G1 F1800 X98.451 Y166.899 E358.97631
G0 F12000 X98.438 Y166.32
G1 F1800 X162.438 Y230.32 E363.49186
G0 F12000 X163.004 Y230.32
G1 F1800 X98.425 Y165.742 E368.04822
G0 F12000 X98.413 Y165.163
G1 F1800 X163.57 Y230.32 E372.6454
G0 F12000 X164.136 Y230.321
G1 F1800 X98.4 Y164.585 E377.28343
G0 F12000 X98.387 Y164.007
G1 F1800 X164.702 Y230.321 E381.96227
G0 F12000 X165.267 Y230.321
G1 F1800 X98.374 Y163.428 E386.68194
G0 F12000 X98.362 Y162.85
G1 F1800 X165.833 Y230.321 E391.44238
G0 F12000 X166.409 Y230.332
G1 F1800 X98.349 Y162.271 E396.24442
G0 F12000 X98.336 Y161.693
G1 F1800 X167 Y230.357 E401.08903
G0 F12000 X167.591 Y230.382
G1 F1800 X98.323 Y161.114 E405.97626
G0 F12000 X98.311 Y160.536
G1 F1800 X168.181 Y230.407 E410.906
G0 F12000 X168.772 Y230.432
G1 F1800 X98.298 Y159.958 E415.87833
G0 F12000 X98.285 Y159.379
G1 F1800 X169.363 Y230.457 E420.89326
G0 F12000 X169.954 Y230.482
G1 F1800 X98.272 Y158.8 E425.95082
G0 F12000 X98.259 Y158.222
G1 F1800 X170.544 Y230.507 E431.05091
G0 F12000 X171.136 Y230.533
G1 F1800 X98.246 Y157.643 E436.1937
G0 F12000 X98.237 Y157.068
G1 F1800 X171.726 Y230.557 E441.37874
G0 F12000 X172.316 Y230.582
G1 F1800 X98.231 Y156.496 E446.60587
G0 F12000 X98.224 Y155.924
G1 F1800 X172.91 Y230.61 E451.87537
G0 F12000 X173.504 Y230.639
G1 F1800 X98.217 Y155.351 E457.18731
G0 F12000 X98.21 Y154.778
G1 F1800 X174.099 Y230.668 E462.54173
G0 F12000 X174.694 Y230.697
G1 F1800 X98.202 Y154.205 E467.93865
G0 F12000 X98.195 Y153.633
G1 F1800 X175.288 Y230.725 E473.37794
G0 F12000 X175.882 Y230.754
G1 F1800 X98.189 Y153.061 E478.8596
G0 F12000 X98.182 Y152.488
G1 F1800 X176.477 Y230.783 E484.38374
G0 F12000 X177.071 Y230.811
G1 F1800 X98.175 Y151.915 E489.95028
G0 F12000 X98.168 Y151.342
G1 F1800 X177.666 Y230.84 E495.55929
G0 F12000 X178.26 Y230.869
G1 F1800 X98.161 Y150.77 E501.21071
G0 F12000 X98.154 Y150.197
G1 F1800 X178.854 Y230.897 E506.90453
G0 F12000 X179.449 Y230.926
G1 F1800 X98.147 Y149.625 E512.64079
G0 F12000 X98.14 Y149.052
G1 F1800 X180.044 Y230.955 E518.41952
G0 F12000 X180.638 Y230.984
G1 F1800 X98.133 Y148.479 E524.2407
G0 F12000 X98.126 Y147.906
G1 F1800 X181.232 Y231.013 E530.10431
G0 F12000 X181.827 Y231.042
G1 F1800 X98.119 Y147.334 E536.01036
G0 F12000 X98.112 Y146.761
G1 F1800 X182.421 Y231.07 E541.95882
G0 F12000 X183.016 Y231.099
G1 F1800 X98.106 Y146.189 E547.94968
G0 F12000 X98.099 Y145.616
G1 F1800 X183.61 Y231.128 E553.98297
G0 F12000 X184.204 Y231.156
G1 F1800 X98.091 Y145.043 E560.05871
G0 F12000 X98.084 Y144.471
G1 F1800 X184.799 Y231.185 E566.17689
