;FLAVOR:Marlin
;TIME:2273
;Filament used: 0.577856m
;Layer height: 0.12
;MINX:130.614
;MINY:140.132
;MINZ:0.24
;MAXX:169.376
;MAXY:157.254
;MAXZ:37.92
;Generated with Cura_SteamEngine 4.4.1
M140 S80
M105
M190 S80
M104 S200
M105
M109 S200
M82 ;absolute extrusion mode
G28 ;Home
G1 Z15.0 F6000 ;Move the platform down 15mm
;Prime the extruder
G92 E0
G1 F200 E3
G92 E0
G92 E0
G92 E0
G1 F1500 E-6.5
;LAYER_COUNT:317
;LAYER:0
M107
G1 F600 Z0.74
G0 F3600 X132.023 Y147.184 Z0.74
;TYPE:SKIRT
G1 F600 Z0.24
G1 F1500 E0
G1 F900 X132.478 Y146.847 E0.0226
G1 X132.775 Y146.676 E0.03628
G1 X133.138 Y146.486 E0.05263
G1 X135.58 Y145.167 E0.1634
G1 X137.939 Y143.805 E0.27212
G1 X141.068 Y141.858 E0.41921
G1 X142.098 Y141.189 E0.46823
G1 X142.593 Y140.916 E0.49079
G1 X143.156 Y140.704 E0.5148
G1 X143.622 Y140.568 E0.53418
G1 X143.714 Y140.543 E0.53798
G1 X144.112 Y140.437 E0.55442
G1 X144.16 Y140.424 E0.55641
G1 X144.828 Y140.255 E0.58391
G1 X145.384 Y140.156 E0.60645
G1 X145.935 Y140.135 E0.62846
G1 X146.557 Y140.155 E0.65329
G1 X149.294 Y140.213 E0.76256
G1 X152.003 Y140.194 E0.87068
G1 X153.385 Y140.146 E0.92588
G1 X153.44 Y140.145 E0.92807
G1 X154.052 Y140.132 E0.9525
G1 X154.617 Y140.16 E0.97508
G1 X155.095 Y140.248 E0.99448
G1 X156.108 Y140.498 E1.03612
G1 X156.238 Y140.532 E1.04149
G1 X156.797 Y140.69 E1.06467
G1 X157.329 Y140.882 E1.08725
G1 X157.876 Y141.177 E1.11205
G1 X160.289 Y142.732 E1.22662
G1 X162.618 Y144.143 E1.33531
G1 X164.993 Y145.493 E1.44434
G1 X165.965 Y146.005 E1.48819
G1 X166 Y146.023 E1.48976
G1 X167.23 Y146.687 E1.54555
G1 X167.707 Y146.99 E1.5681
G1 X168.137 Y147.357 E1.59067
G1 X168.511 Y147.782 E1.61326
G1 X168.821 Y148.254 E1.6358
G1 X169.061 Y148.766 E1.65837
G1 X169.227 Y149.306 E1.68092
G1 X169.323 Y149.963 E1.70742
G1 X169.364 Y150.635 E1.73429
G1 X169.37 Y150.809 E1.74124
G1 X169.374 Y151.039 E1.75042
G1 X169.375 Y151.103 E1.75297
G1 X169.376 Y151.787 E1.78027
G1 X169.337 Y152.351 E1.80284
G1 X169.219 Y152.904 E1.82541
G1 X169.024 Y153.435 E1.84798
G1 X168.756 Y153.932 E1.87052
G1 X168.42 Y154.388 E1.89313
G1 X168.024 Y154.791 E1.91568
G1 X167.575 Y155.134 E1.93823
G1 X167.082 Y155.411 E1.9608
G1 X166.555 Y155.615 E1.98335
G1 X165.774 Y155.773 E2.01516
G1 X165.404 Y155.81 E2.03
G1 X163.283 Y155.995 E2.11497
G1 X160.685 Y156.313 E2.21944
G1 X160.654 Y156.317 E2.22069
G1 X158.374 Y156.578 E2.31228
G1 X158.325 Y156.583 E2.31425
G1 X157.878 Y156.629 E2.33218
G1 X155.135 Y156.986 E2.44258
G1 X154.395 Y157.099 E2.47246
G1 X154.318 Y157.11 E2.47556
G1 X153.598 Y157.206 E2.50456
G1 X153.066 Y157.241 E2.52583
G1 X151.898 Y157.24 E2.57245
G1 X151.803 Y157.239 E2.57624
G1 X150.952 Y157.218 E2.61022
G1 X148.247 Y157.229 E2.71818
G1 X147.285 Y157.254 E2.75659
G1 X146.807 Y157.238 E2.77568
G1 X146.22 Y157.183 E2.79921
G1 X146.007 Y157.157 E2.80778
G1 X144.98 Y157.005 E2.84921
G1 X142.233 Y156.638 E2.95982
G1 X140.425 Y156.441 E3.03241
G1 X140.352 Y156.433 E3.03534
G1 X139.272 Y156.295 E3.0788
G1 X136.586 Y155.99 E3.18669
G1 X135.687 Y155.915 E3.2227
G1 X135.641 Y155.911 E3.22454
G1 X134.293 Y155.783 E3.27858
G1 X134.082 Y155.757 E3.28707
G1 X134.035 Y155.75 E3.28897
G1 X133.483 Y155.628 E3.31153
G1 X132.954 Y155.429 E3.33409
G1 X132.458 Y155.157 E3.35667
G1 X132.006 Y154.818 E3.37922
G1 X131.605 Y154.419 E3.40179
G1 X131.266 Y153.967 E3.42434
G1 X130.993 Y153.472 E3.44691
G1 X130.793 Y152.943 E3.46948
G1 X130.669 Y152.391 E3.49206
G1 X130.624 Y151.845 E3.51392
G1 X130.614 Y151.063 E3.54514
G1 X130.614 Y150.956 E3.54941
G1 X130.625 Y150.166 E3.58094
G1 X130.673 Y149.603 E3.60349
G1 X130.8 Y149.052 E3.62606
G1 X131.003 Y148.524 E3.64864
G1 X131.279 Y148.031 E3.67119
G1 X131.621 Y147.581 E3.69375
G1 X132.023 Y147.184 E3.7163
G0 F3600 X132.411 Y147.383
G1 F900 X132.96 Y147.03 E3.74235
G1 X133.358 Y146.823 E3.76025
G1 X135.792 Y145.508 E3.87067
G1 X138.1 Y144.175 E3.97705
G1 X141.345 Y142.156 E4.12959
G1 X142.316 Y141.525 E4.17581
G1 X142.786 Y141.267 E4.19721
G1 X143.268 Y141.088 E4.21773
G1 X143.734 Y140.952 E4.2371
G1 X143.817 Y140.929 E4.24054
G1 X144.215 Y140.823 E4.25698
G1 X144.258 Y140.812 E4.25875
G1 X144.926 Y140.643 E4.28625
G1 X145.454 Y140.551 E4.30764
G1 X145.922 Y140.535 E4.32633
G1 X146.536 Y140.554 E4.35085
G1 X149.288 Y140.613 E4.46071
G1 X152.019 Y140.594 E4.56972
G1 X153.399 Y140.546 E4.62483
G1 X153.449 Y140.545 E4.62682
G1 X154.061 Y140.532 E4.65126
G1 X154.596 Y140.56 E4.67264
G1 X155 Y140.636 E4.68905
G1 X156.013 Y140.886 E4.73069
G1 X156.129 Y140.917 E4.73548
G1 X156.688 Y141.075 E4.75867
G1 X157.192 Y141.259 E4.78008
G1 X157.659 Y141.513 E4.8013
G1 X160.086 Y143.077 E4.91654
G1 X162.403 Y144.481 E5.02467
G1 X164.777 Y145.83 E5.13365
G1 X165.779 Y146.358 E5.17885
G1 X165.81 Y146.375 E5.18026
G1 X167.04 Y147.039 E5.23605
G1 X167.492 Y147.328 E5.25746
G1 X167.895 Y147.681 E5.27885
G1 X168.242 Y148.091 E5.30028
G1 X168.524 Y148.547 E5.32168
G1 X168.735 Y149.04 E5.34309
G1 X168.871 Y149.558 E5.36446
G1 X168.923 Y149.988 E5.38175
G1 X168.964 Y150.66 E5.40862
G1 X168.97 Y150.816 E5.41485
G1 X168.974 Y151.046 E5.42403
G1 X168.975 Y151.104 E5.42635
G1 X168.976 Y151.788 E5.45365
G1 X168.937 Y152.323 E5.47506
G1 X168.819 Y152.846 E5.49646
G1 X168.624 Y153.345 E5.51784
G1 X168.357 Y153.811 E5.53927
G1 X168.025 Y154.231 E5.56064
G1 X167.633 Y154.598 E5.58207
G1 X167.191 Y154.902 E5.60348
G1 X166.709 Y155.137 E5.62489
G1 X166.198 Y155.298 E5.64627
G1 X165.734 Y155.375 E5.66504
G1 X165.414 Y155.407 E5.67788
G1 X165.369 Y155.411 E5.67968
G1 X163.256 Y155.596 E5.76434
G1 X160.636 Y155.916 E5.86969
G1 X160.608 Y155.92 E5.87081
G1 X158.328 Y156.181 E5.96241
G1 X158.285 Y156.185 E5.96413
G1 X157.823 Y156.232 E5.98267
G1 X155.061 Y156.592 E6.09384
G1 X154.334 Y156.703 E6.12319
G1 X154.265 Y156.713 E6.12597
G1 X153.545 Y156.809 E6.15496
G1 X153.066 Y156.841 E6.17412
G1 X151.898 Y156.84 E6.22074
G1 X151.813 Y156.839 E6.22413
G1 X150.96 Y156.818 E6.25819
G1 X148.234 Y156.829 E6.36699
G1 X147.274 Y156.854 E6.40532
G1 X146.844 Y156.839 E6.42249
G1 X146.257 Y156.784 E6.44602
G1 X146.066 Y156.761 E6.4537
G1 X145.025 Y156.607 E6.4957
G1 X142.331 Y156.247 E6.60418
G1 X140.468 Y156.044 E6.67898
G1 X140.403 Y156.036 E6.68159
G1 X139.346 Y155.901 E6.72412
G1 X136.631 Y155.593 E6.83318
G1 X135.72 Y155.517 E6.86966
G1 X135.679 Y155.513 E6.87131
G1 X134.331 Y155.385 E6.92535
G1 X134.141 Y155.362 E6.93299
G1 X134.094 Y155.355 E6.93489
G1 X133.571 Y155.236 E6.95629
G1 X133.071 Y155.042 E6.9777
G1 X132.606 Y154.775 E6.9991
G1 X132.185 Y154.442 E7.02053
G1 X131.819 Y154.05 E7.04193
G1 X131.515 Y153.609 E7.06331
G1 X131.28 Y153.127 E7.08471
G1 X131.119 Y152.615 E7.10613
G1 X131.024 Y151.84 E7.1373
G1 X131.014 Y151.058 E7.16851
G1 X131.014 Y150.962 E7.17234
G1 X131.025 Y150.172 E7.20387
G1 X131.073 Y149.638 E7.22527
G1 X131.199 Y149.116 E7.24671
G1 X131.401 Y148.62 E7.26808
G1 X131.675 Y148.159 E7.28949
G1 X132.014 Y147.743 E7.3109
G1 X132.411 Y147.383 E7.33229
G0 F3600 X132.406 Y147.916
G1 F900 X132.797 Y147.595 E7.35248
G1 X133.145 Y147.385 E7.36871
G1 X133.526 Y147.186 E7.38586
G1 X135.976 Y145.863 E7.49699
G1 X138.319 Y144.51 E7.60498
G1 X141.528 Y142.514 E7.75581
G1 X142.534 Y141.86 E7.8037
G1 X142.978 Y141.619 E7.82387
G1 X143.38 Y141.472 E7.84095
G1 X143.846 Y141.336 E7.86032
G1 X143.919 Y141.316 E7.86335
G1 X144.317 Y141.21 E7.87978
G1 X144.356 Y141.2 E7.88139
G1 X145.024 Y141.031 E7.90889
G1 X145.523 Y140.946 E7.9291
G1 X145.91 Y140.935 E7.94455
G1 X146.516 Y140.954 E7.96875
G1 X149.283 Y141.013 E8.07921
G1 X152.036 Y140.994 E8.18909
G1 X153.413 Y140.946 E8.24408
G1 X153.457 Y140.945 E8.24584
G1 X154.069 Y140.932 E8.27027
G1 X154.574 Y140.961 E8.29046
G1 X154.904 Y141.024 E8.30387
G1 X155.917 Y141.274 E8.34551
G1 X156.02 Y141.302 E8.34977
G1 X156.579 Y141.46 E8.37296
G1 X157.053 Y141.635 E8.39312
G1 X157.442 Y141.849 E8.41084
G1 X159.867 Y143.412 E8.52599
G1 X162.22 Y144.837 E8.63579
G1 X164.583 Y146.18 E8.74427
G1 X165.592 Y146.712 E8.78979
G1 X165.62 Y146.727 E8.79106
G1 X166.85 Y147.391 E8.84685
G1 X167.275 Y147.666 E8.86705
G1 X167.651 Y148.004 E8.88723
G1 X167.969 Y148.397 E8.90741
G1 X168.221 Y148.835 E8.92758
G1 X168.401 Y149.307 E8.94774
G1 X168.524 Y150.012 E8.9763
G1 X168.565 Y150.684 E9.00317
G1 X168.571 Y150.823 E9.00873
G1 X168.575 Y151.053 E9.01791
G1 X168.575 Y151.104 E9.01994
G1 X168.576 Y151.788 E9.04724
G1 X168.537 Y152.292 E9.06742
G1 X168.419 Y152.784 E9.08761
G1 X168.225 Y153.251 E9.1078
G1 X167.96 Y153.681 E9.12796
G1 X167.63 Y154.065 E9.14816
G1 X167.244 Y154.391 E9.16833
G1 X166.811 Y154.653 E9.18853
G1 X166.343 Y154.843 E9.20869
G1 X165.694 Y154.977 E9.23514
G1 X165.334 Y155.013 E9.24958
G1 X163.201 Y155.199 E9.33503
G1 X160.587 Y155.519 E9.44014
G1 X160.563 Y155.522 E9.44111
G1 X158.283 Y155.783 E9.5327
G1 X158.244 Y155.787 E9.53427
G1 X157.767 Y155.836 E9.55341
G1 X155.043 Y156.19 E9.66304
G1 X154.274 Y156.308 E9.69409
G1 X154.212 Y156.317 E9.69659
G1 X153.492 Y156.413 E9.72558
G1 X153.066 Y156.441 E9.74262
G1 X151.898 Y156.44 E9.78924
G1 X151.823 Y156.439 E9.79223
G1 X150.969 Y156.418 E9.82633
G1 X148.223 Y156.429 E9.93593
G1 X147.264 Y156.454 E9.97422
G1 X146.881 Y156.441 E9.98951
G1 X146.294 Y156.386 E10.01304
G1 X146.124 Y156.366 E10.01988
G1 X145.07 Y156.21 E10.0624
G1 X142.342 Y155.846 E10.17225
G1 X140.512 Y155.646 E10.24572
G1 X140.453 Y155.639 E10.24809
G1 X139.418 Y155.507 E10.28974
G1 X136.64 Y155.192 E10.40132
G1 X135.754 Y155.118 E10.43681
G1 X135.717 Y155.115 E10.43829
G1 X134.369 Y154.987 E10.49233
G1 X134.2 Y154.966 E10.49913
G1 X134.153 Y154.959 E10.50103
G1 X133.66 Y154.845 E10.52122
G1 X133.191 Y154.655 E10.54142
G1 X132.759 Y154.394 E10.56156
G1 X132.372 Y154.068 E10.58176
G1 X132.042 Y153.685 E10.60194
G1 X131.777 Y153.255 E10.6221
G1 X131.582 Y152.788 E10.6423
G1 X131.464 Y152.297 E10.66245
G1 X131.424 Y151.835 E10.68096
G1 X131.414 Y151.053 E10.71217
G1 X131.414 Y150.967 E10.7156
G1 X131.425 Y150.177 E10.74714
G1 X131.472 Y149.674 E10.7673
G1 X131.598 Y149.184 E10.78749
G1 X131.799 Y148.721 E10.80764
G1 X132.071 Y148.294 E10.82785
G1 X132.406 Y147.916 E10.84801
G1 F1500 E4.34801
;MESH:jet_fighter.STL
G0 F3600 X135.229 Y149.55
G0 X135.229 Y150.829
G0 X135.214 Y151.211
;TYPE:WALL-INNER
G1 F1500 E10.84801
G1 F900 X135.215 Y150.815 E10.86381
G1 X138.023 Y150.815 E10.97588
G1 X138.023 Y151.2 E10.99125
G1 X135.214 Y151.211 E11.1007
G0 F3600 X135.015 Y151.613
;TYPE:WALL-OUTER
G1 F900 X134.814 Y151.613 E11.10873
G1 X134.814 Y151.412 E11.11392
G1 X134.815 Y150.415 E11.15371
G1 X138.423 Y150.415 E11.29771
G1 X138.423 Y151.598 E11.34493
G1 X135.015 Y151.613 E11.48095
G0 F3600 X134.815 Y151.613
G1 F1500 E4.98095
G0 F3600 X135.284 Y151.141
G0 X138.009 Y151.186
G0 X139.288 Y151.186
G0 X140.166 Y151.486
G0 X141.444 Y151.485
G0 X141.431 Y151.871
;TYPE:WALL-INNER
G1 F1500 E11.48095
G1 F900 X141.43 Y151.471 E11.49691
G1 X143.12 Y151.471 E11.56437
G1 X143.121 Y151.871 E11.58033
G1 X141.431 Y151.871 E11.64778
G0 F3600 X141.501 Y151.801
G0 X143.051 Y151.801
G0 X143.321 Y152.271
;TYPE:WALL-OUTER
G1 F900 X141.031 Y152.271 E11.73918
G1 X141.03 Y151.271 E11.77909
G1 X141.03 Y151.071 E11.78708
G1 X141.23 Y151.071 E11.79224
G1 X143.52 Y151.071 E11.88364
G1 X143.521 Y152.071 E11.92355
G1 X143.521 Y152.271 E11.93154
G1 X143.321 Y152.271 E11.93671
G0 F3600 X143.121 Y152.271
G1 F1500 E5.43671
G0 F3600 X143.051 Y151.801
G0 X145.642 Y151.672
G0 X145.975 Y151.673
G1 F1500 E11.93671
G1 F900 X146.015 Y151.949 E11.94784
G1 X146.114 Y152.191 E11.95827
G1 X146.279 Y152.407 E11.96912
G1 X146.495 Y152.572 E11.97997
G1 X146.746 Y152.676 E11.99081
G1 X147.014 Y152.711 E12.0016
G1 X147.283 Y152.676 E12.01243
G1 X147.534 Y152.572 E12.02327
G1 X147.75 Y152.407 E12.03412
G1 X147.915 Y152.19 E12.045
G1 X148.018 Y151.94 E12.05579
G1 X148.054 Y151.672 E12.06658
G1 X148.018 Y151.403 E12.07742
G1 X147.915 Y151.153 E12.08821
G1 X147.75 Y150.936 E12.09909
G1 X147.533 Y150.771 E12.10997
G1 X147.283 Y150.668 E12.12076
G1 X147.014 Y150.632 E12.13159
G1 X146.746 Y150.668 E12.14239
G1 X146.496 Y150.771 E12.15318
G1 X146.279 Y150.936 E12.16406
G1 X146.114 Y151.152 E12.17491
G1 X146.01 Y151.403 E12.18575
G1 X145.975 Y151.673 E12.19662
G0 F3600 X146.003 Y151.871
G0 X145.904 Y151.884
G0 X146.251 Y150.908
G0 X147.293 Y150.63
G0 X148.266 Y151.369
G0 X148.365 Y151.357
G1 F900 X148.401 Y151.625 E12.20606
G1 X148.408 Y151.672 E12.20795
G1 X148.402 Y151.718 E12.2097
G1 X148.366 Y151.986 E12.21917
G1 X148.36 Y152.031 E12.22087
G1 X148.343 Y152.073 E12.22257
G1 X148.239 Y152.324 E12.23207
G1 X148.22 Y152.369 E12.2339
G1 X148.194 Y152.403 E12.23561
G1 X148.027 Y152.62 E12.24517
G1 X147.999 Y152.656 E12.24688
G1 X147.963 Y152.683 E12.24868
G1 X147.748 Y152.849 E12.25813
G1 X147.712 Y152.877 E12.25995
G1 X147.668 Y152.895 E12.26185
G1 X147.417 Y152.999 E12.27131
G1 X147.374 Y153.017 E12.27317
G1 X147.329 Y153.022 E12.27497
G1 X147.061 Y153.058 E12.2844
G1 X147.014 Y153.065 E12.2863
G1 X146.968 Y153.059 E12.28804
G1 X146.7 Y153.023 E12.2975
G1 X146.655 Y153.017 E12.2992
G1 X146.613 Y153 E12.3009
G1 X146.362 Y152.896 E12.31038
G1 X146.317 Y152.877 E12.31222
G1 X146.282 Y152.85 E12.31398
G1 X146.066 Y152.684 E12.32348
G1 X146.032 Y152.657 E12.3251
G1 X146.002 Y152.617 E12.3271
G1 X145.838 Y152.4 E12.33651
G1 X145.803 Y152.353 E12.33869
G1 X145.792 Y152.326 E12.33986
G1 X145.691 Y152.085 E12.34899
G1 X145.671 Y152.038 E12.35103
G1 X145.666 Y151.996 E12.35272
G1 X145.629 Y151.72 E12.36245
G1 X145.622 Y151.672 E12.36439
G1 X145.628 Y151.627 E12.3662
G1 X145.664 Y151.357 E12.3757
G1 X145.672 Y151.304 E12.37771
G1 X145.686 Y151.27 E12.37918
G1 X145.79 Y151.018 E12.3887
G1 X145.808 Y150.976 E12.39041
G1 X145.839 Y150.937 E12.3924
G1 X146.007 Y150.723 E12.40182
G1 X146.043 Y150.677 E12.40415
G1 X146.066 Y150.659 E12.40524
G1 X146.282 Y150.494 E12.41473
G1 X146.319 Y150.465 E12.4166
G1 X146.362 Y150.447 E12.41835
G1 X146.613 Y150.345 E12.4278
G1 X146.655 Y150.327 E12.42962
G1 X146.7 Y150.322 E12.43143
G1 X146.968 Y150.286 E12.44084
G1 X147.022 Y150.279 E12.44288
G1 X147.06 Y150.284 E12.44432
G1 X147.329 Y150.32 E12.45383
G1 X147.374 Y150.326 E12.45553
G1 X147.416 Y150.343 E12.45723
G1 X147.667 Y150.447 E12.46673
G1 X147.712 Y150.466 E12.46856
G1 X147.746 Y150.492 E12.47027
G1 X147.963 Y150.659 E12.47983
G1 X147.999 Y150.687 E12.48154
G1 X148.026 Y150.723 E12.48334
G1 X148.192 Y150.938 E12.49279
G1 X148.22 Y150.974 E12.49461
G1 X148.238 Y151.018 E12.49651
G1 X148.342 Y151.268 E12.50598
G1 X148.36 Y151.312 E12.50776
G1 X148.365 Y151.357 E12.50957
G0 F3600 X148.391 Y151.555
G1 F1500 E6.00957
G0 F3600 X148.293 Y151.566
G0 X149.216 Y151.2
G0 X150.795 Y151.164
G0 X151.67 Y151.294
G0 X152.033 Y150.665
G1 F1500 E12.50957
G1 F900 X152.25 Y150.502 E12.5204
G1 X152.31 Y150.457 E12.5234
G1 X152.327 Y150.45 E12.52413
G1 X152.579 Y150.35 E12.53495
G1 X152.64 Y150.326 E12.53757
G1 X152.666 Y150.323 E12.53861
G1 X152.935 Y150.292 E12.54942
G1 X153.009 Y150.283 E12.5524
G1 X153.026 Y150.285 E12.55308
G1 X153.294 Y150.325 E12.56389
G1 X153.368 Y150.337 E12.56689
G1 X153.379 Y150.341 E12.56735
G1 X153.628 Y150.446 E12.57814
G1 X153.688 Y150.471 E12.58073
G1 X153.713 Y150.491 E12.58201
G1 X153.925 Y150.66 E12.59283
G1 X153.983 Y150.706 E12.59579
G1 X153.992 Y150.718 E12.59638
G1 X154.155 Y150.935 E12.60722
G1 X154.197 Y150.99 E12.60998
G1 X154.206 Y151.014 E12.611
G1 X154.306 Y151.266 E12.62182
G1 X154.332 Y151.332 E12.62465
G1 X154.334 Y151.353 E12.6255
G1 X154.365 Y151.621 E12.63626
G1 X154.374 Y151.699 E12.6394
G1 X154.339 Y151.983 E12.65082
G1 X154.332 Y152.031 E12.65275
G1 X154.312 Y152.078 E12.65479
