;FLAVOR:Marlin
;TIME:13068
;Filament used: 6.99128m
;Layer height: 0.12
;MINX:119.777
;MINY:103.026
;MINZ:0.24
;MAXX:183.923
;MAXY:196.987
;MAXZ:117.84
;Generated with Cura_SteamEngine 4.4.1
M140 S80
M105
M190 S80
M104 S200
M105
M109 S200
M82 ;absolute extrusion mode
G28 ;Home
G1 Z15.0 F6000 ;Move the platform down 15mm
;Prime the extruder
G92 E0
G1 F200 E3
G92 E0
G92 E0
G92 E0
G1 F1500 E-6.5
;LAYER_COUNT:981
;LAYER:0
M107
G1 F600 Z0.74
G0 F3600 X126.244 Y115.434 Z0.74
;TYPE:SKIRT
G1 F600 Z0.24
G1 F1500 E0
G1 X126.797 Y114.881 E0.03121
G1 X127.325 Y114.457 E0.05824
G1 X127.447 Y114.363 E0.06439
G1 X128.731 Y113.419 E0.12799
G1 X129.332 Y112.956 E0.15827
G1 X129.384 Y112.917 E0.16087
G1 X130.147 Y112.35 E0.19881
G1 X132.076 Y110.877 E0.29568
G1 X132.247 Y110.754 E0.30409
G1 X132.37 Y110.671 E0.31001
G1 X132.836 Y110.405 E0.33143
G1 X133.336 Y110.211 E0.35283
G1 X133.859 Y110.093 E0.37423
G1 X134.394 Y110.055 E0.39564
G1 X135.036 Y110.115 E0.42137
G1 X136.002 Y110.293 E0.46058
G1 X136.049 Y110.301 E0.46248
G1 X136.971 Y110.483 E0.49999
G1 X139.652 Y110.935 E0.6085
G1 X142.34 Y111.311 E0.71683
G1 X145.037 Y111.61 E0.82513
G1 X147.773 Y111.836 E0.93471
G1 X150.492 Y111.982 E1.04338
G1 X153.224 Y112.052 E1.15246
G1 X155.954 Y112.045 E1.26142
G1 X158.65 Y111.961 E1.36907
G1 X161.413 Y111.798 E1.47954
G1 X164.094 Y111.563 E1.58696
G1 X166.809 Y111.247 E1.69605
G1 X169.516 Y110.854 E1.80523
G1 X172.206 Y110.386 E1.9142
G1 X174.268 Y109.975 E1.99812
G1 X174.8 Y109.91 E2.01951
G1 X175.336 Y109.925 E2.04091
G1 X175.864 Y110.018 E2.06231
G1 X176.372 Y110.19 E2.08372
G1 X176.849 Y110.435 E2.10512
G1 X177.121 Y110.618 E2.1182
G1 X177.927 Y111.218 E2.15831
G1 X178.568 Y111.686 E2.18999
G1 X178.605 Y111.713 E2.19181
G1 X180.375 Y113.04 E2.28011
G1 X181.235 Y113.66 E2.32242
G1 X181.277 Y113.691 E2.3245
G1 X182.384 Y114.514 E2.37956
G1 X182.789 Y114.865 E2.40095
G1 X182.989 Y115.083 E2.41276
G1 X183.08 Y115.191 E2.4184
G1 X183.394 Y115.626 E2.43981
G1 X183.64 Y116.103 E2.46123
G1 X183.813 Y116.61 E2.48261
G1 X183.908 Y117.138 E2.50402
G1 X183.923 Y117.674 E2.52542
G1 X183.859 Y118.207 E2.54685
G1 X183.717 Y118.724 E2.56825
G1 X183.499 Y119.213 E2.58962
G1 X183.36 Y119.472 E2.60135
G1 X183.31 Y119.562 E2.60546
G1 X180.579 Y124.319 E2.82438
G1 X180.569 Y124.337 E2.82521
G1 X174.289 Y135.137 E3.32383
G1 X172.956 Y137.505 E3.43229
G1 X172.595 Y138.186 E3.46305
G1 X172.565 Y138.242 E3.46559
G1 X171.464 Y140.232 E3.55636
G1 X170.212 Y142.585 E3.66274
G1 X168.971 Y145.089 E3.77428
G1 X167.839 Y147.543 E3.88214
G1 X166.758 Y150.073 E3.99195
G1 X165.766 Y152.591 E4.09997
G1 X164.835 Y155.164 E4.20918
G1 X163.987 Y157.731 E4.31708
G1 X163.2 Y160.362 E4.42669
G1 X162.498 Y162.978 E4.53479
G1 X161.855 Y165.668 E4.64518
G1 X161.305 Y168.31 E4.75289
G1 X160.819 Y171.025 E4.86297
G1 X160.392 Y173.881 E4.97823
G1 X160.251 Y174.933 E5.02059
G1 X160.14 Y175.458 E5.04201
G1 X159.953 Y175.96 E5.06339
G1 X159.693 Y176.43 E5.08483
G1 X159.366 Y176.855 E5.10623
G1 X158.98 Y177.227 E5.12762
G1 X158.543 Y177.537 E5.14901
G1 X158.064 Y177.779 E5.17043
G1 X157.555 Y177.948 E5.19183
G1 X156.877 Y178.05 E5.2192
G1 X156.581 Y178.066 E5.23103
G1 X156.476 Y178.07 E5.23522
G1 X155.948 Y178.083 E5.2563
G1 X155.87 Y178.084 E5.25942
G1 X153.838 Y178.09 E5.34052
G1 X153.715 Y178.088 E5.34543
G1 X153.006 Y178.066 E5.37374
G1 X152.473 Y178.01 E5.39513
G1 X151.954 Y177.875 E5.41653
G1 X151.461 Y177.664 E5.43794
G1 X151.005 Y177.382 E5.45934
G1 X150.595 Y177.036 E5.48075
G1 X150.242 Y176.633 E5.50213
G1 X149.952 Y176.181 E5.52357
G1 X149.732 Y175.692 E5.54497
G1 X149.551 Y174.951 E5.57541
G1 X149.33 Y173.319 E5.64114
G1 X148.894 Y170.637 E5.74959
G1 X148.377 Y167.935 E5.85939
G1 X147.79 Y165.284 E5.96776
G1 X147.132 Y162.66 E6.07573
G1 X146.39 Y160.021 E6.18515
G1 X145.569 Y157.389 E6.29519
G1 X144.695 Y154.843 E6.40262
G1 X143.723 Y152.253 E6.51304
G1 X142.695 Y149.737 E6.62151
G1 X141.609 Y147.277 E6.72884
G1 X140.427 Y144.79 E6.83874
G1 X139.19 Y142.369 E6.94725
G1 X137.866 Y139.947 E7.05742
G1 X137.475 Y139.272 E7.08855
G1 X137.437 Y139.206 E7.09159
G1 X136.5 Y137.505 E7.1691
G1 X135.186 Y135.209 E7.27469
G1 X128.877 Y124.517 E7.77018
G1 X128.874 Y124.512 E7.77041
G1 X126.274 Y120.088 E7.97522
G1 X126.247 Y120.041 E7.97738
G1 X125.92 Y119.465 E8.00382
G1 X125.691 Y118.981 E8.02519
G1 X125.536 Y118.467 E8.04662
G1 X125.46 Y117.936 E8.06803
G1 X125.463 Y117.4 E8.08942
G1 X125.545 Y116.87 E8.11083
G1 X125.706 Y116.358 E8.13225
G1 X125.94 Y115.876 E8.15363
G1 X126.244 Y115.434 E8.17504
G0 F3600 X126.707 Y115.509
G1 F1500 X127.047 Y115.193 E8.19357
G1 X127.575 Y114.769 E8.2206
G1 X127.684 Y114.685 E8.22609
G1 X128.979 Y113.733 E8.29024
G1 X129.576 Y113.273 E8.32032
G1 X129.622 Y113.238 E8.32263
G1 X130.422 Y112.644 E8.36239
G1 X132.319 Y111.195 E8.45767
G1 X132.471 Y111.085 E8.46516
G1 X132.594 Y111.002 E8.47108
G1 X133.034 Y110.754 E8.49124
G1 X133.508 Y110.577 E8.51143
G1 X134.004 Y110.478 E8.53162
G1 X134.509 Y110.457 E8.55179
G1 X134.964 Y110.508 E8.57007
G1 X135.93 Y110.686 E8.60927
G1 X135.971 Y110.694 E8.61094
G1 X136.858 Y110.87 E8.64703
G1 X139.607 Y111.333 E8.75829
G1 X142.273 Y111.706 E8.86574
G1 X145.032 Y112.011 E8.97652
G1 X147.753 Y112.236 E9.0855
G1 X150.462 Y112.382 E9.19377
G1 X153.214 Y112.452 E9.30365
G1 X155.967 Y112.445 E9.41353
G1 X158.687 Y112.36 E9.52214
G1 X161.398 Y112.2 E9.63053
G1 X164.142 Y111.96 E9.74047
G1 X166.881 Y111.641 E9.85053
G1 X169.566 Y111.251 E9.95882
G1 X172.313 Y110.773 E10.0701
G1 X174.346 Y110.368 E10.15284
G1 X174.848 Y110.308 E10.17302
G1 X175.353 Y110.329 E10.19319
G1 X175.849 Y110.429 E10.21338
G1 X176.322 Y110.605 E10.23353
G1 X176.882 Y110.939 E10.25955
G1 X177.688 Y111.539 E10.29966
G1 X178.332 Y112.009 E10.33148
G1 X178.365 Y112.033 E10.3331
G1 X180.158 Y113.377 E10.42254
G1 X181.001 Y113.985 E10.46402
G1 X181.038 Y114.012 E10.46585
G1 X182.145 Y114.835 E10.52091
G1 X182.683 Y115.341 E10.55039
G1 X182.774 Y115.449 E10.55602
G1 X183.068 Y115.86 E10.57619
G1 X183.294 Y116.313 E10.5964
G1 X183.446 Y116.795 E10.61657
G1 X183.52 Y117.295 E10.63674
G1 X183.514 Y117.801 E10.65694
G1 X183.429 Y118.299 E10.6771
G1 X183.266 Y118.777 E10.69726
G1 X183.147 Y119.024 E10.7082
G1 X183.008 Y119.283 E10.71993
G1 X182.963 Y119.363 E10.7236
G1 X180.232 Y124.12 E10.94252
G1 X180.223 Y124.136 E10.94326
G1 X173.943 Y134.936 E11.44188
G1 X172.594 Y137.334 E11.5517
G1 X172.242 Y137.998 E11.58169
G1 X172.215 Y138.048 E11.58396
G1 X171.139 Y139.992 E11.67264
G1 X169.831 Y142.452 E11.78384
G1 X168.621 Y144.893 E11.89258
G1 X167.472 Y147.384 E12.00207
G1 X166.395 Y149.906 E12.11152
G1 X165.389 Y152.457 E12.22097
G1 X164.462 Y155.018 E12.32967
G1 X163.6 Y157.628 E12.43938
G1 X162.819 Y160.24 E12.54819
G1 X162.095 Y162.937 E12.65964
G1 X161.469 Y165.559 E12.76723
G1 X160.913 Y168.23 E12.87613
G1 X160.429 Y170.934 E12.98576
G1 X159.996 Y173.828 E13.10255
G1 X159.855 Y174.88 E13.14492
G1 X159.748 Y175.374 E13.16509
G1 X159.565 Y175.846 E13.1853
G1 X159.31 Y176.282 E13.20546
G1 X158.99 Y176.673 E13.22562
G1 X158.611 Y177.009 E13.24584
G1 X158.185 Y177.281 E13.26601
G1 X157.721 Y177.482 E13.28619
G1 X157.232 Y177.608 E13.30635
G1 X156.856 Y177.65 E13.32145
G1 X156.56 Y177.666 E13.33328
G1 X156.466 Y177.67 E13.33703
G1 X155.938 Y177.683 E13.35811
G1 X155.868 Y177.684 E13.36091
G1 X153.836 Y177.69 E13.44201
G1 X153.728 Y177.688 E13.44632
G1 X153.019 Y177.666 E13.47463
G1 X152.516 Y177.611 E13.49483
G1 X152.029 Y177.477 E13.51499
G1 X151.568 Y177.268 E13.53519
G1 X151.147 Y176.989 E13.55535
G1 X150.774 Y176.647 E13.57554
G1 X150.46 Y176.251 E13.59572
G1 X150.213 Y175.81 E13.61589
G1 X150.038 Y175.336 E13.63606
G1 X149.947 Y174.897 E13.65395
G1 X149.731 Y173.297 E13.71839
G1 X149.282 Y170.534 E13.83011
G1 X148.765 Y167.838 E13.93968
G1 X148.185 Y165.213 E14.04697
G1 X147.519 Y162.56 E14.15615
G1 X146.768 Y159.889 E14.26688
G1 X145.956 Y157.287 E14.37568
G1 X145.061 Y154.678 E14.48576
G1 X144.097 Y152.109 E14.59528
G1 X143.068 Y149.59 E14.70388
G1 X141.965 Y147.093 E14.81283
G1 X140.788 Y144.615 E14.92232
G1 X139.554 Y142.202 E15.0305
G1 X138.207 Y139.737 E15.14261
G1 X137.821 Y139.071 E15.17333
G1 X137.787 Y139.013 E15.17602
G1 X136.822 Y137.262 E15.25581
G1 X136.823 Y137.262 E15.25585
G1 X135.555 Y135.047 E15.35772
G1 X129.222 Y124.314 E15.85511
G1 X129.219 Y124.309 E15.85534
G1 X126.619 Y119.885 E16.06015
G1 X126.595 Y119.844 E16.06205
G1 X126.268 Y119.268 E16.08848
G1 X126.054 Y118.81 E16.10866
G1 X125.915 Y118.324 E16.12883
G1 X125.854 Y117.822 E16.14902
G1 X125.873 Y117.317 E16.16919
G1 X125.971 Y116.821 E16.18937
G1 X126.146 Y116.346 E16.20957
G1 X126.393 Y115.906 E16.22971
G1 X126.707 Y115.509 E16.24991
G1 F1500 E9.74991
;MESH:pikachu_1gen_flowalistik.STL
G0 F3600 X129.657 Y116.925
G0 X129.695 Y117.998
G0 X151.089 Y142.458
;TYPE:WALL-INNER
G1 F1500 E16.24991
G1 X150.852 Y142.33 E16.26066
G1 X150.157 Y141.952 E16.29224
G1 X140.931 Y136.751 E16.71495
G1 X140.91 Y136.644 E16.7193
G1 X132.401 Y122.225 E17.38753
G1 X130.19 Y118.465 E17.56162
G1 X130.021 Y118.177 E17.57495
G1 X130.354 Y118.167 E17.58253
G1 X130.355 Y118.166 E17.58258
G1 X131.969 Y118.108 E17.64704
G1 X132.288 Y116.175 E17.72523
G1 X134.509 Y116.204 E17.81389
G1 X134.696 Y115.068 E17.85984
G1 X134.752 Y114.728 E17.87359
G1 X135.019 Y114.946 E17.88139
G1 X138.074 Y117.442 E18.03884
G1 X145.413 Y123.669 E18.42299
G1 X145.877 Y123.588 E18.44179
G1 X154.717 Y124.874 E18.79833
G1 X163.551 Y123.528 E19.15498
G1 X164.017 Y123.604 E19.17382
G1 X171.443 Y117.238 E19.56421
G1 X174.346 Y114.809 E19.71529
G1 X174.612 Y114.587 E19.72911
G1 X174.67 Y114.929 E19.73695
G1 X174.864 Y116.058 E19.78267
G1 X177.085 Y116.01 E19.87133
G1 X177.42 Y117.943 E19.94963
G1 X179.033 Y117.988 E20.01404
G1 X179.034 Y117.989 E20.01409
G1 X179.367 Y117.997 E20.02739
G1 X179.201 Y118.286 E20.03498
G1 X176.913 Y122.268 E20.21828
G1 X168.611 Y136.544 E20.8774
G1 X168.591 Y136.651 E20.88175
G1 X158.714 Y142.311 E21.3361
G1 X158.484 Y142.443 E21.34668
G1 X158.675 Y142.627 E21.35303
G1 X158.954 Y142.895 E21.36848
G1 X158.95 Y142.94 E21.37028
G1 X156.143 Y173.877 E22.61011
G1 X154.834 Y173.907 E22.66237
G1 X153.654 Y173.887 E22.70947
G1 X150.614 Y142.925 E23.95118
G1 X150.897 Y142.647 E23.96701
G1 X151.089 Y142.458 E23.97344
G0 F3600 X150.423 Y142.552
;TYPE:WALL-OUTER
G1 F1500 X150.342 Y142.508 E23.97712
G1 X149.966 Y142.304 E23.99419
G1 X140.574 Y137.008 E24.42453
G1 X140.531 Y136.788 E24.43348
G1 X132.057 Y122.428 E25.09897
G1 X129.506 Y118.089 E25.29986
G1 X129.337 Y117.801 E25.31319
G1 X129.67 Y117.791 E25.32077
G1 X129.671 Y117.79 E25.32082
G1 X131.628 Y117.72 E25.39898
G1 X131.949 Y115.771 E25.47782
G1 X134.17 Y115.8 E25.56647
G1 X134.414 Y114.321 E25.6263
G1 X134.47 Y113.981 E25.64005
G1 X134.737 Y114.199 E25.64785
G1 X138.333 Y117.137 E25.83319
G1 X145.529 Y123.243 E26.20986
G1 X145.872 Y123.183 E26.22375
G1 X154.716 Y124.47 E26.58045
G1 X163.556 Y123.123 E26.93735
G1 X163.898 Y123.179 E26.95118
G1 X171.186 Y116.931 E27.33432
G1 X174.622 Y114.056 E27.51314
G1 X174.888 Y113.834 E27.52696
G1 X174.946 Y114.176 E27.5348
G1 X175.2 Y115.651 E27.59453
G1 X177.42 Y115.603 E27.68316
G1 X177.758 Y117.552 E27.76211
G1 X179.713 Y117.607 E27.84017
G1 X179.714 Y117.608 E27.84022
G1 X180.047 Y117.616 E27.85352
G1 X179.881 Y117.905 E27.86111
G1 X177.259 Y122.469 E28.07119
G1 X168.992 Y136.685 E28.72754
G1 X168.952 Y136.905 E28.73647
G1 X159.223 Y142.48 E29.18401
G1 X159.146 Y142.524 E29.18755
G1 X159.371 Y142.74 E29.19565
G1 X159.348 Y142.977 E29.20515
G1 X156.509 Y174.269 E30.45921
G1 X154.836 Y174.307 E30.526
G1 X153.291 Y174.281 E30.58768
G1 X150.197 Y142.774 E31.85124
G1 X150.423 Y142.552 E31.85947
G0 F3600 X150.342 Y142.508
G0 X150.247 Y142.457
G0 X150.343 Y141.609
;TYPE:SKIN
G1 F1500 X141.278 Y136.499 E32.2748
G1 X132.737 Y122.026 E32.94553
G1 X130.69 Y118.544 E33.10674
G1 X132.302 Y118.486 E33.17112
G1 X132.617 Y116.569 E33.24866
G1 X134.839 Y116.598 E33.33735
G1 X135.027 Y115.456 E33.38355
G1 X137.822 Y117.74 E33.52761
G1 X145.3 Y124.084 E33.91901
G1 X145.881 Y123.983 E33.94255
G1 X154.719 Y125.268 E34.299
G1 X163.55 Y123.923 E34.65553
G1 X164.134 Y124.018 E34.67914
G1 X171.695 Y117.536 E35.07663
G1 X174.343 Y115.321 E35.21442
G1 X174.536 Y116.455 E35.26033
G1 X176.758 Y116.407 E35.34904
G1 X177.09 Y118.324 E35.42669
G1 X178.703 Y118.369 E35.49109
G1 X176.575 Y122.072 E35.66155
G1 X168.244 Y136.4 E36.32306
G1 X157.839 Y142.363 E36.80171
G1 X158.549 Y143.047 E36.84105
G1 X155.786 Y173.495 E38.06129
G1 X154.831 Y173.517 E38.09942
G1 X154.008 Y173.503 E38.13227
G1 X151.02 Y143.072 E39.35268
G1 X151.738 Y142.366 E39.39287
G1 X150.343 Y141.609 E39.45622
G0 F3600 X150.749 Y142.41
G0 X154.666 Y173.333
G1 F1500 X154.119 Y172.787 E39.48706
G0 F3600 X154.058 Y172.159
G1 F1500 X155.224 Y173.326 E39.55291
G0 F3600 X155.634 Y173.17
G1 F1500 X153.995 Y171.532 E39.64539
G0 F3600 X153.934 Y170.904
G1 F1500 X155.681 Y172.652 E39.74403
G0 F3600 X155.728 Y172.133
G1 F1500 X153.872 Y170.277 E39.84879
G0 F3600 X153.811 Y169.65
G1 F1500 X155.775 Y171.614 E39.95964
G0 F3600 X155.823 Y171.096
G1 F1500 X153.749 Y169.023 E40.07668
G0 F3600 X153.687 Y168.395
G1 F1500 X155.869 Y170.577 E40.19984
G0 F3600 X155.917 Y170.059
G1 F1500 X153.626 Y167.768 E40.32916
G0 F3600 X153.564 Y167.14
G1 F1500 X155.963 Y169.54 E40.46459
G0 F3600 X156.011 Y169.021
G1 F1500 X153.502 Y166.513 E40.60619
G0 F3600 X153.441 Y165.886
G1 F1500 X156.057 Y168.502 E40.75384
G0 F3600 X156.105 Y167.984
G1 F1500 X153.379 Y165.259 E40.90768
G0 F3600 X153.317 Y164.631
G1 F1500 X156.151 Y167.465 E41.06765
G0 F3600 X156.199 Y166.947
G1 F1500 X153.256 Y164.004 E41.23376
G0 F3600 X153.194 Y163.377
G1 F1500 X156.246 Y166.428 E41.406
G0 F3600 X156.293 Y165.909
G1 F1500 X153.133 Y162.749 E41.58437
G0 F3600 X153.071 Y162.122
G1 F1500 X156.34 Y165.391 E41.76888
G0 F3600 X156.387 Y164.872
G1 F1500 X153.009 Y161.494 E41.95955
G0 F3600 X152.947 Y160.867
G1 F1500 X156.434 Y164.354 E42.15637
G0 F3600 X156.481 Y163.835
G1 F1500 X152.886 Y160.24 E42.35929
G0 F3600 X152.824 Y159.613
G1 F1500 X156.528 Y163.316 E42.56833
G0 F3600 X156.575 Y162.797
G1 F1500 X152.763 Y158.985 E42.7835
G0 F3600 X152.701 Y158.358
G1 F1500 X156.622 Y162.279 E43.00481
G0 F3600 X156.669 Y161.76
G1 F1500 X152.639 Y157.73 E43.23229
G0 F3600 X152.578 Y157.103
G1 F1500 X156.716 Y161.242 E43.46588
G0 F3600 X156.764 Y160.723
G1 F1500 X152.516 Y156.476 E43.70563
G0 F3600 X152.455 Y155.849
G1 F1500 X156.81 Y160.204 E43.95144
G0 F3600 X156.858 Y159.686
G1 F1500 X152.393 Y155.221 E44.20347
G0 F3600 X152.331 Y154.594
G1 F1500 X156.904 Y159.167 E44.46159
G0 F3600 X156.952 Y158.649
G1 F1500 X152.269 Y153.966 E44.72591
G0 F3600 X152.208 Y153.339
G1 F1500 X156.998 Y158.13 E44.99631
G0 F3600 X157.046 Y157.611
G1 F1500 X152.146 Y152.712 E45.27286
G0 F3600 X152.085 Y152.085
G1 F1500 X157.092 Y157.092 E45.55548
G0 F3600 X157.14 Y156.574
G1 F1500 X152.023 Y151.458 E45.84427
G0 F3600 X151.961 Y150.83
G1 F1500 X157.187 Y156.055 E46.13922
G0 F3600 X157.234 Y155.537
G1 F1500 X151.899 Y150.202 E46.44035
G0 F3600 X151.838 Y149.575
G1 F1500 X157.281 Y155.018 E46.74758
G0 F3600 X157.328 Y154.5
G1 F1500 X151.776 Y148.948 E47.06096
G0 F3600 X151.715 Y148.321
G1 F1500 X157.375 Y153.981 E47.38043
G0 F3600 X157.422 Y153.462
G1 F1500 X151.653 Y147.693 E47.70606
G0 F3600 X151.591 Y147.066
G1 F1500 X157.469 Y152.944 E48.03784
G0 F3600 X157.516 Y152.425
G1 F1500 X151.53 Y146.438 E48.37575
G0 F3600 X151.468 Y145.811
G1 F1500 X157.563 Y151.907 E48.7198
G0 F3600 X157.61 Y151.388
G1 F1500 X151.407 Y145.184 E49.06995
