;FLAVOR:Marlin
;TIME:1972
;Filament used: 0.337663m
;Layer height: 0.08
;MINX:125.5
;MINY:141
;MINZ:0.2
;MAXX:174.5
;MAXY:159
;MAXZ:6.46
;Generated with Cura_SteamEngine 4.4.1
M140 S80
M105
M190 S80
M104 S200
M105
M109 S200
M82 ;absolute extrusion mode
G28 ;Home
G1 Z15.0 F6000 ;Move the platform down 15mm
;Prime the extruder
G92 E0
G1 F200 E3
G92 E0
G92 E0
G92 E0
G1 F1500 E-2.5
;LAYER_COUNT:73
;LAYER:0
M107
M204 S5000
G1 F600 Z0.7
G0 F2400 X126.906 Y141.972 Z0.7
M204 S300
;TYPE:SKIRT
G1 F600 Z0.2
G1 F1500 E0
G1 F600 X127.36 Y141.635 E0.01843
G1 X127.857 Y141.366 E0.03685
G1 X128.387 Y141.169 E0.05528
G1 X128.94 Y141.05 E0.07372
G1 X129.397 Y141.011 E0.08867
G1 X129.718 Y141.002 E0.09913
G1 X129.83 Y141 E0.10279
G1 X169.85 Y141 E1.40723
G1 X170.548 Y141.01 E1.42999
G1 X171.112 Y141.058 E1.44844
G1 X171.662 Y141.185 E1.46684
G1 X172.19 Y141.389 E1.48529
G1 X172.684 Y141.664 E1.50372
G1 X173.133 Y142.007 E1.52213
G1 X173.53 Y142.409 E1.54055
G1 X173.867 Y142.864 E1.559
G1 X174.135 Y143.361 E1.57741
G1 X174.331 Y143.891 E1.59583
G1 X174.451 Y144.444 E1.61427
G1 X174.489 Y144.898 E1.62912
G1 X174.498 Y145.218 E1.63956
G1 X174.5 Y145.33 E1.64321
G1 X174.5 Y154.314 E1.93604
G1 X174.491 Y155.041 E1.95974
G1 X174.444 Y155.604 E1.97815
G1 X174.318 Y156.155 E1.99658
G1 X174.116 Y156.683 E2.015
G1 X173.841 Y157.177 E2.03343
G1 X173.499 Y157.627 E2.05186
G1 X173.097 Y158.025 E2.07029
G1 X172.644 Y158.362 E2.0887
G1 X172.147 Y158.632 E2.10713
G1 X171.617 Y158.829 E2.12556
G1 X171.065 Y158.95 E2.14398
G1 X170.603 Y158.989 E2.1591
G1 X170.282 Y158.998 E2.16956
G1 X170.17 Y159 E2.17321
G1 X130.155 Y159 E3.4775
G1 X129.457 Y158.991 E3.50025
G1 X128.894 Y158.943 E3.51867
G1 X128.343 Y158.817 E3.53709
G1 X127.815 Y158.615 E3.55552
G1 X127.321 Y158.34 E3.57395
G1 X126.871 Y157.998 E3.59237
G1 X126.473 Y157.596 E3.61081
G1 X126.137 Y157.142 E3.62922
G1 X125.867 Y156.645 E3.64766
G1 X125.67 Y156.115 E3.66609
G1 X125.55 Y155.563 E3.6845
G1 X125.51 Y155.099 E3.69968
G1 X125.501 Y154.766 E3.71054
G1 X125.5 Y154.658 E3.71406
G1 X125.5 Y145.62 E4.00865
G1 X125.509 Y144.955 E4.03033
G1 X125.557 Y144.392 E4.04875
G1 X125.683 Y143.841 E4.06717
G1 X125.886 Y143.313 E4.08561
G1 X126.162 Y142.819 E4.10405
G1 X126.504 Y142.369 E4.12248
G1 X126.906 Y141.972 E4.14089
M204 S5000
G0 F2400 X127.294 Y142.171
M204 S300
G1 F600 X127.741 Y141.873 E4.1584
G1 X128.226 Y141.645 E4.17587
G1 X128.74 Y141.492 E4.19335
G1 X129.408 Y141.41 E4.21529
G1 X129.729 Y141.401 E4.22576
G1 X129.83 Y141.4 E4.22905
G1 X169.845 Y141.4 E5.53333
G1 X170.543 Y141.41 E5.55609
G1 X171.077 Y141.458 E5.57356
G1 X171.598 Y141.584 E5.59103
G1 X172.095 Y141.787 E5.60853
G1 X172.556 Y142.061 E5.62601
G1 X172.971 Y142.4 E5.64348
G1 X173.331 Y142.798 E5.66097
G1 X173.628 Y143.244 E5.67844
G1 X173.856 Y143.73 E5.69594
G1 X174.008 Y144.244 E5.71341
G1 X174.09 Y144.909 E5.73525
G1 X174.099 Y145.229 E5.74568
G1 X174.1 Y145.33 E5.74897
G1 X174.1 Y154.309 E6.04164
G1 X174.091 Y155.036 E6.06534
G1 X174.044 Y155.57 E6.08281
G1 X173.919 Y156.091 E6.10028
G1 X173.717 Y156.588 E6.11776
G1 X173.444 Y157.05 E6.13526
G1 X173.106 Y157.466 E6.15273
G1 X172.709 Y157.827 E6.17022
G1 X172.263 Y158.125 E6.1877
G1 X171.778 Y158.353 E6.20517
G1 X171.264 Y158.507 E6.22266
G1 X170.592 Y158.59 E6.24473
G1 X170.271 Y158.599 E6.2552
G1 X170.17 Y158.6 E6.25849
G1 X130.161 Y158.6 E7.56258
G1 X129.463 Y158.591 E7.58533
G1 X128.928 Y158.544 E7.60284
G1 X128.407 Y158.418 E7.62031
G1 X127.91 Y158.216 E7.6378
G1 X127.449 Y157.943 E7.65526
G1 X127.033 Y157.604 E7.67275
G1 X126.672 Y157.208 E7.69022
G1 X126.374 Y156.762 E7.7077
G1 X126.146 Y156.276 E7.7252
G1 X125.993 Y155.762 E7.74268
G1 X125.91 Y155.088 E7.76481
G1 X125.901 Y154.755 E7.77567
G1 X125.9 Y154.658 E7.77883
G1 X125.9 Y145.625 E8.07326
G1 X125.909 Y144.96 E8.09494
G1 X125.957 Y144.426 E8.11242
G1 X126.083 Y143.905 E8.12989
G1 X126.285 Y143.408 E8.14738
G1 X126.558 Y142.947 E8.16484
G1 X126.897 Y142.531 E8.18233
G1 X127.294 Y142.171 E8.1998
M204 S5000
G0 F2400 X127.289 Y142.704
M204 S300
G1 F600 X127.68 Y142.383 E8.21629
G1 X128.117 Y142.128 E8.23278
G1 X128.588 Y141.944 E8.24926
G1 X129.082 Y141.838 E8.26573
G1 X129.419 Y141.81 E8.27675
G1 X129.74 Y141.801 E8.28722
G1 X129.83 Y141.8 E8.29015
G1 X169.839 Y141.8 E9.59424
G1 X170.537 Y141.81 E9.617
G1 X171.04 Y141.857 E9.63346
G1 X171.53 Y141.983 E9.64996
G1 X171.994 Y142.185 E9.66645
G1 X172.42 Y142.457 E9.68292
G1 X172.798 Y142.792 E9.69939
G1 X173.118 Y143.183 E9.71586
G1 X173.373 Y143.62 E9.73235
G1 X173.556 Y144.091 E9.74882
G1 X173.663 Y144.585 E9.76529
G1 X173.69 Y144.92 E9.77625
G1 X173.699 Y145.24 E9.78668
G1 X173.7 Y145.33 E9.78962
G1 X173.7 Y154.304 E10.08212
G1 X173.691 Y155.031 E10.10582
G1 X173.645 Y155.534 E10.12229
G1 X173.52 Y156.024 E10.13877
G1 X173.319 Y156.488 E10.15525
G1 X173.048 Y156.915 E10.17174
G1 X172.713 Y157.294 E10.18822
G1 X172.323 Y157.615 E10.20469
G1 X171.887 Y157.871 E10.22117
G1 X171.416 Y158.054 E10.23764
G1 X170.922 Y158.162 E10.25412
G1 X170.581 Y158.19 E10.26527
G1 X170.26 Y158.199 E10.27574
G1 X170.17 Y158.2 E10.27867
G1 X130.166 Y158.2 E11.5826
G1 X129.468 Y158.191 E11.60535
G1 X128.964 Y158.144 E11.62185
G1 X128.474 Y158.019 E11.63834
G1 X128.01 Y157.818 E11.65482
G1 X127.584 Y157.547 E11.67127
G1 X127.205 Y157.212 E11.68776
G1 X126.884 Y156.821 E11.70425
G1 X126.629 Y156.385 E11.72072
G1 X126.445 Y155.914 E11.7372
G1 X126.338 Y155.42 E11.75367
G1 X126.31 Y155.077 E11.76489
G1 X126.301 Y154.744 E11.77575
G1 X126.3 Y154.658 E11.77855
G1 X126.3 Y145.631 E12.07279
G1 X126.309 Y144.966 E12.09446
G1 X126.356 Y144.462 E12.11096
G1 X126.482 Y143.973 E12.12742
G1 X126.683 Y143.509 E12.1439
G1 X126.954 Y143.082 E12.16039
G1 X127.289 Y142.704 E12.17685
M204 S5000
G1 F1500 E9.67685
G1 F600 Z0.7
;MESH:5cea3c9b-f43f-4517-9e2e-f60ce5679e15.stl
G0 F2400 X130.1 Y154.4 Z0.7
M204 S300
;TYPE:WALL-INNER
G1 F600 Z0.2
G1 F1500 E12.17685
G1 F600 X130.1 Y145.6 E12.46369
G1 X169.9 Y145.6 E13.76097
G1 X169.9 Y154.4 E14.0478
G1 X130.1 Y154.4 E15.34508
M204 S5000
G0 F2400 X129.7 Y154.8
M204 S300
;TYPE:WALL-OUTER
G1 F600 X129.7 Y145.2 E15.65799
G1 X170.3 Y145.2 E16.98134
G1 X170.3 Y154.8 E17.29426
G1 X129.7 Y154.8 E18.61761
M204 S5000
G0 F2400 X129.7 Y154.6
G0 X130.49 Y154.01
M204 S300
;TYPE:SKIN
G1 F600 X130.49 Y145.99 E18.87902
G1 X169.51 Y145.99 E20.15088
G1 X169.51 Y154.01 E20.41229
G1 X130.49 Y154.01 E21.68414
M204 S5000
G0 F2400 X131.201 Y153.828
M204 S300
G1 F600 X130.669 Y153.297 E21.70864
M204 S5000
G0 F2400 X130.669 Y152.731
M204 S300
G1 F600 X131.767 Y153.828 E21.75923
M204 S5000
G0 F2400 X132.332 Y153.828
M204 S300
G1 F600 X130.669 Y152.165 E21.83589
M204 S5000
G0 F2400 X130.669 Y151.6
M204 S300
G1 F600 X132.898 Y153.828 E21.93862
M204 S5000
G0 F2400 X133.464 Y153.828
M204 S300
G1 F600 X130.669 Y151.034 E22.06743
M204 S5000
G0 F2400 X130.669 Y150.468
M204 S300
G1 F600 X134.029 Y153.828 E22.22231
M204 S5000
G0 F2400 X134.595 Y153.828
M204 S300
G1 F600 X130.669 Y149.903 E22.40327
M204 S5000
G0 F2400 X130.669 Y149.337
M204 S300
G1 F600 X135.161 Y153.828 E22.61031
M204 S5000
G0 F2400 X135.727 Y153.828
M204 S300
G1 F600 X130.669 Y148.771 E22.84344
M204 S5000
G0 F2400 X130.669 Y148.206
M204 S300
G1 F600 X136.292 Y153.828 E23.10261
M204 S5000
G0 F2400 X136.858 Y153.828
M204 S300
G1 F600 X130.669 Y147.64 E23.38788
M204 S5000
G0 F2400 X130.669 Y147.074
M204 S300
G1 F600 X137.424 Y153.828 E23.69924
M204 S5000
G0 F2400 X137.989 Y153.828
M204 S300
G1 F600 X130.669 Y146.508 E24.03666
M204 S5000
G0 F2400 X130.896 Y146.17
M204 S300
G1 F600 X138.555 Y153.828 E24.38969
M204 S5000
G0 F2400 X139.121 Y153.828
M204 S300
G1 F600 X131.462 Y146.17 E24.74272
M204 S5000
G0 F2400 X132.028 Y146.17
M204 S300
G1 F600 X139.686 Y153.828 E25.09572
M204 S5000
G0 F2400 X140.252 Y153.828
M204 S300
G1 F600 X132.593 Y146.17 E25.44875
M204 S5000
G0 F2400 X133.159 Y146.17
M204 S300
G1 F600 X140.818 Y153.828 E25.80178
M204 S5000
G0 F2400 X141.383 Y153.828
M204 S300
G1 F600 X133.725 Y146.17 E26.15478
M204 S5000
G0 F2400 X134.29 Y146.17
M204 S300
G1 F600 X141.949 Y153.828 E26.50781
M204 S5000
G0 F2400 X142.515 Y153.828
M204 S300
G1 F600 X134.856 Y146.17 E26.86084
M204 S5000
G0 F2400 X135.422 Y146.17
M204 S300
G1 F600 X143.08 Y153.828 E27.21384
M204 S5000
G0 F2400 X143.646 Y153.828
M204 S300
G1 F600 X135.987 Y146.17 E27.56687
M204 S5000
G0 F2400 X136.553 Y146.17
M204 S300
G1 F600 X144.212 Y153.828 E27.9199
M204 S5000
G0 F2400 X144.777 Y153.828
M204 S300
G1 F600 X137.119 Y146.17 E28.2729
M204 S5000
G0 F2400 X137.685 Y146.17
M204 S300
G1 F600 X145.343 Y153.828 E28.62591
M204 S5000
G0 F2400 X145.909 Y153.828
M204 S300
G1 F600 X138.25 Y146.17 E28.97893
M204 S5000
G0 F2400 X138.816 Y146.17
M204 S300
G1 F600 X146.475 Y153.828 E29.33196
M204 S5000
G0 F2400 X147.04 Y153.828
M204 S300
G1 F600 X139.382 Y146.17 E29.68497
M204 S5000
G0 F2400 X139.947 Y146.17
M204 S300
G1 F600 X147.606 Y153.828 E30.03799
M204 S5000
G0 F2400 X148.172 Y153.828
M204 S300
G1 F600 X140.513 Y146.17 E30.39102
M204 S5000
G0 F2400 X141.079 Y146.17
M204 S300
G1 F600 X148.737 Y153.828 E30.74403
M204 S5000
G0 F2400 X149.303 Y153.828
M204 S300
G1 F600 X141.644 Y146.17 E31.09705
M204 S5000
G0 F2400 X142.21 Y146.17
M204 S300
G1 F600 X149.869 Y153.828 E31.45008
M204 S5000
G0 F2400 X150.434 Y153.828
M204 S300
G1 F600 X142.776 Y146.17 E31.80309
M204 S5000
G0 F2400 X143.341 Y146.17
M204 S300
G1 F600 X151 Y153.828 E32.15611
M204 S5000
G0 F2400 X151.566 Y153.828
M204 S300
G1 F600 X143.907 Y146.17 E32.50914
M204 S5000
G0 F2400 X144.473 Y146.17
M204 S300
G1 F600 X152.131 Y153.828 E32.86215
M204 S5000
G0 F2400 X152.697 Y153.828
M204 S300
G1 F600 X145.038 Y146.17 E33.21517
M204 S5000
G0 F2400 X145.604 Y146.17
M204 S300
G1 F600 X153.263 Y153.828 E33.5682
M204 S5000
G0 F2400 X153.828 Y153.828
M204 S300
G1 F600 X146.17 Y146.17 E33.92121
M204 S5000
G0 F2400 X146.735 Y146.17
M204 S300
G1 F600 X154.394 Y153.828 E34.27423
M204 S5000
G0 F2400 X154.96 Y153.828
M204 S300
G1 F600 X147.301 Y146.17 E34.62726
M204 S5000
G0 F2400 X147.867 Y146.17
M204 S300
G1 F600 X155.526 Y153.828 E34.98029
M204 S5000
G0 F2400 X156.091 Y153.828
M204 S300
G1 F600 X148.433 Y146.17 E35.33329
M204 S5000
G0 F2400 X148.998 Y146.17
M204 S300
G1 F600 X156.657 Y153.828 E35.68632
M204 S5000
G0 F2400 X157.223 Y153.828
M204 S300
G1 F600 X149.564 Y146.17 E36.03935
M204 S5000
G0 F2400 X150.13 Y146.17
M204 S300
G1 F600 X157.788 Y153.828 E36.39235
M204 S5000
G0 F2400 X158.354 Y153.828
M204 S300
G1 F600 X150.695 Y146.17 E36.74538
M204 S5000
G0 F2400 X151.261 Y146.17
M204 S300
G1 F600 X158.92 Y153.828 E37.09841
M204 S5000
G0 F2400 X159.485 Y153.828
M204 S300
G1 F600 X151.827 Y146.17 E37.45141
M204 S5000
G0 F2400 X152.392 Y146.17
M204 S300
G1 F600 X160.051 Y153.828 E37.80444
M204 S5000
G0 F2400 X160.617 Y153.828
M204 S300
G1 F600 X152.958 Y146.17 E38.15747
M204 S5000
G0 F2400 X153.524 Y146.17
M204 S300
G1 F600 X161.182 Y153.828 E38.51047
M204 S5000
G0 F2400 X161.748 Y153.828
M204 S300
G1 F600 X154.089 Y146.17 E38.8635
M204 S5000
G0 F2400 X154.655 Y146.17
M204 S300
G1 F600 X162.314 Y153.828 E39.21653
M204 S5000
G0 F2400 X162.879 Y153.828
M204 S300
G1 F600 X155.221 Y146.17 E39.56953
M204 S5000
G0 F2400 X155.786 Y146.17
M204 S300
G1 F600 X163.445 Y153.828 E39.92256
M204 S5000
G0 F2400 X164.011 Y153.828
M204 S300
G1 F600 X156.352 Y146.17 E40.27559
M204 S5000
G0 F2400 X156.918 Y146.17
M204 S300
G1 F600 X164.576 Y153.828 E40.62859
M204 S5000
G0 F2400 X165.142 Y153.828
M204 S300
G1 F600 X157.483 Y146.17 E40.98162
M204 S5000
G0 F2400 X158.049 Y146.17
M204 S300
G1 F600 X165.708 Y153.828 E41.33465
M204 S5000
G0 F2400 X166.274 Y153.828
M204 S300
G1 F600 X158.615 Y146.17 E41.68768
M204 S5000
G0 F2400 X159.181 Y146.17
M204 S300
G1 F600 X166.839 Y153.828 E42.04068
M204 S5000
G0 F2400 X167.405 Y153.828
M204 S300
G1 F600 X159.746 Y146.17 E42.39371
M204 S5000
G0 F2400 X160.312 Y146.17
M204 S300
G1 F600 X167.971 Y153.828 E42.74674
M204 S5000
G0 F2400 X168.536 Y153.828
M204 S300
G1 F600 X160.878 Y146.17 E43.09974
M204 S5000
G0 F2400 X161.443 Y146.17
M204 S300
G1 F600 X169.102 Y153.828 E43.45277
M204 S5000
G0 F2400 X169.329 Y153.49
M204 S300
G1 F600 X162.009 Y146.17 E43.79019
M204 S5000
G0 F2400 X162.575 Y146.17
M204 S300
G1 F600 X169.329 Y152.924 E44.10153
M204 S5000
G0 F2400 X169.329 Y152.358
M204 S300
G1 F600 X163.14 Y146.17 E44.38679
M204 S5000
G0 F2400 X163.706 Y146.17
M204 S300
G1 F600 X169.329 Y151.793 E44.64599
M204 S5000
G0 F2400 X169.329 Y151.227
M204 S300
G1 F600 X164.272 Y146.17 E44.8791
M204 S5000
G0 F2400 X164.837 Y146.17
M204 S300
G1 F600 X169.329 Y150.661 E45.08614
M204 S5000
G0 F2400 X169.329 Y150.096
M204 S300
G1 F600 X165.403 Y146.17 E45.26712
M204 S5000
G0 F2400 X165.969 Y146.17
M204 S300
G1 F600 X169.329 Y149.53 E45.422
M204 S5000
G0 F2400 X169.329 Y148.964
M204 S300
G1 F600 X166.534 Y146.17 E45.55082
M204 S5000
G0 F2400 X167.1 Y146.17
M204 S300
G1 F600 X169.329 Y148.399 E45.65356
M204 S5000
G0 F2400 X169.329 Y147.833
M204 S300
G1 F600 X167.666 Y146.17 E45.73022
M204 S5000
G0 F2400 X168.232 Y146.17
M204 S300
G1 F600 X169.329 Y147.267 E45.78079
M204 S5000
G0 F2400 X169.329 Y146.702
M204 S300
G1 F600 X168.797 Y146.17 E45.80531
M204 S5000
G1 F1500 E43.30531
;MESH:NONMESH
G0 F600 X168.797 Y146.17 Z0.28
G0 F2400 X130.17 Y154.33
G0 X130.1 Y154.4
;TIME_ELAPSED:150.751190
;LAYER:1
M140 S60
M106 S63.8
M204 S300
;TYPE:WALL-INNER
;MESH:5cea3c9b-f43f-4517-9e2e-f60ce5679e15.stl
G1 F1500 E45.80531
G1 F1200 X130.1 Y145.6 E45.92005
G1 X169.9 Y145.6 E46.43896
G1 X169.9 Y154.4 E46.55369
G1 X130.1 Y154.4 E47.0726
M204 S5000
G0 F4800 X129.7 Y154.8
M204 S300
;TYPE:WALL-OUTER
G1 F750 X129.7 Y145.2 E47.19777
G1 X170.3 Y145.2 E47.72711
G1 X170.3 Y154.8 E47.85227
G1 X129.7 Y154.8 E48.38162
M204 S5000
G0 F4800 X129.7 Y154.6
G0 X130.49 Y154.01
M204 S300
;TYPE:SKIN
G1 F750 X130.49 Y145.99 E48.48618
G1 X169.51 Y145.99 E48.99492
G1 X169.51 Y154.01 E49.09949
G1 X130.49 Y154.01 E49.60823
M204 S5000
G0 F4800 X130.669 Y146.516
M204 S300
G1 F750 X131.016 Y146.169 E49.61463
M204 S5000
G0 F4800 X131.581 Y146.169
M204 S300
G1 F750 X130.669 Y147.081 E49.63144
M204 S5000
G0 F4800 X130.669 Y147.647
M204 S300
G1 F750 X132.147 Y146.169 E49.65869
M204 S5000
G0 F4800 X132.713 Y146.169
M204 S300
G1 F750 X130.669 Y148.213 E49.69638
M204 S5000
G0 F4800 X130.669 Y148.778
M204 S300
G1 F750 X133.279 Y146.169 E49.7445
M204 S5000
G0 F4800 X133.844 Y146.169
M204 S300
G1 F750 X130.669 Y149.344 E49.80304
M204 S5000
G0 F4800 X130.669 Y149.91
M204 S300
G1 F750 X134.41 Y146.169 E49.87202
M204 S5000
G0 F4800 X134.976 Y146.169
M204 S300
G1 F750 X130.669 Y150.475 E49.95142
M204 S5000
G0 F4800 X130.669 Y151.041
M204 S300
G1 F750 X135.541 Y146.169 E50.04126
M204 S5000
G0 F4800 X136.107 Y146.169
M204 S300
G1 F750 X130.669 Y151.607 E50.14152
M204 S5000
G0 F4800 X130.669 Y152.172
M204 S300
G1 F750 X136.673 Y146.169 E50.25222
M204 S5000
G0 F4800 X137.238 Y146.169
M204 S300
G1 F750 X130.669 Y152.738 E50.37334
M204 S5000
G0 F4800 X130.669 Y153.304
M204 S300
G1 F750 X137.804 Y146.169 E50.5049
M204 S5000
G0 F4800 X138.37 Y146.169
M204 S300
G1 F750 X130.71 Y153.829 E50.64614
M204 S5000
G0 F4800 X131.275 Y153.829
M204 S300
G1 F750 X138.935 Y146.169 E50.78738
M204 S5000
G0 F4800 X139.501 Y146.169
M204 S300
G1 F750 X131.841 Y153.829 E50.92862
M204 S5000
G0 F4800 X132.407 Y153.829
M204 S300
G1 F750 X140.067 Y146.169 E51.06986
M204 S5000
G0 F4800 X140.632 Y146.169
M204 S300
G1 F750 X132.972 Y153.829 E51.21109
M204 S5000
G0 F4800 X133.538 Y153.829
M204 S300
G1 F750 X141.198 Y146.169 E51.35233
M204 S5000
G0 F4800 X141.764 Y146.169
M204 S300
G1 F750 X134.104 Y153.829 E51.49357
M204 S5000
G0 F4800 X134.669 Y153.829
M204 S300
G1 F750 X142.329 Y146.169 E51.63481
M204 S5000
G0 F4800 X142.895 Y146.169
M204 S300
G1 F750 X135.235 Y153.829 E51.77605
M204 S5000
G0 F4800 X135.801 Y153.829
M204 S300
G1 F750 X143.461 Y146.169 E51.91729
M204 S5000
G0 F4800 X144.027 Y146.169
M204 S300
G1 F750 X136.366 Y153.829 E52.05854
M204 S5000
G0 F4800 X136.932 Y153.829
M204 S300
G1 F750 X144.592 Y146.169 E52.19978
M204 S5000
G0 F4800 X145.158 Y146.169
M204 S300
G1 F750 X137.498 Y153.829 E52.34101
M204 S5000
